cesarbds/cloth_dressing/GMM/demo1.csv
Button,Action,x,y,z,roll,pitch,yaw,gripper_state,joint0,joint1,joint2,joint3,joint4,joint5,joint6,joint7
1,Pressed,2.0133986473083496,1.716078281402588,0.6505148410797119,37.86863327026367,176.88336181640625,129.3736572265625,0,-48.04788589477539,-61.4189453125,58.77097702026367,44.21733856201172,72.14623260498047,73.56028747558594,59.777767181396484
1,Pressed,2.035017490386963,1.700991153717041,0.5546492338180542,36.556461334228516,186.16726684570312,130.4077606201172,0,-47.08745574951172,-61.27090835571289,62.097007751464844,35.090694427490234,74.18968963623047,73.49999237060547,64.08121490478516
1,Pressed,2.0395588874816895,1.6932454109191895,0.5098202228546143,36.75143814086914,189.76730346679688,131.2301025390625,0,-47.172664642333984,-60.918094635009766,64.80097198486328,28.71349334716797,72.47187042236328,73.77250671386719,67.82613372802734
-1,Pressed,2.017443895339966,1.658385992050171,0.4283933937549591,30.12306022644043,199.5539093017578,134.81936645507812,0,-42.21036911010742,-60.385826110839844,72.00094604492188,31.145959854125977,73.23239135742188,73.73094177246094,66.37728118896484
-1,Pressed,2.022801637649536,1.6978932619094849,0.5486842393875122,34.646358489990234,187.48411560058594,131.57054138183594,0,-44.9369010925293,-60.150177001953125,64.66841125488281,38.06465530395508,72.36927032470703,73.60890197753906,62.73766326904297
-1,Pressed,2.0078392028808594,1.731177806854248,0.6342343091964722,36.44397735595703,177.75885009765625,127.79151916503906,0,-46.69131088256836,-60.25794982910156,57.964385986328125,44.46558380126953,73.59223937988281,73.7049789428711,59.545902252197266
-1,Pressed,1.996417760848999,1.7141990661621094,0.6820802688598633,36.24325942993164,174.70144653320312,130.09397888183594,0,-47.66372299194336,-60.91823959350586,58.6656379699707,49.26851272583008,71.70552825927734,73.92044067382812,57.4351921081543
-1,Pressed,1.9772322177886963,1.7141785621643066,0.7358815670013428,36.78929138183594,169.3062286376953,130.0656280517578,0,-49.09209060668945,-61.644630432128906,56.522010803222656,53.87946319580078,71.01951599121094,74.20472717285156,55.510616302490234
-1,Pressed,1.9551646709442139,1.7140709161758423,0.774320662021637,36.79689407348633,165.1412811279297,130.1850128173828,0,-49.733680725097656,-61.981868743896484,54.90694808959961,57.992916107177734,70.12784576416016,74.58605194091797,53.92573547363281
-1,Pressed,1.9274193048477173,1.7175672054290771,0.8044624328613281,36.49494934082031,161.09832763671875,130.0982208251953,0,-49.63329315185547,-61.902549743652344,53.046085357666016,62.07227325439453,68.77371978759766,75.18656158447266,52.59299850463867
-2,Pressed,1.9130359888076782,1.700801134109497,0.8466004133224487,36.446041107177734,156.7211456298828,130.1121368408203,0,-51.818782806396484,-63.901268005371094,52.41525650024414,66.39239501953125,69.34738159179688,74.1852035522461,51.306663513183594
2,Pressed,1.9137598276138306,1.7112432718276978,0.8440531492233276,36.91322326660156,156.2946319580078,129.14527893066406,0,-51.978065490722656,-63.71348190307617,51.32102966308594,65.3116455078125,69.65766143798828,74.59503936767578,51.59748077392578
2,Pressed,1.9252408742904663,1.7252119779586792,0.810948371887207,38.17851257324219,159.67428588867188,130.10606384277344,0,-50.945438385009766,-62.35622024536133,51.2880744934082,60.1104736328125,68.54338073730469,76.6395263671875,53.24325942993164
2,Pressed,1.93324613571167,1.7322129011154175,0.7796754837036133,39.79697036743164,162.37686157226562,131.34413146972656,0,-50.04988479614258,-61.92026138305664,50.85059356689453,55.513484954833984,67.6092300415039,78.85258483886719,55.00489044189453
1,Pressed,1.9456019401550293,1.7541694641113281,0.7091391682624817,38.06644821166992,169.1682586669922,130.3749542236328,0,-46.23085021972656,-58.74766159057617,52.35548400878906,50.287109375,68.21245574951172,79.61375427246094,57.00075912475586
1,Pressed,1.935178518295288,1.798269510269165,0.6019409894943237,37.588375091552734,175.74346923828125,125.06685638427734,0,-38.21625518798828,-56.31964874267578,49.69997024536133,46.65080642700195,70.2843246459961,79.32252502441406,58.57011032104492
-1,Pressed,1.9258167743682861,1.713340401649475,0.456221342086792,34.704505920410156,195.18800354003906,135.18560791015625,0,-28.911190032958984,-58.59706115722656,59.493927001953125,47.2407112121582,69.11592864990234,79.43341064453125,58.27265548706055
-1,Pressed,1.933556318283081,1.7471803426742554,0.5991895794868469,36.52696228027344,179.84469604492188,131.77627563476562,0,-36.58665084838867,-57.984230041503906,54.088260650634766,51.02094650268555,67.73259735107422,79.82546997070312,56.6920280456543
-1,Pressed,1.9192578792572021,1.7428605556488037,0.7537186145782471,41.25383377075195,163.40736389160156,132.0394744873047,0,-46.758827209472656,-61.02318572998047,50.20152282714844,54.83728790283203,64.32650756835938,80.23432159423828,55.343318939208984
-1,Pressed,1.898195505142212,1.7431678771972656,0.6090291738510132,35.37194061279297,178.14549255371094,132.7242889404297,0,-32.51564025878906,-58.35976791381836,51.20192337036133,57.88356018066406,66.08049774169922,81.28581237792969,54.410030364990234
-1,Pressed,1.888530969619751,1.7222516536712646,0.7957377433776855,41.71171951293945,158.7740936279297,134.78329467773438,0,-47.85399627685547,-63.16804122924805,48.55855941772461,60.33891677856445,62.36256408691406,81.6934814453125,53.64253616333008
-1,Pressed,1.8552671670913696,1.7770869731903076,0.6691634654998779,34.47034454345703,168.0419464111328,128.73931884765625,0,-32.81300735473633,-57.66781997680664,43.84733963012695,62.8348503112793,64.86056518554688,83.1649169921875,53.31941604614258
-1,Pressed,1.707327127456665,1.7366406917572021,0.32738152146339417,37.27951431274414,204.2655792236328,132.79962158203125,0,3.8673954010009766,-62.30698776245117,43.64738464355469,65.40961456298828,63.392330169677734,84.60652160644531,53.130950927734375
-1,Pressed,1.6602617502212524,1.751562476158142,0.31671056151390076,38.4801025390625,203.7033233642578,130.0402069091797,0,9.445643424987793,-63.7179069519043,38.717872619628906,67.50151062011719,62.28292465209961,85.97612762451172,52.961116790771484
-1,Pressed,1.6332147121429443,1.7543280124664307,0.31781819462776184,38.567298889160156,203.32373046875,129.5881805419922,0,12.469388008117676,-64.39530181884766,36.384300231933594,68.9855728149414,60.949119567871094,87.36431884765625,52.96139144897461
3,Pressed,1.6230919361114502,1.7535333633422852,0.32827121019363403,38.494083404541016,203.7661895751953,129.81948852539062,0,14.186689376831055,-64.4432373046875,35.440956115722656,71.65213775634766,60.221561431884766,87.20330810546875,50.98794937133789
3,Pressed,1.6232391595840454,1.756728172302246,0.3628785014152527,38.45119094848633,203.20545959472656,129.3455047607422,0,15.261518478393555,-63.85963439941406,33.70553207397461,77.21714782714844,59.67823791503906,85.4681167602539,45.77878952026367
3,Pressed,1.6227844953536987,1.7567379474639893,0.38334566354751587,38.404266357421875,203.37619018554688,129.45335388183594,0,16.034019470214844,-63.250789642333984,32.91143035888672,80.46311950683594,59.24779510498047,84.38230895996094,42.48854446411133
3,Pressed,1.6224405765533447,1.757582664489746,0.4067678451538086,38.328582763671875,203.39466857910156,129.40953063964844,0,16.764022827148438,-62.39962387084961,31.866941452026367,83.8141860961914,58.82529067993164,83.19791412353516,38.88314437866211
3,Pressed,1.6222169399261475,1.758444905281067,0.43196943402290344,38.262882232666016,203.3428497314453,129.28103637695312,0,17.459863662719727,-61.34383010864258,30.682220458984375,87.17125701904297,58.41086196899414,81.89666748046875,35.063194274902344
3,Pressed,1.6220884323120117,1.759425163269043,0.45903196930885315,38.18467330932617,203.2409210205078,129.11988830566406,0,18.090044021606445,-60.01008987426758,29.34183120727539,90.42874145507812,57.99441146850586,80.54913330078125,31.042024612426758
3,Pressed,1.6218349933624268,1.7596806287765503,0.48199188709259033,38.134246826171875,203.3212127685547,129.09829711914062,0,18.6826114654541,-58.658546447753906,28.227752685546875,93.0145263671875,57.57762145996094,79.36409759521484,27.573326110839844
3,Pressed,1.6217397451400757,1.760359525680542,0.5090428590774536,38.08188247680664,203.2307891845703,128.9519500732422,0,19.22783088684082,-56.94295883178711,26.788963317871094,95.71903991699219,57.15420913696289,78.0274658203125,23.618976593017578
3,Pressed,1.62162184715271,1.7608031034469604,0.5340895056724548,38.01850128173828,203.2219696044922,128.8751220703125,0,19.724607467651367,-55.1336669921875,25.409231185913086,97.94598388671875,56.74828338623047,76.83191680908203,19.96904945373535
3,Pressed,1.6214808225631714,1.7610304355621338,0.5583249926567078,37.94371795654297,203.26510620117188,128.82044982910156,0,20.212921142578125,-53.20158767700195,24.007061004638672,99.87510681152344,56.36655807495117,75.7060775756836,16.435998916625977
3,Pressed,1.621421456336975,1.7613074779510498,0.583209753036499,37.90178680419922,203.2773895263672,128.78256225585938,0,20.661056518554688,-51.083919525146484,22.50460433959961,101.55403137207031,55.96460723876953,74.60904693603516,12.883980751037598
3,Pressed,1.6213879585266113,1.761630654335022,0.608779788017273,37.8604736328125,203.24386596679688,128.70106506347656,0,21.097259521484375,-48.776885986328125,20.866933822631836,103.01244354248047,55.59675598144531,73.53746032714844,9.293517112731934
3,Pressed,1.6213085651397705,1.7617013454437256,0.6317026615142822,37.81460189819336,203.30821228027344,128.67640686035156,0,21.54694175720215,-46.54143142700195,19.32467269897461,104.09212493896484,55.263404846191406,72.64098358154297,6.0734758377075195
3,Pressed,1.6212984323501587,1.761812448501587,0.656379759311676,37.781436920166016,203.3043975830078,128.60874938964844,0,21.9706974029541,-44.06707763671875,17.583208084106445,105.00240325927734,54.9754753112793,71.77144622802734,2.678021192550659
3,Pressed,1.6212934255599976,1.7619808912277222,0.681276261806488,37.76496505737305,203.3041534423828,128.561279296875,0,22.377254486083984,-41.46815490722656,15.752747535705566,105.61763000488281,54.7141227722168,71.02816009521484,-0.6706730723381042
3,Pressed,1.6213665008544922,1.762189269065857,0.7082157135009766,37.72636413574219,203.23147583007812,128.4786376953125,0,22.7282772064209,-38.58332443237305,13.714466094970703,105.96711730957031,54.52949905395508,70.4009017944336,-4.165930271148682
3,Pressed,1.6214239597320557,1.7622416019439697,0.7332285642623901,37.70783615112305,203.2615203857422,128.43728637695312,0,23.111560821533203,-35.77766418457031,11.738292694091797,106.00663757324219,54.40456771850586,69.97045135498047,-7.392207145690918
3,Pressed,1.6215553283691406,1.7622302770614624,0.7554707527160645,37.68006134033203,203.3911590576172,128.42514038085938,0,23.528156280517578,-33.15521240234375,9.903955459594727,105.77799987792969,54.331024169921875,69.74324035644531,-10.222153663635254
3,Pressed,1.621726632118225,1.7623143196105957,0.7800140976905823,37.66646194458008,203.4005126953125,128.3755340576172,0,23.80141830444336,-30.29644203186035,7.9095845222473145,105.2767562866211,54.37407302856445,69.67937469482422,-13.185834884643555
3,Pressed,1.621931552886963,1.7624754905700684,0.8071584701538086,37.65813064575195,203.28627014160156,128.31295776367188,0,23.84995460510254,-27.159669876098633,5.814026355743408,104.41915893554688,54.553749084472656,69.83509826660156,-16.247650146484375
3,Pressed,1.622488260269165,1.7623902559280396,0.8288905620574951,37.63762664794922,203.51708984375,128.30740356445312,0,24.153221130371094,-24.394596099853516,4.003497123718262,103.42845916748047,54.74158477783203,70.15831756591797,-18.764331817626953
3,Pressed,1.6229612827301025,1.7624388933181763,0.8533685207366943,37.6262092590332,203.52374267578125,128.25692749023438,0,24.08022689819336,-21.407360076904297,2.194018840789795,102.11661529541016,55.10184860229492,70.69959259033203,-21.32648468017578
3,Pressed,1.623553991317749,1.7624316215515137,0.8796263933181763,37.614402770996094,203.54611206054688,128.21131896972656,0,23.855993270874023,-18.152355194091797,0.3896588981151581,100.41996765136719,55.58442687988281,71.48091888427734,-23.888214111328125
3,Pressed,1.6243069171905518,1.7624268531799316,0.9040165543556213,37.60649108886719,203.66465759277344,128.18186950683594,0,23.529638290405273,-15.031698226928711,-1.1496742963790894,98.5321273803711,56.12371063232422,72.43061828613281,-26.12117576599121
3,Pressed,1.625224232673645,1.762435793876648,0.9263418316841125,37.59162139892578,203.7726287841797,128.1260223388672,0,23.10272216796875,-12.124266624450684,-2.3877475261688232,96.5707778930664,56.695579528808594,73.41864013671875,-27.96836280822754
3,Pressed,1.6263099908828735,1.7624410390853882,0.9522234797477722,37.58298110961914,203.87451171875,128.04296875,0,22.451278686523438,-8.733196258544922,-3.61441969871521,94.045166015625,57.41300582885742,74.66710662841797,-29.851274490356445
3,Pressed,1.6268342733383179,1.7625696659088135,0.9753752946853638,37.55096435546875,203.8353729248047,127.91665649414062,0,21.75873565673828,-5.740711688995361,-4.590019702911377,91.59415435791016,58.07840347290039,75.85004425048828,-31.216703414916992
3,Pressed,1.626814842224121,1.7626597881317139,1.0024971961975098,37.52200698852539,203.653564453125,127.71239471435547,0,21.721607208251953,-2.267364263534546,-6.447273254394531,88.53704071044922,58.865516662597656,77.22274780273438,-32.505760192871094
3,Pressed,1.6233218908309937,1.7623203992843628,1.0305614471435547,37.483062744140625,202.87135314941406,127.68721771240234,0,22.73242950439453,0.8641358613967896,-9.749747276306152,85.53089141845703,59.55229187011719,78.48209381103516,-33.33943176269531
3,Pressed,1.6145131587982178,1.760503888130188,1.0674903392791748,37.418704986572266,201.43885803222656,128.21148681640625,0,22.788320541381836,4.4960551261901855,-13.215824127197266,81.73855590820312,60.22979736328125,79.9726791381836,-33.94305419921875
3,Pressed,1.595407247543335,1.7597987651824951,1.1078002452850342,37.501800537109375,198.76780700683594,128.70358276367188,0,19.111804962158203,7.573307037353516,-13.866226196289062,78.16173553466797,60.785072326660156,81.25028228759766,-34.20832824707031
3,Pressed,1.5772278308868408,1.7597459554672241,1.1468214988708496,37.62285614013672,196.62254333496094,129.09654235839844,0,15.447866439819336,11.075189590454102,-14.032147407531738,73.78665924072266,61.477230072021484,82.69502258300781,-34.167606353759766
3,Pressed,1.5815832614898682,1.7586524486541748,1.1673941612243652,37.548423767089844,197.6160430908203,129.3865203857422,0,14.668585777282715,14.581409454345703,-13.734917640686035,69.27699279785156,62.060787200927734,84.11863708496094,-33.75931167602539
1,Pressed,1.6040266752243042,1.7569024562835693,1.1709792613983154,37.46094512939453,198.96714782714844,129.60415649414062,0,16.504030227661133,16.37049674987793,-12.861949920654297,66.98661041259766,61.712432861328125,83.04596710205078,-32.4697151184082
1,Pressed,1.6334764957427979,1.7559094429016113,1.1694360971450806,37.45737838745117,199.708740234375,129.73944091796875,0,19.472715377807617,17.47459602355957,-11.956036567687988,65.51863861083984,60.883670806884766,80.48558044433594,-30.462875366210938
-1,Pressed,1.6392955780029297,1.7557166814804077,1.1614116430282593,37.318912506103516,200.9723358154297,129.58587646484375,0,19.993501663208008,17.427417755126953,-11.69178295135498,65.64697265625,61.006019592285156,81.01370239257812,-30.729093551635742
-1,Pressed,1.6139963865280151,1.7564959526062012,1.1629621982574463,37.29107666015625,200.5580596923828,129.48699951171875,0,17.378881454467773,16.592260360717773,-12.458551406860352,66.74413299560547,61.74694061279297,83.47254180908203,-32.512142181396484
-1,Pressed,1.5806999206542969,1.757605791091919,1.167668342590332,37.34215545654297,199.37925720214844,129.41648864746094,0,13.983592987060547,15.757579803466797,-13.63758373260498,67.795654296875,62.54426193237305,86.27552795410156,-34.4677619934082
-1,Pressed,1.5519871711730957,1.7581157684326172,1.16718327999115,37.3206672668457,199.0272674560547,129.30221557617188,0,10.950775146484375,15.143516540527344,-14.665854454040527,68.63931274414062,63.26445770263672,89.42530059814453,-36.50202178955078
-1,Pressed,1.5299675464630127,1.7582571506500244,1.1633930206298828,37.2774543762207,199.4166717529297,129.173583984375,0,8.506741523742676,14.820479393005371,-15.457894325256348,69.14556121826172,63.849388122558594,92.55735778808594,-38.40447235107422
-1,Pressed,1.5089690685272217,1.7585346698760986,1.161210536956787,37.2613639831543,199.53907775878906,129.0806884765625,0,6.241162300109863,14.713141441345215,-16.36122703552246,69.33621215820312,64.36503601074219,95.41148376464844,-40.02685546875
-1,Pressed,1.4834402799606323,1.7588872909545898,1.160138726234436,37.2498893737793,199.4276885986328,129.03598022460938,0,3.3789072036743164,14.815561294555664,-17.342105865478516,69.21703338623047,64.87075805664062,98.64997100830078,-41.74868392944336
-1,Pressed,1.4565017223358154,1.7591817378997803,1.158988356590271,37.21763229370117,199.29498291015625,129.0140838623047,0,0.260925829410553,15.150856971740723,-18.29131317138672,68.78192901611328,65.34382629394531,102.0807876586914,-43.462135314941406
-1,Pressed,1.430934190750122,1.7594871520996094,1.1575416326522827,37.16288375854492,199.26690673828125,128.98379516601562,0,-2.7393980026245117,15.733887672424316,-19.197704315185547,68.01177215576172,65.82258605957031,105.49295043945312,-45.034671783447266
-1,Pressed,1.4074960947036743,1.7594331502914429,1.1555885076522827,37.12836456298828,199.45147705078125,128.93270874023438,0,-5.605118274688721,16.510169982910156,-19.904258728027344,67.05006408691406,66.27449798583984,108.78257751464844,-46.56774139404297
-1,Pressed,1.3856735229492188,1.7596336603164673,1.1542727947235107,37.107948303222656,199.57479858398438,128.88389587402344,0,-8.267115592956543,17.445903778076172,-20.57151985168457,65.81493377685547,66.77884674072266,111.81910705566406,-47.840354919433594
-1,Pressed,1.3621656894683838,1.7596604824066162,1.1528356075286865,37.05464172363281,199.73721313476562,128.8820037841797,0,-11.19814682006836,18.619226455688477,-21.14013671875,64.21598052978516,67.2956314086914,115.02078247070312,-49.08559036254883
-1,Pressed,1.3376494646072388,1.7596683502197266,1.1517484188079834,36.99077606201172,199.74032592773438,128.88807678222656,0,-14.249210357666016,19.98053741455078,-21.680606842041016,62.31208419799805,67.90438079833984,118.15477752685547,-50.163822174072266
-1,Pressed,1.3134691715240479,1.759588360786438,1.1507068872451782,36.91073226928711,199.8009490966797,128.9005126953125,0,-17.3035945892334,21.544710159301758,-22.0767822265625,60.06056594848633,68.60650634765625,121.21160888671875,-51.0401725769043
-1,Pressed,1.2893410921096802,1.7594401836395264,1.1498372554779053,36.8005256652832,199.89244079589844,128.92723083496094,0,-20.37972068786621,23.325897216796875,-22.333982467651367,57.39897918701172,69.44853210449219,124.19095611572266,-51.6400146484375
-1,Pressed,1.2639459371566772,1.7588526010513306,1.149000644683838,36.6522216796875,199.92929077148438,128.9615478515625,0,-24.1884765625,25.26032829284668,-21.343412399291992,54.33412170410156,69.96006774902344,126.80445861816406,-51.87347412109375
-1,Pressed,1.2368141412734985,1.757629632949829,1.148610234260559,36.385498046875,199.7256317138672,128.9472198486328,0,-30.966367721557617,27.097461700439453,-14.231800079345703,50.87797164916992,67.80428314208984,127.56695556640625,-50.96458435058594
-1,Pressed,1.2133146524429321,1.756174921989441,1.1486281156539917,36.043521881103516,199.6427764892578,128.9128875732422,0,-37.46828842163086,29.162654876708984,-5.479470729827881,47.26093292236328,64.55561828613281,127.60221099853516,-49.26706314086914
-1,Pressed,1.187605857849121,1.7536500692367554,1.1487107276916504,35.59185028076172,199.43612670898438,128.8829345703125,0,-43.631351470947266,31.992029190063477,3.941612482070923,42.927459716796875,60.498046875,127.66841888427734,-46.884952545166016
4,Pressed,1.1742044687271118,1.751619815826416,1.1498990058898926,32.4411506652832,198.14263916015625,127.31968688964844,0,-47.819053649902344,35.33946228027344,14.975659370422363,38.26394271850586,54.99531936645508,127.64481353759766,-40.1534309387207
4,Pressed,1.1713429689407349,1.7472022771835327,1.1532649993896484,27.510061264038086,196.5506134033203,125.48959350585938,0,-49.347267150878906,38.562767028808594,24.674949645996094,34.45652389526367,49.0068473815918,127.67003631591797,-31.793663024902344
-4,Pressed,1.1625444889068604,1.737923502922058,1.1561033725738525,26.38972282409668,195.2434844970703,126.12157440185547,0,-50.84062576293945,39.0333251953125,27.434276580810547,35.17958450317383,45.60469436645508,126.24523162841797,-31.505603790283203
-4,Pressed,1.1667126417160034,1.7438589334487915,1.1530272960662842,32.3670768737793,197.28883361816406,127.62322998046875,0,-53.580360412597656,36.836219787597656,30.082773208618164,39.474666595458984,45.18064880371094,123.12234497070312,-38.16865921020508
-4,Pressed,1.1724721193313599,1.7475744485855103,1.1505839824676514,37.3252067565918,199.6785888671875,129.49203491210938,0,-55.657203674316406,34.91910934448242,31.868968963623047,43.251094818115234,45.17311096191406,120.54107666015625,-44.10437774658203
-4,Pressed,1.1712673902511597,1.7485101222991943,1.1488263607025146,42.10845947265625,201.325927734375,131.88580322265625,0,-58.2369270324707,33.0215950012207,32.507232666015625,47.17710494995117,45.76174545288086,117.86968231201172,-50.42347717285156
-4,Pressed,1.1723517179489136,1.7499239444732666,1.1468710899353027,46.9863395690918,203.7305908203125,134.78770446777344,0,-60.83621597290039,31.15106201171875,33.48317337036133,51.170249938964844,46.58803176879883,115.22515869140625,-56.801055908203125
-4,Pressed,1.1728897094726562,1.751649022102356,1.1451207399368286,52.15048599243164,207.00535583496094,138.6935272216797,0,-63.67823791503906,29.36244773864746,34.58639144897461,55.15848922729492,47.755706787109375,112.57381439208984,-63.56721878051758
-4,Pressed,1.1737498044967651,1.7522647380828857,1.1437004804611206,56.43889617919922,210.8125762939453,143.0382537841797,0,-66.03644561767578,27.880765914916992,35.364437103271484,58.6546745300293,48.98389434814453,110.41763305664062,-69.61390686035156
-4,Pressed,1.173421859741211,1.752875804901123,1.14238703250885,60.782344818115234,215.83480834960938,148.82542419433594,0,-68.59754180908203,26.47898292541504,36.120121002197266,62.21470642089844,50.52764129638672,108.29694366455078,-76.01177978515625
-4,Pressed,1.1736936569213867,1.7531747817993164,1.1412073373794556,64.64090728759766,222.45547485351562,156.12803649902344,0,-70.93570709228516,25.245525360107422,36.8123893737793,65.59986877441406,52.17208480834961,106.4337158203125,-82.2663345336914
-4,Pressed,1.1744693517684937,1.7529683113098145,1.1402623653411865,67.65452575683594,230.42103576660156,164.67613220214844,0,-72.84993743896484,24.2138614654541,37.30043029785156,68.62474060058594,53.7642936706543,104.92169189453125,-87.99864959716797
-4,Pressed,1.1744292974472046,1.7534422874450684,1.1390888690948486,70.61561584472656,243.07318115234375,178.15899658203125,0,-75.32589721679688,23.22248077392578,38.18557357788086,72.07785034179688,55.78963088989258,103.2537841796875,-94.86064147949219
-4,Pressed,1.1748727560043335,1.753274917602539,1.138380765914917,72.11077117919922,257.2340087890625,193.00291442871094,0,-77.17699432373047,22.496110916137695,38.7548828125,75.03871154785156,57.64827346801758,101.9859848022461,-101.03915405273438
-4,Pressed,1.1749893426895142,1.7531564235687256,1.1376157999038696,72.3345718383789,273.58258056640625,210.12583923339844,0,-79.06050872802734,21.943634033203125,39.43741226196289,78.01892852783203,59.62153625488281,100.81902313232422,-107.51690673828125
-4,Pressed,1.1755328178405762,1.752698540687561,1.137016773223877,71.1669921875,288.31488037109375,225.56805419921875,0,-80.59815979003906,21.577655792236328,40.01161193847656,80.77108764648438,61.496402740478516,99.87068939208984,-113.74674987792969
-4,Pressed,1.175864815711975,1.7521909475326538,1.1365258693695068,68.87720489501953,300.7432861328125,238.7598876953125,0,-82.00785827636719,21.431941986083984,40.631919860839844,83.4197006225586,63.36669921875,99.03739929199219,-120.06404113769531
-4,Pressed,1.1764001846313477,1.751447081565857,1.1362807750701904,66.02389526367188,309.6788330078125,248.36285400390625,0,-83.02908325195312,21.4982967376709,41.13666915893555,85.719970703125,65.02938079833984,98.39961242675781,-125.92031860351562
6,Pressed,1.178011417388916,1.750591516494751,1.136382818222046,66.6987075805664,319.3539733886719,258.8470764160156,0,-83.7869873046875,22.629150390625,41.95907211303711,88.91708374023438,67.685791015625,97.8899154663086,-129.32342529296875
6,Pressed,1.178006649017334,1.7489815950393677,1.13671875,69.15473937988281,328.6570129394531,268.99945068359375,0,-83.98246002197266,23.975351333618164,42.22455596923828,91.73646545410156,70.13241577148438,97.66504669189453,-130.24781799316406
-6,Pressed,1.1817702054977417,1.7505782842636108,1.1361372470855713,68.5580825805664,327.52642822265625,267.120361328125,0,-83.92681121826172,23.733009338378906,42.7403678894043,91.16679382324219,69.57977294921875,97.74437713623047,-130.05653381347656
-6,Pressed,1.1790481805801392,1.7516483068466187,1.1358888149261475,65.86168670654297,317.87969970703125,257.0330505371094,0,-83.84346008300781,22.307132720947266,42.16489791870117,88.29008483886719,67.11670684814453,97.96331024169922,-129.25802612304688
-6,Pressed,1.1780046224594116,1.7529606819152832,1.135672688484192,62.15666198730469,309.74102783203125,248.1323699951172,0,-83.46089172363281,20.723047256469727,41.630516052246094,85.14848327636719,64.28202056884766,98.20333099365234,-128.5111846923828
-6,Pressed,1.1777948141098022,1.7543538808822632,1.135495901107788,58.22105407714844,304.0494689941406,241.56153869628906,0,-82.91355895996094,19.294580459594727,41.241878509521484,82.19664764404297,61.49131393432617,98.4251480102539,-127.87960052490234
-6,Pressed,1.1769864559173584,1.7556606531143188,1.1349416971206665,54.443416595458984,300.0859375,236.84092712402344,0,-82.4851303100586,18.069211959838867,41.02486801147461,79.61421966552734,58.89211654663086,98.62614440917969,-127.41815185546875
-6,Pressed,1.1767070293426514,1.7570619583129883,1.1347033977508545,49.8321533203125,296.39678955078125,232.25619506835938,0,-81.67565155029297,16.58634376525879,40.626155853271484,76.75093078613281,55.82362747192383,98.78146362304688,-126.97465515136719
-6,Pressed,1.1761341094970703,1.7582929134368896,1.1341633796691895,45.69091796875,293.90716552734375,228.9561767578125,0,-81.0060806274414,15.360793113708496,40.457862854003906,74.36412048339844,53.01969909667969,98.89147186279297,-126.6938247680664
-6,Pressed,1.176142930984497,1.7595458030700684,1.1337355375289917,41.12080764770508,291.7857666015625,225.92593383789062,0,-80.1093978881836,13.994285583496094,40.26704788208008,72.01006317138672,49.945350646972656,98.90843200683594,-126.5207290649414
-6,Pressed,1.1762666702270508,1.760784387588501,1.1332409381866455,36.59617614746094,290.1157531738281,223.343017578125,0,-79.13650512695312,12.651577949523926,40.131004333496094,69.89051055908203,46.83940505981445,98.8506088256836,-126.42161560058594
-6,Pressed,1.1762839555740356,1.762025237083435,1.1327824592590332,31.991010665893555,288.7576904296875,221.0122528076172,0,-78.03968811035156,11.347017288208008,40.08558654785156,67.8912582397461,43.53923034667969,98.70748138427734,-126.35244750976562
-6,Pressed,1.1768988370895386,1.7633416652679443,1.1324838399887085,26.973026275634766,287.6304626464844,218.75648498535156,0,-76.60072326660156,9.915874481201172,40.02035140991211,65.99105834960938,39.848609924316406,98.41165161132812,-126.34105682373047
-6,Pressed,1.1775498390197754,1.7644290924072266,1.1319336891174316,22.648122787475586,286.9210205078125,217.00711059570312,0,-75.52276611328125,8.683998107910156,40.30851364135742,64.63261413574219,36.537235260009766,98.04068756103516,-126.40592956542969
-6,Pressed,1.178741693496704,1.7657006978988647,1.1315784454345703,17.752445220947266,286.32965087890625,215.15985107421875,0,-73.96770477294922,7.288644313812256,40.522705078125,63.32769012451172,32.66746139526367,97.48869323730469,-126.46729278564453
-6,Pressed,1.180281639099121,1.7668055295944214,1.1311306953430176,12.788496971130371,285.93853759765625,213.38058471679688,0,-72.33377838134766,5.866595268249512,40.9307746887207,62.34688949584961,28.561614990234375,96.76590728759766,-126.52357482910156
-6,Pressed,1.1818602085113525,1.7677385807037354,1.1308339834213257,8.574728012084961,285.822021484375,211.92147827148438,0,-71.15186309814453,4.730686187744141,41.81699752807617,61.7232780456543,24.84174156188965,96.03258514404297,-126.49760437011719
-6,Pressed,1.184192180633545,1.7686891555786133,1.1307504177093506,3.9211831092834473,285.8417053222656,210.36151123046875,0,-69.65841674804688,3.4636893272399902,42.83415603637695,61.335140228271484,20.606464385986328,95.06101989746094,-126.38066101074219
-6,Pressed,1.1874722242355347,1.7695176601409912,1.1306982040405273,358.8674011230469,286.0867919921875,208.66925048828125,0,-68.10869598388672,2.0950937271118164,44.318214416503906,61.2802734375,15.815397262573242,93.86305236816406,-126.12806701660156
3,Pressed,1.19120192527771,1.7685612440109253,1.1476809978485107,357.0144958496094,286.7020263671875,207.7529296875,0,-63.15570068359375,4.973906993865967,46.79691696166992,58.94363021850586,9.212420463562012,92.75031280517578,-122.2236557006836
3,Pressed,1.193229079246521,1.7666285037994385,1.174001932144165,356.8502197265625,287.12493896484375,207.4810791015625,0,-56.63884735107422,9.94602108001709,48.809326171875,55.03120422363281,2.1428444385528564,92.3966293334961,-117.29840850830078
3,Pressed,1.1942203044891357,1.7647452354431152,1.1991431713104248,356.9167785644531,287.3839111328125,207.33021545410156,0,-50.395240783691406,14.518352508544922,49.32455825805664,50.69919967651367,-3.637598752975464,92.97911834716797,-113.779296875
1,Pressed,1.2062835693359375,1.7624733448028564,1.211064100265503,357.0293884277344,286.89398193359375,207.16773986816406,0,-46.28619384765625,15.93886661529541,49.10748291015625,49.42764663696289,-6.377608299255371,92.86495208740234,-110.63182067871094
1,Pressed,1.2340340614318848,1.7629560232162476,1.2126033306121826,356.99267578125,287.2398681640625,207.21722412109375,0,-43.078086853027344,15.295488357543945,49.47380828857422,50.16551971435547,-7.5124945640563965,92.27751922607422,-107.53497314453125
-1,Pressed,1.245406150817871,1.7655762434005737,1.2123329639434814,356.9799499511719,289.15460205078125,207.4744415283203,0,-42.46839904785156,15.353113174438477,50.332298278808594,49.83306884765625,-7.414102077484131,92.52149963378906,-108.0846939086914
-1,Pressed,1.2163347005844116,1.765089750289917,1.2123820781707764,356.9974365234375,288.76141357421875,207.37017822265625,0,-45.49089813232422,16.291593551635742,50.03881072998047,48.737064361572266,-6.640464782714844,93.30689239501953,-111.09709930419922
-1,Pressed,1.1796762943267822,1.762724757194519,1.2113653421401978,357.1377258300781,287.33428955078125,207.12950134277344,0,-48.5659065246582,17.49094009399414,49.005496978759766,47.45600891113281,-5.968756198883057,94.13534545898438,-113.87531280517578
-1,Pressed,1.1554064750671387,1.762141466140747,1.2107187509536743,357.131591796875,287.3721008300781,207.12904357910156,0,-50.52820587158203,18.774805068969727,48.79005813598633,45.9098014831543,-5.7316155433654785,95.04537963867188,-116.47736358642578
-1,Pressed,1.1336228847503662,1.7620248794555664,1.2106513977050781,357.1274719238281,287.7388610839844,207.1553955078125,0,-51.865901947021484,20.357868194580078,48.74927520751953,43.83108139038086,-5.89893102645874,96.2471923828125,-118.89901733398438
-1,Pressed,1.1071754693984985,1.7609798908233643,1.2101552486419678,357.1461486816406,287.60174560546875,207.02566528320312,0,-52.89619445800781,22.324331283569336,48.26683044433594,41.09407424926758,-6.40376091003418,97.80718231201172,-121.2144546508789
-1,Pressed,1.0812773704528809,1.7593836784362793,1.2094361782073975,357.186279296875,287.292236328125,206.82107543945312,0,-53.42955017089844,24.41109275817871,47.49294662475586,37.982398986816406,-7.065874099731445,99.54639434814453,-123.29080200195312
-1,Pressed,1.0517828464508057,1.7578731775283813,1.2088606357574463,357.1229553222656,287.16851806640625,206.56625366210938,0,-53.412933349609375,27.268524169921875,46.76195526123047,33.284324645996094,-8.418575286865234,102.13634490966797,-125.76564025878906
-1,Pressed,1.0256035327911377,1.7556614875793457,1.2079989910125732,357.0773620605469,286.746337890625,206.12442016601562,0,-52.605812072753906,30.05050277709961,45.36284255981445,28.14887237548828,-9.734964370727539,104.96939086914062,-127.86674499511719
-3,Pressed,1.0072964429855347,1.753067135810852,1.1892786026000977,357.127685546875,285.6243896484375,205.70040893554688,0,-56.77750015258789,28.879871368408203,45.13801193237305,30.68524932861328,-7.965454578399658,104.4422378540039,-129.447265625
-3,Pressed,1.0080174207687378,1.755954623222351,1.165184736251831,357.4243469238281,285.81103515625,206.32049560546875,0,-63.409271240234375,25.50362205505371,47.19221115112305,36.677791595458984,-4.293234348297119,102.52840423583984,-131.0589141845703
-3,Pressed,1.0182857513427734,1.761589765548706,1.1400861740112305,357.434814453125,287.2004089355469,207.14230346679688,0,-70.76201629638672,21.704673767089844,50.30318832397461,42.41302490234375,-0.15778964757919312,101.22077178955078,-133.672119140625
-3,Pressed,1.0195564031600952,1.7638185024261475,1.1144766807556152,357.41864013671875,287.2862243652344,207.42575073242188,0,-77.70357513427734,18.459667205810547,51.55378341674805,46.716651916503906,3.954821825027466,100.72706604003906,-136.75515747070312
-3,Pressed,1.0186477899551392,1.7653422355651855,1.0858955383300781,357.4019470214844,287.0043029785156,207.6564483642578,0,-85.49401092529297,15.03194522857666,52.16497802734375,50.69070816040039,8.713794708251953,100.85722351074219,-140.8435821533203
-3,Pressed,1.0201727151870728,1.7671258449554443,1.0612456798553467,357.27642822265625,287.0306091308594,207.86741638183594,0,-92.42767333984375,11.864587783813477,52.23442840576172,53.74655532836914,13.268653869628906,101.63789367675781,-145.22361755371094
-3,Pressed,1.0216596126556396,1.7687318325042725,1.0362300872802734,357.16259765625,287.02593994140625,208.01834106445312,0,-99.20042419433594,8.666945457458496,51.354896545410156,56.34521484375,18.037324905395508,103.18389129638672,-150.26358032226562
-3,Pressed,1.0216221809387207,1.7701501846313477,1.0083571672439575,357.0633544921875,286.6939697265625,208.15896606445312,0,-105.96929168701172,5.371901512145996,49.080440521240234,58.66753387451172,23.036714553833008,105.59357452392578,-156.15301513671875
3,Pressed,1.0133332014083862,1.7694642543792725,1.0088649988174438,357.12689208984375,285.16448974609375,208.07254028320312,0,-105.59741973876953,6.223661422729492,49.54109191894531,58.11181640625,21.724008560180664,104.88736724853516,-154.53707885742188
-3,Pressed,1.0184266567230225,1.7701735496520996,1.0034033060073853,357.07220458984375,286.001708984375,208.21038818359375,0,-107.22193145751953,5.100844383239746,48.913978576660156,58.891204833984375,23.47283172607422,105.7830810546875,-156.64437866210938
-3,Pressed,1.0274369716644287,1.7715885639190674,0.9871892929077148,356.9179382324219,287.5128173828125,208.34164428710938,0,-110.86591339111328,2.5272181034088135,46.538421630859375,60.51288986206055,27.27309799194336,108.36058044433594,-161.8669891357422
-3,Pressed,1.0326632261276245,1.7725142240524292,0.9653141498565674,356.84307861328125,288.5190734863281,208.52699279785156,0,-115.69209289550781,0.16012640297412872,44.117801666259766,62.06621551513672,30.784700393676758,111.57579803466797,-167.75607299804688
-3,Pressed,1.0359357595443726,1.7726703882217407,0.9441058039665222,356.8060302734375,289.32403564453125,208.55618286132812,0,-120.46640014648438,-1.5633043050765991,42.480594635009766,63.22911071777344,33.1143684387207,114.67132568359375,-173.12750244140625
-3,Pressed,1.0392404794692993,1.772597312927246,0.9232085943222046,356.7981872558594,290.35614013671875,208.5322265625,0,-123.55955505371094,-2.7409162521362305,39.91358947753906,64.07445526123047,34.551815032958984,117.73485565185547,-178.362548828125
-3,Pressed,1.0413264036178589,1.7726703882217407,0.90072101354599,356.78265380859375,291.271728515625,208.56500244140625,0,-125.37001037597656,-3.352018117904663,36.42280197143555,64.60863494873047,35.206939697265625,120.68727111816406,-183.50772094726562
-3,Pressed,1.0407636165618896,1.7728519439697266,0.8761472702026367,356.74127197265625,291.39111328125,208.5941162109375,0,-127.362548828125,-3.5169525146484375,33.11265563964844,64.82633972167969,35.225440979003906,123.30599212646484,-188.24969482421875
-3,Pressed,1.0388010740280151,1.7730637788772583,0.8511906862258911,356.6876525878906,290.83111572265625,208.58737182617188,0,-129.77593994140625,-3.3753268718719482,30.409507751464844,64.77308654785156,34.82875061035156,125.5160903930664,-192.4421844482422
3,Pressed,1.0336616039276123,1.7732809782028198,0.8460874557495117,356.61090087890625,288.3726501464844,208.47689819335938,0,-131.8264617919922,-3.5701706409454346,30.821714401245117,64.80542755126953,34.94506072998047,125.10543823242188,-191.66314697265625
3,Pressed,1.030454397201538,1.77317476272583,0.8659605979919434,356.6119384765625,287.19378662109375,208.3599090576172,0,-131.7843017578125,-3.8307065963745117,34.44749069213867,64.81360626220703,35.338199615478516,122.75212097167969,-187.21328735351562
3,Pressed,1.0352141857147217,1.7728887796401978,0.8984150886535645,356.6908874511719,289.1766052246094,208.43772888183594,0,-127.67650604248047,-3.445767879486084,37.809139251708984,64.51193237304688,35.19753646850586,120.10569763183594,-182.48150634765625
3,Pressed,1.0430972576141357,1.77262544631958,0.9322450160980225,356.7904052734375,291.47796630859375,208.54779052734375,0,-122.84528350830078,-2.5597572326660156,41.44161605834961,63.91005325317383,34.40080261230469,117.1950912475586,-177.4552764892578
-3,Pressed,1.0519272089004517,1.7724897861480713,0.9346393346786499,356.8805236816406,294.0323181152344,208.6943359375,0,-120.89928436279297,-2.68941593170166,40.24152755737305,64.13118743896484,34.7338752746582,118.04890441894531,-178.89178466796875
-3,Pressed,1.0509170293807983,1.7725341320037842,0.9123386740684509,356.8627624511719,294.39654541015625,208.7305450439453,0,-122.6602783203125,-3.200716972351074,36.7806510925293,64.601806640625,35.270347595214844,120.70951080322266,-183.53770446777344
-3,Pressed,1.041668176651001,1.7728465795516968,0.8775438070297241,356.74700927734375,291.7436218261719,208.61402893066406,0,-127.70015716552734,-3.5470921993255615,33.704803466796875,64.8366470336914,35.29808044433594,123.3445816040039,-188.30419921875
3,Pressed,1.0300498008728027,1.7731587886810303,0.8676438331604004,356.614013671875,287.0101013183594,208.34869384765625,0,-132.42628479003906,-3.9047927856445312,35.279109954833984,64.82635498046875,35.43010711669922,122.56448364257812,-186.8427276611328
3,Pressed,1.0270766019821167,1.7730188369750977,0.884948194026947,356.6025390625,286.2530517578125,208.24880981445312,0,-131.74208068847656,-3.75238299369812,38.33476257324219,64.5711898803711,35.30160140991211,120.39076232910156,-182.96368408203125
3,Pressed,1.0341243743896484,1.7727347612380981,0.9198824167251587,356.7033996582031,288.86688232421875,208.38250732421875,0,-126.67891693115234,-2.8788156509399414,41.93864440917969,63.99296569824219,34.56350326538086,117.5262451171875,-178.00904846191406
3,Pressed,1.045067310333252,1.772528886795044,0.9574939608573914,356.82208251953125,291.71630859375,208.5429229736328,0,-120.48062133789062,-1.33863365650177,45.94493865966797,63.042259216308594,32.85902404785156,114.18663024902344,-172.3119354248047
-3,Pressed,1.0568792819976807,1.7725107669830322,0.9634944200515747,356.90350341796875,294.5992736816406,208.7000732421875,0,-117.65636444091797,-1.5276519060134888,44.616153717041016,63.265892028808594,33.31550598144531,114.80358123779297,-173.33628845214844
-3,Pressed,1.0577312707901,1.7724248170852661,0.9420985579490662,356.92120361328125,295.5806884765625,208.75584411621094,0,-119.91047668457031,-2.5914454460144043,41.195858001708984,64.0799560546875,34.72639846801758,117.85887908935547,-178.55201721191406
-3,Pressed,1.0473779439926147,1.7726001739501953,0.9082257747650146,356.82861328125,293.2715759277344,208.66537475585938,0,-125.03807830810547,-3.360283851623535,37.84147644042969,64.62342834472656,35.38714599609375,120.78710174560547,-183.65042114257812
-3,Pressed,1.0365779399871826,1.7729905843734741,0.8721243739128113,356.697998046875,289.67254638671875,208.4807586669922,0,-131.13168334960938,-3.8017115592956543,35.31265640258789,64.85298156738281,35.4619140625,123.21623229980469,-187.99996948242188
-3,Pressed,1.0334631204605103,1.7732832431793213,0.8391612768173218,356.6165466308594,288.1748352050781,208.423828125,0,-134.70579528808594,-3.6577656269073486,32.01222610473633,64.79765319824219,34.944496154785156,125.81806945800781,-192.97361755371094
-3,Pressed,1.036487102508545,1.7740471363067627,0.8180291056632996,356.35723876953125,289.2599182128906,208.630615234375,0,-116.635986328125,-2.303679943084717,12.032020568847656,64.10151672363281,33.26640701293945,127.31692504882812,-196.44879150390625
-3,Pressed,1.04207444190979,1.7741448879241943,0.7979421019554138,356.2903137207031,290.0763244628906,208.71636962890625,0,-26.805356979370117,-0.9263138175010681,-77.32034301757812,62.199432373046875,31.65568733215332,127.66671752929688,-197.50343322753906
3,Pressed,1.0348056554794312,1.7735832929611206,0.7941704392433167,356.51873779296875,287.8816223144531,208.55430603027344,0,14.939818382263184,-0.2036607265472412,-119.49369812011719,61.89622116088867,32.41818618774414,126.79085540771484,-195.54478454589844
3,Pressed,1.0303653478622437,1.7736537456512451,0.8069781064987183,356.5442810058594,285.78436279296875,208.688720703125,0,15.637720108032227,0.6468638777732849,-119.43632507324219,62.327274322509766,33.63469696044922,125.2804946899414,-192.47325134277344
3,Pressed,1.0298081636428833,1.773457646369934,0.8341422080993652,356.5933532714844,286.2489929199219,208.60398864746094,0,16.772266387939453,1.3616241216659546,-116.1207275390625,62.5485725402832,34.44227600097656,123.2679214477539,-188.59518432617188
1,Pressed,1.052184820175171,1.7721049785614014,0.8593559265136719,356.9953918457031,289.5397644042969,208.38392639160156,0,20.00481414794922,5.976083755493164,-121.87288665771484,64.51719665527344,38.539093017578125,125.81327819824219,-191.71640014648438
1,Pressed,1.078116536140442,1.7725963592529297,0.8661487102508545,356.7887268066406,291.0984191894531,208.28976440429688,0,33.62482833862305,9.122720718383789,-136.92935180664062,67.15068817138672,40.010311126708984,127.48138427734375,-193.56263732910156
-1,Pressed,1.072201132774353,1.7732460498809814,0.8627544641494751,356.6796569824219,290.3909912109375,208.37991333007812,0,41.242740631103516,7.453596115112305,-141.35272216796875,66.73834228515625,38.35305404663086,125.63384246826172,-190.9498291015625
-1,Pressed,1.0487498044967651,1.7732881307601929,0.8630579710006714,356.67938232421875,290.4176025390625,208.39767456054688,0,42.81675720214844,3.0736114978790283,-136.47726440429688,63.94756317138672,35.294063568115234,122.55121612548828,-186.8154296875
-1,Pressed,1.0281717777252197,1.7735966444015503,0.8651478290557861,356.6410217285156,291.04156494140625,208.51649475097656,0,46.856388092041016,-1.3455498218536377,-133.55734252929688,61.049503326416016,31.74918556213379,120.06806182861328,-182.82969665527344
-1,Pressed,0.9991847276687622,1.7724636793136597,0.8641453981399536,356.7755432128906,290.5101013183594,208.29696655273438,0,54.25918197631836,-6.362901210784912,-134.39981079101562,57.18949508666992,27.217439651489258,118.0052719116211,-178.5010528564453
-1,Pressed,0.9641947746276855,1.7699720859527588,0.8497399687767029,357.1830749511719,287.53759765625,208.3159942626953,0,57.21623992919922,-11.254199981689453,-134.52008056640625,53.020111083984375,23.112667083740234,117.13946533203125,-175.1019744873047
-1,Pressed,0.9342661499977112,1.7670656442642212,0.8425276279449463,357.6148681640625,286.22760009765625,208.2718048095703,0,61.32914352416992,-15.815610885620117,-135.15318298339844,48.364200592041016,19.472572326660156,117.25828552246094,-172.46873474121094
-1,Pressed,0.9110845327377319,1.766318678855896,0.847431480884552,357.6117858886719,287.08148193359375,208.01654052734375,0,66.69593048095703,-20.010847091674805,-135.31671142578125,42.90565490722656,15.922910690307617,118.24372863769531,-170.38937377929688
-1,Pressed,0.8849350810050964,1.764464259147644,0.8478425741195679,357.7910461425781,287.05267333984375,207.71641540527344,0,71.78482818603516,-24.40764808654785,-136.5068817138672,36.31821823120117,12.638602256774902,120.23104095458984,-168.7792205810547
-1,Pressed,0.8580071330070496,1.7610111236572266,0.8447166681289673,358.2099914550781,286.2768859863281,207.1248779296875,0,76.77301788330078,-28.923994064331055,-138.80645751953125,28.47417640686035,9.716264724731445,123.31671905517578,-167.6009063720703
3,Pressed,0.8368772268295288,1.7515852451324463,0.8431191444396973,359.208740234375,283.1861877441406,205.3868408203125,0,80.56013488769531,-31.289106369018555,-143.0137939453125,24.396499633789062,8.118523597717285,124.3701400756836,-165.95420837402344
3,Pressed,0.8367791771888733,1.752419352531433,0.8783606290817261,358.8583068847656,283.7461853027344,205.3568878173828,0,85.49048614501953,-31.683034896850586,-143.364990234375,23.33210563659668,7.348798751831055,123.07999420166016,-162.91952514648438
3,Pressed,0.8386271595954895,1.7535638809204102,0.9029810428619385,358.57147216796875,284.6020812988281,205.49270629882812,0,88.87390899658203,-32.26121139526367,-142.69593811035156,22.097734451293945,6.2097859382629395,122.55229949951172,-160.94586181640625
-3,Pressed,0.8357165455818176,1.7514073848724365,0.8906310796737671,358.855224609375,283.66162109375,205.11883544921875,0,87.46722412109375,-32.03022003173828,-143.62432861328125,22.712369918823242,6.710858345031738,122.6988296508789,-161.6967315673828
-3,Pressed,0.8383168578147888,1.7531944513320923,0.8735634684562683,358.8343200683594,284.11639404296875,205.5830535888672,0,84.51852416992188,-31.55400848388672,-142.75039672851562,23.641538619995117,7.484716892242432,123.29334259033203,-163.5352783203125
-3,Pressed,0.8409667015075684,1.7548997402191162,0.8518465757369995,358.8208923339844,284.5242614746094,205.9805908203125,0,81.1180419921875,-31.220958709716797,-141.90977478027344,24.26552963256836,8.190671920776367,124.32415771484375,-165.8023223876953
-3,Pressed,0.8433455228805542,1.7558579444885254,0.8211530447006226,358.87652587890625,284.7962951660156,206.24107360839844,0,76.83133697509766,-31.250362396240234,-140.79478454589844,24.34712028503418,8.438157081604004,126.08464813232422,-168.79275512695312
-3,Pressed,0.8434008359909058,1.7547321319580078,0.7987990975379944,359.0961608886719,284.3578186035156,206.20758056640625,0,73.77996063232422,-31.67707633972168,-138.9542236328125,24.159732818603516,7.327183723449707,127.20423889160156,-170.2471466064453
-3,Pressed,0.8462701439857483,1.7533365488052368,0.7779859900474548,359.063232421875,284.7311706542969,206.58517456054688,0,69.11361694335938,-32.71390151977539,-130.3259735107422,24.778457641601562,2.3256380558013916,127.72354125976562,-170.65049743652344
-3,Pressed,0.8508003950119019,1.7495512962341309,0.7478148937225342,358.6282043457031,285.0872497558594,207.09713745117188,0,62.4947624206543,-33.78435516357422,-121.08509063720703,26.796762466430664,-2.53438401222229,127.72422790527344,-172.1566162109375
-3,Pressed,0.8532789349555969,1.7468726634979248,0.7297797203063965,358.3763732910156,284.977294921875,207.3509063720703,0,59.33230972290039,-33.87346267700195,-120.1626968383789,27.88966941833496,-2.4798808097839355,127.72630310058594,-174.10870361328125
-3,Pressed,0.8574707508087158,1.744586706161499,0.7104150056838989,357.759521484375,285.3350830078125,207.71849060058594,0,55.73128890991211,-33.966285705566406,-118.88460540771484,29.105880737304688,-2.4222965240478516,127.72637176513672,-176.6876983642578
-3,Pressed,0.8614884614944458,1.7398170232772827,0.6852188110351562,357.18048095703125,285.3074951171875,207.88125610351562,0,51.664310455322266,-34.20914840698242,-118.167236328125,30.357521057128906,-2.492213249206543,127.7265853881836,-179.94326782226562
-3,Pressed,0.8644455075263977,1.7348883152008057,0.6636925339698792,356.78369140625,285.0190734863281,207.94631958007812,0,48.60307693481445,-34.431495666503906,-118.50464630126953,31.18805503845215,-2.2976152896881104,127.72753143310547,-182.81126403808594
-3,Pressed,0.8682699203491211,1.7298228740692139,0.6411494016647339,356.1189270019531,285.0011291503906,207.9384002685547,0,45.46589660644531,-34.71209716796875,-118.75387573242188,31.924570083618164,-2.303107738494873,127.7270278930664,-186.16880798339844
-3,Pressed,0.8713693618774414,1.7247661352157593,0.6212511658668518,355.5965270996094,284.8390197753906,207.8491668701172,0,43.0341796875,-34.97507858276367,-119.60417938232422,32.373268127441406,-2.195321798324585,127.7271728515625,-189.20703125
-3,Pressed,0.8746110200881958,1.7190067768096924,0.6001225709915161,355.0557861328125,284.627197265625,207.64028930664062,0,40.737911224365234,-35.28196716308594,-120.88037872314453,32.65749740600586,-2.1170177459716797,127.72696685791016,-192.52659606933594
-3,Pressed,0.8781791925430298,1.7123953104019165,0.5771055817604065,354.4792785644531,284.3818359375,207.2761993408203,0,38.55160903930664,-35.651485443115234,-122.63667297363281,32.740928649902344,-2.087218999862671,127.72611236572266,-196.2406768798828
-3,Pressed,0.881166934967041,1.706705927848816,0.5582103729248047,354.0292053222656,284.1519470214844,206.92625427246094,0,37.0135612487793,-35.968345642089844,-124.53821563720703,32.63767623901367,-1.9311772584915161,127.72635650634766,-199.38632202148438
-3,Pressed,0.8848291635513306,1.6998927593231201,0.536058247089386,353.5325012207031,283.90264892578125,206.3511962890625,0,35.45683670043945,-36.3880500793457,-126.90965270996094,32.313533782958984,-1.8967311382293701,127.72552490234375,-203.09779357910156
-3,Pressed,0.8883686661720276,1.6933108568191528,0.5152614116668701,353.09259033203125,283.68182373046875,205.7293243408203,0,34.240989685058594,-36.83999252319336,-129.43321228027344,31.803714752197266,-1.8218588829040527,127.724853515625,-206.62916564941406
3,Pressed,0.8879271745681763,1.6933443546295166,0.5180369019508362,353.7427062988281,282.88140869140625,205.90013122558594,0,34.538795471191406,-36.72233963012695,-129.58773803710938,31.99521827697754,-1.65353262424469,127.72677612304688,-205.37136840820312
3,Pressed,0.8841671943664551,1.7008262872695923,0.5394324660301208,353.7604675292969,283.7089538574219,206.4191436767578,0,35.74235916137695,-36.294254302978516,-126.6665267944336,32.37541580200195,-1.8911161422729492,127.72515106201172,-202.31214904785156
3,Pressed,0.8809375762939453,1.706727147102356,0.5587162971496582,354.19189453125,283.94464111328125,206.885986328125,0,37.11009979248047,-35.95554733276367,-124.49700164794922,32.631256103515625,-2.0253078937530518,127.72542572021484,-199.0587615966797
3,Pressed,0.8773432374000549,1.7131016254425049,0.5804828405380249,354.7608947753906,284.12164306640625,207.32388305664062,0,38.96696472167969,-35.57967758178711,-122.59931182861328,32.721458435058594,-2.0315699577331543,127.7264633178711,-195.42604064941406
3,Pressed,0.8743026852607727,1.7187148332595825,0.5998812317848206,355.2026672363281,284.3988342285156,207.57676696777344,0,40.81314468383789,-35.29249572753906,-120.9674072265625,32.62160873413086,-2.19917893409729,127.72632598876953,-192.32666015625
3,Pressed,0.870686948299408,1.7248225212097168,0.6226376295089722,355.80133056640625,284.5910949707031,207.81822204589844,0,43.327415466308594,-34.96086120605469,-119.73200225830078,32.296714782714844,-2.203336477279663,127.72732543945312,-188.75755310058594
3,Pressed,0.8674421310424805,1.7304428815841675,0.6443400382995605,356.2921447753906,284.86492919921875,207.91883850097656,0,45.96743392944336,-34.67218017578125,-118.80220794677734,31.792997360229492,-2.3040051460266113,127.72732543945312,-185.56393432617188
3,Pressed,0.8641222715377808,1.7350459098815918,0.6644958257675171,356.820068359375,284.9691467285156,207.90866088867188,0,48.75371170043945,-34.438453674316406,-118.45482635498047,31.121723175048828,-2.387523889541626,127.72744750976562,-182.63009643554688
3,Pressed,0.8605473637580872,1.7401765584945679,0.6881675720214844,357.3391418457031,285.1481018066406,207.84207153320312,0,52.2415885925293,-34.180946350097656,-118.46501159667969,30.16119956970215,-2.4242727756500244,127.72735595703125,-179.45082092285156
3,Pressed,0.8571487665176392,1.744092583656311,0.7093001008033752,357.8016357421875,285.2164611816406,207.66275024414062,0,55.64418029785156,-34.01913833618164,-118.84779357910156,29.104604721069336,-2.5638158321380615,127.72708129882812,-176.71035766601562
3,Pressed,0.853192925453186,1.7476229667663574,0.7324985265731812,358.3186950683594,285.13446044921875,207.37025451660156,0,59.6741828918457,-33.91056442260742,-119.80731201171875,27.739952087402344,-2.708075523376465,127.72676849365234,-173.8054962158203
3,Pressed,0.8495308756828308,1.7504644393920898,0.7549003958702087,358.7291259765625,285.0516662597656,207.0152130126953,0,63.7072868347168,-33.92081832885742,-120.79912567138672,26.26862144470215,-3.06823992729187,127.72625732421875,-171.13711547851562
3,Pressed,0.8455689549446106,1.752959966659546,0.7801257371902466,359.1082458496094,284.8861999511719,206.5418243408203,0,68.40684509277344,-34.05356979370117,-122.11003875732422,24.43595314025879,-3.645609140396118,127.72553253173828,-168.27783203125
3,Pressed,0.8423233032226562,1.7529312372207642,0.8031330704689026,359.31671142578125,284.5151062011719,206.0867919921875,0,71.99588775634766,-33.976436614990234,-123.22824096679688,23.93336296081543,-3.994689464569092,126.82756805419922,-165.8267364501953
3,Pressed,0.8402551412582397,1.75223708152771,0.8284355401992798,359.2909851074219,284.3480529785156,205.86000061035156,0,75.26347351074219,-33.794891357421875,-123.96492767333984,24.159893035888672,-4.192371845245361,125.28897857666016,-163.4224090576172
-3,Pressed,0.8437666893005371,1.755185842514038,0.8261435031890869,358.9530334472656,285.3705749511719,206.391357421875,0,74.4928207397461,-33.79913330078125,-122.65360260009766,24.076128005981445,-4.189896583557129,125.71934509277344,-164.0560760498047
-3,Pressed,0.844692051410675,1.7550691366195679,0.8030089139938354,359.0420837402344,285.2852783203125,206.4560089111328,0,71.69093322753906,-34.00021743774414,-122.34545135498047,23.792499542236328,-4.025797367095947,127.10865020751953,-166.1776885986328
-3,Pressed,0.8450834155082703,1.7513105869293213,0.7746260166168213,359.2593688964844,284.4703369140625,206.4097900390625,0,67.68294525146484,-33.987823486328125,-122.61515045166016,24.809110641479492,-3.360081434249878,127.67102813720703,-168.71644592285156
-3,Pressed,0.8489068746566772,1.7485616207122803,0.7491515874862671,358.9349670410156,284.5457458496094,206.875732421875,0,63.086334228515625,-33.889793395996094,-121.5379409790039,26.526182174682617,-2.747239112854004,127.72312927246094,-171.59312438964844
-3,Pressed,0.854155421257019,1.74729323387146,0.7290560603141785,358.1993408203125,285.26251220703125,207.4395751953125,0,59.00347900390625,-33.8784294128418,-119.66446685791016,28.012474060058594,-2.589679479598999,127.72515106201172,-174.3458251953125
-3,Pressed,0.8578979969024658,1.743769645690918,0.7067356109619141,357.7001647949219,285.3204040527344,207.70640563964844,0,55.152313232421875,-34.015628814697266,-118.70975494384766,29.29361343383789,-2.524923801422119,127.72594451904297,-177.12615966796875
-3,Pressed,0.8611412048339844,1.7392226457595825,0.6842271089553833,357.2979431152344,285.093994140625,207.84999084472656,0,51.651039123535156,-34.21980667114258,-118.45854187011719,30.3555908203125,-2.4172041416168213,127.72722625732422,-179.9391632080078
-3,Pressed,0.8649170398712158,1.7347354888916016,0.662186861038208,356.6686706542969,285.1258850097656,207.9513397216797,0,48.308013916015625,-34.470420837402344,-118.25089263916016,31.2622127532959,-2.4206631183624268,127.72695922851562,-183.06739807128906
-3,Pressed,0.8682818412780762,1.7297616004943848,0.64100581407547,356.13519287109375,284.97113037109375,207.93727111816406,0,45.4561653137207,-34.70881652832031,-118.79332733154297,31.929834365844727,-2.286025285720825,127.72724151611328,-186.1687469482422
-3,Pressed,0.8716848492622375,1.724183201789856,0.6190961003303528,355.5450744628906,284.819091796875,207.81356811523438,0,42.785888671875,-35.0140380859375,-119.651611328125,32.409420013427734,-2.2484655380249023,127.72676849365234,-189.51930236816406
-3,Pressed,0.8749592304229736,1.7184524536132812,0.5980284810066223,354.9902648925781,284.6266784667969,207.5960235595703,0,40.51577377319336,-35.31629180908203,-120.96572875976562,32.67548370361328,-2.158010244369507,127.72642517089844,-192.86688232421875
-3,Pressed,0.8782058358192444,1.7124302387237549,0.5771124958992004,354.4643249511719,284.4010314941406,207.27760314941406,0,38.543663024902344,-35.64985656738281,-122.62580108642578,32.7423095703125,-2.084987163543701,127.72608184814453,-196.2594451904297
-3,Pressed,0.8814311027526855,1.7063108682632446,0.5567484498023987,353.9804992675781,284.16070556640625,206.87379455566406,0,36.88984298706055,-35.99729537963867,-124.61762237548828,32.6219596862793,-1.978621244430542,127.7258529663086,-199.6376190185547
-3,Pressed,0.8848358988761902,1.6998964548110962,0.5359058380126953,353.491943359375,283.9494323730469,206.3427276611328,0,35.438716888427734,-36.39793014526367,-126.88733673095703,32.300601959228516,-1.9134173393249512,127.72516632080078,-203.1656951904297
-3,Pressed,0.8879919052124023,1.6939454078674316,0.5173401832580566,353.1228942871094,283.70941162109375,205.821533203125,0,34.36153793334961,-36.78842544555664,-129.25613403320312,31.864253997802734,-1.7531789541244507,127.72560119628906,-206.3103485107422
-3,Pressed,0.891912579536438,1.6870298385620117,0.495593398809433,352.69097900390625,283.52825927734375,205.03842163085938,0,33.276248931884766,-37.31949996948242,-131.9970245361328,31.14385986328125,-1.754671335220337,127.72428131103516,-210.02114868164062
2,Pressed,0.8949102759361267,1.6891334056854248,0.4893783628940582,352.28656005859375,282.9164123535156,204.5641326904297,0,32.50881576538086,-37.14092254638672,-132.13937377929688,30.77651596069336,-1.8480852842330933,127.7224349975586,-210.48451232910156
2,Pressed,0.8983356952667236,1.704803705215454,0.4967973530292511,350.7772216796875,282.04241943359375,204.24818420410156,0,31.277725219726562,-36.0400505065918,-129.00245666503906,30.36394500732422,-1.8901031017303467,127.72599029541016,-208.26181030273438
2,Pressed,0.9002087116241455,1.7146614789962769,0.5017672777175903,349.8334655761719,281.43109130859375,204.08607482910156,0,30.5483455657959,-35.426090240478516,-126.82495880126953,30.00599479675293,-2.063325881958008,127.72563171386719,-206.6812744140625
2,Pressed,0.9021791219711304,1.725291132926941,0.5068967938423157,348.7813720703125,280.6717529296875,203.98976135253906,0,29.76372528076172,-34.82918930053711,-124.46038818359375,29.51688575744629,-2.247959613800049,127.7259750366211,-204.90113830566406
2,Pressed,0.9038155674934387,1.7354710102081299,0.5119885802268982,347.73553466796875,279.9433288574219,203.96868896484375,0,29.082420349121094,-34.318599700927734,-122.16219329833984,28.955299377441406,-2.4500732421875,127.72605895996094,-203.154052734375
2,Pressed,0.9057044982910156,1.7474796772003174,0.5177223682403564,346.45330810546875,278.99481201171875,204.07168579101562,0,28.31686019897461,-33.7772102355957,-119.55526733398438,28.17408561706543,-2.6098806858062744,127.7278823852539,-201.07522583007812
2,Pressed,0.9069687128067017,1.7570364475250244,0.522652804851532,345.439453125,278.2340393066406,204.21414184570312,0,27.804237365722656,-33.40388870239258,-117.33267974853516,27.482669830322266,-2.8839807510375977,127.72728729248047,-199.31283569335938
2,Pressed,0.9085144996643066,1.7683049440383911,0.5279569029808044,344.2200927734375,277.1905517578125,204.52352905273438,0,27.233272552490234,-33.00383377075195,-114.90185546875,26.55449867248535,-3.092646360397339,127.72891235351562,-197.22341918945312
2,Pressed,0.9096478819847107,1.7779216766357422,0.5328040719032288,343.1931457519531,276.29119873046875,204.8603973388672,0,26.856334686279297,-32.70487976074219,-112.72904968261719,25.698623657226562,-3.400878667831421,127.72865295410156,-195.35958862304688
2,Pressed,0.910969614982605,1.7887686491012573,0.5380013585090637,342.0265197753906,275.18487548828125,205.3820343017578,0,26.48591423034668,-32.39929962158203,-110.40589904785156,24.646257400512695,-3.6837148666381836,127.7300033569336,-193.25314331054688
-2,Pressed,0.9109421372413635,1.7878069877624512,0.5387177467346191,342.0329895019531,275.73834228515625,205.30072021484375,0,26.539047241210938,-32.40382766723633,-110.5149917602539,24.861299514770508,-3.5859932899475098,127.73149108886719,-193.70849609375
-2,Pressed,0.9098114967346191,1.7775788307189941,0.5323777794837952,343.22900390625,276.2994689941406,204.8407440185547,0,26.832651138305664,-32.68041229248047,-112.97334289550781,25.741029739379883,-3.263657808303833,127.73181915283203,-195.49513244628906
-2,Pressed,0.908454954624176,1.7658233642578125,0.5258862972259521,344.56695556640625,277.1329345703125,204.419921875,0,27.296533584594727,-33.04591751098633,-115.65545654296875,26.729795455932617,-2.9809622764587402,127.73074340820312,-197.5928192138672
-1,Pressed,0.8952618837356567,1.7596491575241089,0.5245259404182434,344.8658447265625,277.46881103515625,204.04502868652344,0,30.35904312133789,-33.87582778930664,-118.87623596191406,25.135080337524414,-3.0575740337371826,127.72855377197266,-198.38070678710938
-1,Pressed,0.8814119696617126,1.7560694217681885,0.5235679149627686,344.92041015625,277.05841064453125,203.64039611816406,0,33.41837692260742,-34.70920181274414,-121.80470275878906,22.958749771118164,-3.230278968811035,127.72874450683594,-198.394775390625
1,Pressed,0.8847658634185791,1.7542572021484375,0.5184199810028076,345.4727478027344,276.1745910644531,203.45425415039062,0,32.726959228515625,-34.543128967285156,-122.41849517822266,23.378982543945312,-3.137718915939331,127.72682189941406,-198.4001007080078
1,Pressed,0.9017363786697388,1.7573740482330322,0.5182598233222961,345.5873718261719,276.4187316894531,204.0168914794922,0,28.922218322753906,-33.607749938964844,-119.14640808105469,26.061141967773438,-2.8468129634857178,127.7304916381836,-198.4033203125
1,Pressed,0.9168345332145691,1.7635360956192017,0.5246975421905518,344.9311828613281,277.8685302734375,204.513916015625,0,25.39047622680664,-32.789310455322266,-114.37916564941406,28.447187423706055,-2.917736530303955,127.7279281616211,-198.40164184570312
1,Pressed,0.9350196123123169,1.7676622867584229,0.5278173685073853,344.6860046386719,278.68701171875,204.8750762939453,0,21.031410217285156,-32.00421142578125,-109.78107452392578,31.205703735351562,-2.8771417140960693,127.72855377197266,-198.3955841064453
1,Pressed,0.9528759121894836,1.7701276540756226,0.5290012955665588,344.62738037109375,279.0656433105469,205.15843200683594,0,16.594812393188477,-31.417112350463867,-105.63654327392578,33.825199127197266,-2.7858715057373047,127.72960662841797,-198.38983154296875
1,Pressed,0.9688376784324646,1.7725070714950562,0.5312281847000122,344.44683837890625,279.5946044921875,205.3070068359375,0,12.528945922851562,-31.004308700561523,-101.55779266357422,36.12626647949219,-2.793872356414795,127.7288589477539,-198.3814239501953
-2,Pressed,0.9769501686096191,1.7656877040863037,0.5288527011871338,345.25390625,280.9006652832031,204.91526794433594,0,10.82679271697998,-30.711658477783203,-101.61744689941406,38.17912292480469,-2.706512451171875,127.7284164428711,-200.52236938476562
-2,Pressed,0.9770705699920654,1.7564560174942017,0.5226966142654419,346.3233947753906,281.49298095703125,204.7383270263672,0,11.268548965454102,-30.702707290649414,-104.40355682373047,39.011966705322266,-2.4779703617095947,127.72803497314453,-202.7399139404297
-2,Pressed,0.9770476222038269,1.7465301752090454,0.5163980722427368,347.47052001953125,282.1978759765625,204.6197967529297,0,11.927082061767578,-30.719213485717773,-107.4535903930664,39.85447692871094,-2.281290292739868,127.72716522216797,-205.12989807128906
-2,Pressed,0.9769138097763062,1.7348518371582031,0.5090435147285461,348.8244323730469,282.97210693359375,204.6180877685547,0,12.877300262451172,-30.81635856628418,-111.0685806274414,40.753456115722656,-2.114179849624634,127.72550964355469,-207.8329620361328
-2,Pressed,0.9766340255737305,1.7248138189315796,0.502769947052002,349.9416198730469,283.6358947753906,204.75413513183594,0,13.844313621520996,-30.970619201660156,-114.27631378173828,41.43514633178711,-1.9400362968444824,127.72459411621094,-210.14169311523438
3,Pressed,0.9748277068138123,1.7250080108642578,0.5154164433479309,350.815673828125,283.7799072265625,205.7656707763672,0,14.277878761291504,-31.11370086669922,-112.15147399902344,42.474369049072266,-1.8964786529541016,127.72366333007812,-207.38841247558594
3,Pressed,0.9731950759887695,1.731152057647705,0.5323169827461243,351.0521240234375,284.0067138671875,206.38784790039062,0,14.462567329406738,-31.122587203979492,-108.25413513183594,43.04300308227539,-2.115290880203247,127.7238998413086,-203.59881591796875
-3,Pressed,0.9735556244850159,1.7300523519515991,0.5279817581176758,350.7083740234375,284.50189208984375,205.94747924804688,0,14.42441177368164,-31.01367950439453,-109.26419067382812,42.837520599365234,-2.155825614929199,127.72482299804688,-205.2345428466797
-3,Pressed,0.975098729133606,1.723480224609375,0.510086178779602,350.522705078125,284.2046813964844,205.30213928222656,0,14.364053726196289,-31.051225662231445,-113.46453857421875,42.17033004760742,-1.9289449453353882,127.7241439819336,-209.127685546875
-3,Pressed,0.9776493310928345,1.715574860572815,0.48772042989730835,350.34722900390625,283.99664306640625,204.26084899902344,0,14.594944953918457,-31.140417098999023,-118.83412170410156,41.139583587646484,-1.775217890739441,127.72291564941406,-214.03062438964844
-3,Pressed,0.980335533618927,1.7083531618118286,0.4665471017360687,350.20001220703125,284.0076599121094,203.12449645996094,0,15.138236999511719,-31.349000930786133,-124.05638885498047,39.91877746582031,-1.6651564836502075,127.72167205810547,-218.71653747558594
-3,Pressed,0.9831467270851135,1.7020378112792969,0.4479910135269165,350.1599426269531,283.97711181640625,202.1409454345703,0,15.768953323364258,-31.657114028930664,-128.75962829589844,38.71465301513672,-1.4715617895126343,127.72174072265625,-222.6724395751953
3,Pressed,0.9848381280899048,1.7007890939712524,0.4448043704032898,350.50555419921875,283.2867126464844,202.10537719726562,0,15.63573932647705,-31.691852569580078,-129.28407287597656,38.68156814575195,-1.5662751197814941,127.71955108642578,-222.607666015625
3,Pressed,0.9806004166603088,1.7088301181793213,0.46877074241638184,350.423095703125,283.48712158203125,203.45103454589844,0,14.926905632019043,-31.336156845092773,-123.44309997558594,40.173866271972656,-1.604227066040039,127.72142791748047,-217.70401000976562
-3,Pressed,0.9794273376464844,1.709923267364502,0.4708165228366852,350.08795166015625,284.24749755859375,203.3014678955078,0,15.109095573425293,-31.270925521850586,-123.19338989257812,40.117584228515625,-1.5934853553771973,127.72306060791016,-218.09999084472656
-3,Pressed,0.9838783740997314,1.700998067855835,0.4448280930519104,350.23114013671875,283.8844299316406,201.9498291015625,0,15.84926986694336,-31.707141876220703,-129.47877502441406,38.522315979003906,-1.513489842414856,127.72112274169922,-223.22454833984375
-3,Pressed,0.9874362945556641,1.6943594217300415,0.4246416389942169,350.2836608886719,283.9183349609375,200.7717742919922,0,16.644601821899414,-32.21833038330078,-134.45480346679688,37.00782775878906,-1.3851029872894287,127.72058868408203,-227.36329650878906
-3,Pressed,0.9902496933937073,1.6891448497772217,0.4086421728134155,350.30169677734375,284.0899658203125,199.80752563476562,0,17.35484504699707,-32.765899658203125,-138.40415954589844,35.64329528808594,-1.203352689743042,127.72151947021484,-230.66571044921875
2,Pressed,0.9931924939155579,1.694688081741333,0.4032869338989258,349.64508056640625,283.5132141113281,198.64622497558594,0,16.746917724609375,-32.47873306274414,-138.56092834472656,34.57763671875,-1.2605091333389282,127.72184753417969,-231.06130981445312
2,Pressed,0.9932580590248108,1.701910376548767,0.4071374535560608,348.9430847167969,283.083740234375,198.20181274414062,0,15.963395118713379,-32.017364501953125,-136.6241912841797,34.30423355102539,-1.4105587005615234,127.72105407714844,-229.77767944335938
2,Pressed,0.9934069514274597,1.711879849433899,0.4121546149253845,347.8632507324219,282.4364318847656,197.66494750976562,0,14.84135913848877,-31.457260131835938,-133.97195434570312,33.83370590209961,-1.5275875329971313,127.72186279296875,-227.99974060058594
2,Pressed,0.9930634498596191,1.7221256494522095,0.4176286458969116,346.67108154296875,281.81866455078125,197.1980743408203,0,13.736468315124512,-30.984529495239258,-131.0789031982422,33.26382827758789,-1.693780541419983,127.72262573242188,-226.0804901123047
2,Pressed,0.9926702380180359,1.732667326927185,0.4230559766292572,345.36865234375,281.06365966796875,196.8410186767578,0,12.605171203613281,-30.59958267211914,-128.06178283691406,32.572715759277344,-1.846665620803833,127.72374725341797,-223.9829864501953
2,Pressed,0.9919843673706055,1.7426800727844238,0.4283994138240814,344.0845947265625,280.3110656738281,196.6195526123047,0,11.604222297668457,-30.328489303588867,-125.08197784423828,31.83683967590332,-2.0505032539367676,127.72442626953125,-221.85809326171875
2,Pressed,0.9912056922912598,1.7528430223464966,0.43376392126083374,342.7287292480469,279.45074462890625,196.543701171875,0,10.649803161621094,-30.13960075378418,-122.04264068603516,31.006681442260742,-2.256743907928467,127.72535705566406,-219.58995056152344
2,Pressed,0.9902737140655518,1.763382911682129,0.4393853545188904,341.27447509765625,278.48516845703125,196.6407928466797,0,9.756040573120117,-30.025949478149414,-118.89319610595703,30.069658279418945,-2.4658496379852295,127.72669982910156,-217.13934326171875
2,Pressed,0.9891577363014221,1.7740478515625,0.4453330338001251,339.77886962890625,277.46832275390625,196.92413330078125,0,8.97842788696289,-29.988916397094727,-115.65164947509766,29.063507080078125,-2.72953200340271,127.72784423828125,-214.5513458251953
2,Pressed,0.9880740642547607,1.7833763360977173,0.45062515139579773,338.4909362792969,276.4552917480469,197.33590698242188,0,8.422219276428223,-30.017148971557617,-112.76690673828125,28.122634887695312,-3.056056261062622,127.72787475585938,-212.12933349609375
2,Pressed,0.9869670867919922,1.7938275337219238,0.45647427439689636,337.02679443359375,275.2059020996094,198.03451538085938,0,7.901742458343506,-30.098655700683594,-109.66646575927734,27.006750106811523,-3.3367669582366943,127.72953796386719,-209.36758422851562
2,Pressed,0.9857427477836609,1.8053226470947266,0.46325573325157166,335.43377685546875,273.800048828125,199.05859375,0,7.493305206298828,-30.236011505126953,-106.27658081054688,25.741724014282227,-3.658843517303467,127.73197174072266,-206.27418518066406
2,Pressed,0.984592080116272,1.8137538433074951,0.468657910823822,334.3866882324219,272.6537170410156,199.9225311279297,0,7.386480808258057,-30.35898208618164,-103.58869171142578,24.781339645385742,-4.206437587738037,127.7295150756836,-203.7825469970703
2,Pressed,0.983705997467041,1.8244104385375977,0.47453585267066956,333.0486755371094,270.87554931640625,201.427001953125,0,7.26707124710083,-30.56229591369629,-100.6359634399414,23.454450607299805,-4.517152786254883,127.73340606689453,-200.62307739257812
2,Pressed,0.9826576113700867,1.834760308265686,0.4813798666000366,331.8529357910156,269.34521484375,202.98707580566406,0,7.368231296539307,-30.74622917175293,-97.54710388183594,22.207189559936523,-5.072023391723633,127.73373413085938,-197.5575408935547
2,Pressed,0.9818080067634583,1.8448460102081299,0.4878537654876709,330.8221740722656,267.6045227050781,204.78167724609375,0,7.600574970245361,-30.934303283691406,-94.62525939941406,20.918285369873047,-5.653305530548096,127.73478698730469,-194.4273681640625
2,Pressed,0.9810647964477539,1.8545968532562256,0.49397656321525574,329.9988098144531,265.6698913574219,206.77041625976562,0,7.972616195678711,-31.119558334350586,-91.80536651611328,19.598695755004883,-6.350584030151367,127.73564147949219,-191.2240447998047
-3,Pressed,0.982770562171936,1.8553423881530762,0.484811395406723,328.698974609375,266.7893981933594,204.69406127929688,0,7.688847541809082,-30.893814086914062,-93.23808288574219,18.646413803100586,-6.702610969543457,127.73161315917969,-194.2530059814453
-3,Pressed,0.9859890341758728,1.8461484909057617,0.46179741621017456,328.96270751953125,267.1040344238281,201.33985900878906,0,7.306647777557373,-30.64531135559082,-99.21231842041016,18.071382522583008,-6.072366714477539,127.74071502685547,-199.179443359375
-3,Pressed,0.9932843446731567,1.8343812227249146,0.4310188591480255,329.94580078125,267.6591796875,196.28138732910156,0,7.213171482086182,-30.22003173828125,-107.01221466064453,17.181955337524414,-6.173598289489746,127.73079681396484,-205.71327209472656
-2,Pressed,1.0015034675598145,1.8204200267791748,0.408607542514801,332.271240234375,266.74493408203125,193.88050842285156,0,7.144271373748779,-30.0443058013916,-114.14678192138672,17.55903434753418,-5.161956310272217,127.74040985107422,-209.50074768066406
-2,Pressed,1.0023868083953857,1.8125914335250854,0.4057122468948364,333.395263671875,268.89105224609375,192.69248962402344,0,7.424414157867432,-29.917896270751953,-116.55810546875,18.658544540405273,-4.583369731903076,127.73743438720703,-212.36354064941406
-2,Pressed,1.0006595849990845,1.8071621656417847,0.4080199599266052,334.0317077636719,272.03564453125,191.71083068847656,0,7.888988971710205,-29.78544807434082,-117.62130737304688,19.762784957885742,-4.240077018737793,127.73173522949219,-215.13034057617188
-2,Pressed,1.0001829862594604,1.79972243309021,0.4069755971431732,335.1331787109375,274.3276062011719,190.90264892578125,0,8.444624900817871,-29.703472137451172,-119.5935287475586,20.84330177307129,-3.891035556793213,127.72787475585938,-217.814208984375
-2,Pressed,1.002199649810791,1.7895256280899048,0.40071436762809753,336.8225402832031,275.3099365234375,190.37149047851562,0,9.02363395690918,-29.713973999023438,-122.92237091064453,21.872577667236328,-3.4237332344055176,127.72762298583984,-220.3851318359375
-2,Pressed,1.0047988891601562,1.7787790298461914,0.3936317563056946,338.5934753417969,275.9674072265625,190.08740234375,0,9.67391586303711,-29.80122184753418,-126.46488952636719,22.862791061401367,-2.953308343887329,127.72808074951172,-222.8486785888672
-2,Pressed,1.0055387020111084,1.7694252729415894,0.3896455466747284,340.0220031738281,277.1870422363281,189.96766662597656,0,10.466233253479004,-29.932180404663086,-129.15206909179688,23.81231117248535,-2.652416944503784,127.72657775878906,-225.17051696777344
-2,Pressed,1.0055264234542847,1.7612158060073853,0.38685300946235657,341.1815490722656,278.421630859375,190.00930786132812,0,11.256954193115234,-30.1114559173584,-131.35107421875,24.63043212890625,-2.407590389251709,127.72561645507812,-227.20364379882812
-1,Pressed,0.9975494146347046,1.756813883781433,0.38511964678764343,341.641845703125,278.05242919921875,190.41331481933594,0,13.10179615020752,-30.816383361816406,-132.7057647705078,23.949953079223633,-2.5301461219787598,127.72430419921875,-226.580078125
-1,Pressed,0.9811118841171265,1.7562769651412964,0.38723519444465637,341.15966796875,277.4229736328125,191.03546142578125,0,15.871804237365723,-31.915279388427734,-133.1201629638672,22.076786041259766,-2.6429197788238525,127.725341796875,-224.36741638183594
1,Pressed,0.9837924242019653,1.7573375701904297,0.3887682557106018,340.99658203125,278.06854248046875,190.925537109375,0,15.21629524230957,-31.647634506225586,-132.48519897460938,22.551753997802734,-2.604125738143921,127.72403717041016,-224.92453002929688
1,Pressed,0.998932957649231,1.7571043968200684,0.3856170177459717,341.5285339355469,278.4232177734375,190.37989807128906,0,12.771093368530273,-30.70343589782715,-132.5836944580078,24.17410659790039,-2.3508951663970947,127.72525024414062,-226.99375915527344
1,Pressed,1.017197608947754,1.756826639175415,0.3824121952056885,342.2211608886719,279.10595703125,189.5747833251953,0,9.906050682067871,-29.514917373657227,-132.85231018066406,26.070903778076172,-2.127697229385376,127.72553253173828,-229.86529541015625
-1,Pressed,1.0138038396835327,1.7564979791641235,0.38209637999534607,342.22808837890625,278.6045227050781,189.7540283203125,0,10.54659652709961,-29.77973747253418,-133.00062561035156,25.638383865356445,-2.2414255142211914,127.7254409790039,-229.08827209472656
-1,Pressed,0.9965174794197083,1.7573795318603516,0.38629987835884094,341.4362487792969,278.3705749511719,190.4405517578125,0,13.152690887451172,-30.829029083251953,-132.5043487548828,23.917682647705078,-2.421461820602417,127.72502899169922,-226.6280517578125
-1,Pressed,0.9789852499961853,1.75742506980896,0.38972756266593933,340.8577880859375,277.9409484863281,191.0537567138672,0,16.032960891723633,-31.93467903137207,-132.53756713867188,22.002559661865234,-2.7055320739746094,127.72415924072266,-224.30091857910156
-1,Pressed,0.964126467704773,1.7553889751434326,0.38955438137054443,340.80230712890625,276.8372497558594,191.50592041015625,0,18.819711685180664,-33.03312683105469,-133.68377685546875,20.063913345336914,-2.9542086124420166,127.72462463378906,-222.30130004882812
-1,Pressed,0.9519791603088379,1.7524324655532837,0.3877526521682739,341.0559387207031,275.6069641113281,191.70465087890625,0,21.26714324951172,-34.014522552490234,-135.17579650878906,18.309965133666992,-3.282033681869507,127.72488403320312,-220.72325134277344
-1,Pressed,0.9362982511520386,1.7491703033447266,0.3866463303565979,341.20404052734375,274.4428405761719,191.7960205078125,0,24.281103134155273,-35.23712921142578,-136.91746520996094,16.031618118286133,-3.6443798542022705,127.72599029541016,-219.0217742919922
-1,Pressed,0.9237059354782104,1.7459057569503784,0.3856334090232849,341.4778137207031,273.5272521972656,191.6689910888672,0,26.721363067626953,-36.25691604614258,-138.18092346191406,14.166460990905762,-4.323144435882568,127.72468566894531,-217.75018310546875
-1,Pressed,0.9114700555801392,1.7423498630523682,0.3842996656894684,341.7946472167969,272.60833740234375,191.38189697265625,0,29.09922981262207,-37.29877853393555,-139.39822387695312,12.249017715454102,-5.192143440246582,127.72404479980469,-216.60223388671875
-1,Pressed,0.8994265198707581,1.7379465103149414,0.3818908929824829,342.29931640625,271.5048828125,190.83010864257812,0,31.52020263671875,-38.42960739135742,-140.47305297851562,10.196739196777344,-6.6467509269714355,127.72366333007812,-215.48629760742188
-1,Pressed,0.889572262763977,1.7334495782852173,0.37881267070770264,342.94970703125,270.38812255859375,190.0471649169922,0,33.6143684387207,-39.47309875488281,-140.6637420654297,8.357446670532227,-9.064051628112793,127.7236099243164,-214.53175354003906
-1,Pressed,0.8785801529884338,1.7292296886444092,0.3763851523399353,343.5435485839844,269.3973388671875,188.95791625976562,0,35.90253448486328,-40.69176483154297,-137.63478088378906,6.242812633514404,-14.847264289855957,127.72383880615234,-213.48434448242188
-1,Pressed,0.8659190535545349,1.7436773777008057,0.3770514726638794,342.23736572265625,269.70037841796875,184.2523193359375,0,41.17645263671875,-41.431976318359375,-81.99549865722656,1.7532058954238892,-76.10131072998047,127.58424377441406,-212.78005981445312
-1,Pressed,0.8624981045722961,1.7315688133239746,0.3742782771587372,343.1872863769531,267.5574951171875,186.7470703125,0,43.82619094848633,-41.60511016845703,-39.01192092895508,-2.2569339275360107,-121.18661499023438,127.68132781982422,-212.3505096435547
-1,Pressed,0.8487582206726074,1.7272251844406128,0.3813406229019165,343.07769775390625,268.362548828125,186.89474487304688,0,44.89947509765625,-42.50281524658203,-35.04236602783203,-0.9986438751220703,-124.35154724121094,127.343017578125,-210.98788452148438
-1,Pressed,0.8310064673423767,1.7235417366027832,0.38737988471984863,341.56243896484375,269.3066711425781,187.73219299316406,0,45.77728271484375,-43.23249435424805,-28.897058486938477,-0.7713544368743896,-128.64453125,125.8720703125,-210.1660919189453
1,Pressed,0.8311688899993896,1.7267534732818604,0.39362162351608276,340.9886474609375,270.4156494140625,188.44607543945312,0,45.608985900878906,-43.10139465332031,-26.68134117126465,-0.48558562994003296,-129.19927978515625,126.37461853027344,-210.23121643066406
1,Pressed,0.8479759693145752,1.7263880968093872,0.3827420473098755,342.9745178222656,268.7334899902344,187.32839965820312,0,44.88393783569336,-42.58591842651367,-34.44145965576172,-1.1412490606307983,-124.43335723876953,127.40914916992188,-211.1649627685547
1,Pressed,0.8630996942520142,1.7323119640350342,0.3777902126312256,342.9087219238281,268.4033203125,187.42396545410156,0,43.75515365600586,-41.076927185058594,-28.358043670654297,-2.986051321029663,-130.81326293945312,127.72201538085938,-212.7188262939453
1,Pressed,0.8723977208137512,1.7336618900299072,0.3761228919029236,342.7818298339844,268.6595458984375,188.28271484375,0,42.46424865722656,-39.978023529052734,-16.320579528808594,-4.703298091888428,-141.66522216796875,127.7371597290039,-213.63084411621094
1,Pressed,0.8838934302330017,1.7360255718231201,0.3770052194595337,342.5146179199219,269.45794677734375,189.45916748046875,0,40.3774528503418,-38.5371208190918,-3.3576011657714844,-6.963535785675049,-152.2224578857422,127.7364273071289,-214.59413146972656
1,Pressed,0.8942090272903442,1.7397007942199707,0.3792453408241272,342.1171875,270.4344177246094,190.21131896972656,0,38.35940170288086,-37.23530197143555,4.913930892944336,-8.874072074890137,-158.1455841064453,127.73518371582031,-215.4564208984375
1,Pressed,0.9061015248298645,1.7438995838165283,0.38158780336380005,341.7231750488281,271.477294921875,190.7828369140625,0,36.04198455810547,-35.86042022705078,11.572373390197754,-10.933392524719238,-162.36968994140625,127.73384094238281,-216.45016479492188
1,Pressed,0.9170697927474976,1.74778151512146,0.3839379549026489,341.3384094238281,272.53179931640625,191.13699340820312,0,33.849754333496094,-34.654052734375,16.459299087524414,-12.772113800048828,-165.04046630859375,127.72943115234375,-217.46018981933594
1,Pressed,0.9315142631530762,1.7514808177947998,0.38566458225250244,341.1025695800781,273.63970947265625,191.3566436767578,0,31.047195434570312,-33.26334762573242,21.27290153503418,-15.035405158996582,-167.49415588378906,127.73179626464844,-218.79953002929688
-3,Pressed,0.9357254505157471,1.7508955001831055,0.3805154860019684,340.7070617675781,275.25860595703125,190.55294799804688,0,30.36331558227539,-33.3480224609375,20.937898635864258,-14.971848487854004,-167.33804321289062,127.72911834716797,-221.20106506347656
-3,Pressed,0.9395309686660767,1.7465789318084717,0.3668063282966614,340.9537048339844,276.2445068359375,188.95321655273438,0,30.435630798339844,-34.13482666015625,17.474849700927734,-13.871687889099121,-166.3660125732422,127.7340087890625,-224.2211456298828
-3,Pressed,0.9471020102500916,1.7405016422271729,0.3485333323478699,341.9418029785156,276.1246032714844,187.18739318847656,0,30.438949584960938,-35.04574966430664,12.393054962158203,-12.711627960205078,-164.93325805664062,127.73155975341797,-227.09925842285156
-3,Pressed,0.9567636251449585,1.7340798377990723,0.32953041791915894,343.3060302734375,275.4749755859375,185.46322631835938,0,30.39426040649414,-35.9984016418457,6.446728229522705,-11.596878051757812,-162.98077392578125,127.718994140625,-229.74685668945312
-3,Pressed,0.9639122486114502,1.7286211252212524,0.3131958246231079,344.3285217285156,275.7478942871094,183.76026916503906,0,30.364192962646484,-37.123783111572266,1.0887740850448608,-10.183680534362793,-160.77145385742188,127.72421264648438,-232.55799865722656
-3,Pressed,0.9681462645530701,1.7240623235702515,0.30074241757392883,344.9281311035156,276.54925537109375,182.45274353027344,0,30.29159164428711,-38.2489013671875,-3.713660478591919,-8.819385528564453,-157.98204040527344,127.7295913696289,-235.06251525878906
-3,Pressed,0.9721564054489136,1.719594955444336,0.28895601630210876,345.5182189941406,277.3570556640625,181.24301147460938,0,30.130334854125977,-39.420101165771484,-9.082938194274902,-7.4287333488464355,-154.35154724121094,127.73432159423828,-237.40560913085938
-3,Pressed,0.9772108793258667,1.7151763439178467,0.27664339542388916,346.2950744628906,277.95782470703125,179.9713134765625,0,29.85165023803711,-40.66607666015625,-16.116605758666992,-5.9356255531311035,-149.15325927734375,127.74370574951172,-239.64276123046875
-3,Pressed,0.9831531047821045,1.7114331722259521,0.2652812898159027,347.20989990234375,278.2423400878906,178.7843017578125,0,29.442018508911133,-41.794769287109375,-24.50859260559082,-4.592950344085693,-142.51986694335938,127.73902893066406,-241.52847290039062
1,Pressed,0.9962711334228516,1.7113354206085205,0.2568289637565613,348.5566711425781,278.0284118652344,177.74745178222656,0,28.695899963378906,-41.70659255981445,-26.38373374938965,-4.604074954986572,-142.76922607421875,127.70138549804688,-243.4691162109375
1,Pressed,1.008244514465332,1.7125799655914307,0.2565269470214844,348.64447021484375,279.7144775390625,177.91244506835938,0,27.39095115661621,-40.684268951416016,-18.568349838256836,-6.088443279266357,-150.16436767578125,127.74163055419922,-246.15504455566406
1,Pressed,1.0198832750320435,1.7139586210250854,0.2562423646450043,348.89813232421875,281.312744140625,177.90342712402344,0,26.150663375854492,-39.74570846557617,-13.553389549255371,-7.444366931915283,-155.0213623046875,127.74687194824219,-248.78384399414062
-3,Pressed,1.0277477502822876,1.711487889289856,0.24770373106002808,349.703857421875,282.0434265136719,177.1380615234375,0,25.554210662841797,-40.40583801269531,-17.054012298583984,-6.677007675170898,-152.77490234375,127.74694061279297,-251.02357482910156
-3,Pressed,1.0321540832519531,1.7080633640289307,0.23859429359436035,350.4393615722656,282.27081298828125,176.38890075683594,0,25.229618072509766,-41.5235710144043,-23.755033493041992,-5.35593318939209,-147.28025817871094,127.73834991455078,-252.45697021484375
-3,Pressed,1.0377105474472046,1.7051445245742798,0.2289445698261261,351.38214111328125,282.4891357421875,175.4622039794922,0,24.660263061523438,-42.72300338745117,-32.809837341308594,-3.7658841609954834,-139.4248046875,127.74214935302734,-253.89114379882812
-3,Pressed,1.0437358617782593,1.7028632164001465,0.22062277793884277,352.39825439453125,282.7821044921875,174.61962890625,0,23.81207275390625,-43.69331741333008,-39.38692855834961,-2.1831464767456055,-133.6190643310547,127.75016784667969,-255.02442932128906
3,Pressed,1.0456551313400269,1.7051950693130493,0.22131958603858948,352.8475036621094,282.16546630859375,174.36891174316406,0,24.05460548400879,-43.350101470947266,-39.77680587768555,-2.3825690746307373,-134.0920867919922,127.75293731689453,-254.83326721191406
3,Pressed,1.0428462028503418,1.7080053091049194,0.22821345925331116,352.25390625,281.43511962890625,174.9984588623047,0,24.761777877807617,-42.31290817260742,-32.994842529296875,-3.868422031402588,-140.6661376953125,127.74381256103516,-253.70693969726562
3,Pressed,1.036350131034851,1.7100872993469238,0.23818659782409668,351.0921630859375,281.2923278808594,176.11856079101562,0,25.295379638671875,-41.15679931640625,-23.777132034301758,-5.5548624992370605,-148.3477783203125,127.7347183227539,-252.17156982421875
3,Pressed,1.0284676551818848,1.7130450010299683,0.24989992380142212,349.75177001953125,281.5152587890625,177.2752227783203,0,25.621702194213867,-39.97335433959961,-15.77053165435791,-7.139027118682861,-154.13551330566406,127.74440002441406,-250.47767639160156
3,Pressed,1.0217095613479614,1.7172054052352905,0.26275694370269775,348.53533935546875,281.4341125488281,178.44142150878906,0,25.79814338684082,-38.63216018676758,-9.09809398651123,-8.857359886169434,-158.52972412109375,127.7388687133789,-248.46400451660156
3,Pressed,1.0168241262435913,1.7215194702148438,0.27431410551071167,347.6791687011719,281.1031494140625,179.4041290283203,0,25.862415313720703,-37.41483688354492,-4.073633670806885,-10.326244354248047,-161.647705078125,127.74669647216797,-246.47268676757812
3,Pressed,1.0137112140655518,1.7258729934692383,0.28588351607322693,347.0198669433594,280.2427978515625,180.47821044921875,0,25.787229537963867,-36.130859375,0.07710129767656326,-11.952420234680176,-164.01321411132812,127.74105072021484,-244.1630096435547
3,Pressed,1.0095700025558472,1.730687141418457,0.29955872893333435,346.1310119628906,279.3792724609375,181.82839965820312,0,25.551572799682617,-34.778099060058594,4.365159511566162,-13.730844497680664,-165.80825805664062,127.72827911376953,-241.4382781982422
3,Pressed,1.0033025741577148,1.7356505393981934,0.31408965587615967,345.0583190917969,279.1294250488281,183.14645385742188,0,25.265827178955078,-33.63462448120117,8.97292423248291,-15.195610046386719,-167.32376098632812,127.7298355102539,-238.8131103515625
3,Pressed,0.9955557584762573,1.7414934635162354,0.3323199152946472,343.7239990234375,278.9093322753906,184.91944885253906,0,24.774200439453125,-32.40094757080078,14.320712089538574,-16.90254020690918,-168.51504516601562,127.72449493408203,-235.54771423339844
3,Pressed,0.988869845867157,1.7469024658203125,0.3487323224544525,342.71844482421875,278.72686767578125,186.43528747558594,0,24.290233612060547,-31.420215606689453,19.216028213500977,-18.240257263183594,-169.64207458496094,127.72960662841797,-232.52288818359375
3,Pressed,0.9843872785568237,1.7516347169876099,0.36355727910995483,342.0322265625,277.9564514160156,188.04470825195312,0,23.62480926513672,-30.55109405517578,23.598512649536133,-19.548067092895508,-170.5033416748047,127.730224609375,-229.291015625
3,Pressed,0.9797160625457764,1.7566308975219727,0.37967532873153687,341.3631591796875,277.082763671875,189.9080047607422,0,22.809972763061523,-29.757089614868164,28.31914520263672,-20.868396759033203,-171.19232177734375,127.72859954833984,-225.6723175048828
3,Pressed,0.9739847183227539,1.7622995376586914,0.39807721972465515,340.64093017578125,276.4677734375,191.97735595703125,0,21.94263458251953,-29.080541610717773,33.67811965942383,-22.127138137817383,-171.8306427001953,127.72779083251953,-221.75010681152344
3,Pressed,0.9677740931510925,1.7686357498168945,0.4183269441127777,339.9547119140625,276.1368408203125,194.13267517089844,0,21.107027053833008,-28.538602828979492,39.51096725463867,-23.274700164794922,-172.4920654296875,127.72927856445312,-217.63523864746094
3,Pressed,0.9627711772918701,1.774822473526001,0.43817514181137085,339.53302001953125,275.53790283203125,196.40232849121094,0,20.260251998901367,-28.145145416259766,45.16495895385742,-24.33991050720215,-173.01576232910156,127.72895050048828,-213.28668212890625
3,Pressed,0.9585896134376526,1.7808120250701904,0.4569959044456482,339.34332275390625,274.99224853515625,198.4827117919922,0,19.604700088500977,-27.882665634155273,50.43198013305664,-25.21062469482422,-173.5568084716797,127.73048400878906,-209.08750915527344
-2,Pressed,0.9553369283676147,1.7775007486343384,0.46547937393188477,339.8779602050781,276.5605773925781,199.0315704345703,0,20.09410858154297,-27.942058563232422,51.726802825927734,-26.296939849853516,-173.92616271972656,127.7328872680664,-209.060546875
-2,Pressed,0.9569059610366821,1.7673174142837524,0.45723775029182434,341.29351806640625,276.6851501464844,198.77740478515625,0,20.70365333557129,-28.217073440551758,48.743019104003906,-27.117286682128906,-173.82302856445312,127.72930908203125,-210.96624755859375
-2,Pressed,0.957008957862854,1.7574024200439453,0.4519764482975006,342.5712585449219,277.54437255859375,198.59375,0,21.58885383605957,-28.538179397583008,46.25310516357422,-27.972259521484375,-173.8719940185547,127.72799682617188,-213.0088653564453
-2,Pressed,0.9561944007873535,1.7486025094985962,0.44871842861175537,343.5871276855469,278.7142333984375,198.54629516601562,0,22.518449783325195,-28.89448356628418,44.26461410522461,-28.723485946655273,-173.9307098388672,127.72755432128906,-214.9385223388672
-2,Pressed,0.9552128314971924,1.7371423244476318,0.443900465965271,344.99365234375,279.8485107421875,198.59632873535156,0,23.77130126953125,-29.423126220703125,41.614097595214844,-29.570314407348633,-174.0728302001953,127.72770690917969,-217.1434326171875
-2,Pressed,0.9549635648727417,1.7264312505722046,0.4381701350212097,346.2634582519531,280.5481872558594,198.7947235107422,0,24.820802688598633,-30.00701904296875,38.981937408447266,-30.23145294189453,-174.0722198486328,127.72635650634766,-219.0762939453125
3,Pressed,0.9531658291816711,1.7269576787948608,0.44862809777259827,346.7537536621094,280.1434326171875,199.97061157226562,0,24.636568069458008,-29.787940979003906,41.18174743652344,-31.279277801513672,-174.18373107910156,127.72319793701172,-216.75762939453125
3,Pressed,0.9493716359138489,1.7326278686523438,0.4660741686820984,346.6758728027344,280.33245849609375,201.0491943359375,0,24.320323944091797,-29.36465072631836,45.445770263671875,-32.11355972290039,-174.620361328125,127.72587585449219,-213.4684600830078
3,Pressed,0.9457136392593384,1.7392246723175049,0.4865885376930237,346.7091369628906,280.4052734375,202.41311645507812,0,24.007816314697266,-28.97407341003418,50.26090621948242,-33.023094177246094,-174.92787170410156,127.72624969482422,-209.41758728027344
3,Pressed,0.9424614906311035,1.746449589729309,0.5089135766029358,346.9134521484375,280.4024658203125,203.8831329345703,0,23.865550994873047,-28.649839401245117,55.23912048339844,-33.867034912109375,-175.15121459960938,127.72571563720703,-204.85638427734375
3,Pressed,0.9401389360427856,1.7526048421859741,0.5274978280067444,347.1965637207031,280.4559631347656,204.93031311035156,0,23.985736846923828,-28.432477951049805,59.2669792175293,-34.402305603027344,-175.46141052246094,127.72744750976562,-201.01869201660156
-3,Pressed,0.9396427273750305,1.7530696392059326,0.5275990962982178,346.5875549316406,281.67523193359375,204.54779052734375,0,24.104829788208008,-28.419893264770508,59.25457763671875,-34.259132385253906,-175.54193115234375,127.73007202148438,-202.29522705078125
-3,Pressed,0.9427871704101562,1.7449029684066772,0.5039526224136353,346.6509704589844,280.87994384765625,203.40679931640625,0,23.93979263305664,-28.73717498779297,54.208988189697266,-33.625709533691406,-175.20135498046875,127.72818756103516,-206.33688354492188
-3,Pressed,0.9458204507827759,1.7385389804840088,0.4850703179836273,346.6178283691406,280.50714111328125,202.4175262451172,0,24.03388023376465,-29.044023513793945,49.796199798583984,-32.96858215332031,-174.73703002929688,127.72454071044922,-209.85850524902344
-3,Pressed,0.9486112594604492,1.7323952913284302,0.46532517671585083,346.3883361816406,280.9953918457031,200.8427734375,0,24.501691818237305,-29.453384399414062,45.182926177978516,-31.931140899658203,-174.5985107421875,127.72698211669922,-214.25411987304688
-3,Pressed,0.9524714350700378,1.726251482963562,0.4463367760181427,346.45562744140625,280.86248779296875,199.6395263671875,0,24.89521598815918,-29.94622039794922,40.525413513183594,-30.962894439697266,-174.11611938476562,127.72404479980469,-217.87049865722656
-3,Pressed,0.9561379551887512,1.7203736305236816,0.42729249596595764,346.50677490234375,281.189697265625,198.14175415039062,0,25.484981536865234,-30.58040428161621,35.926509857177734,-29.713542938232422,-173.8183135986328,127.72493743896484,-221.76893615722656
-3,Pressed,0.9610040187835693,1.7139253616333008,0.40622052550315857,346.75738525390625,281.3807678222656,196.50990295410156,0,26.085060119628906,-31.419139862060547,30.92852783203125,-28.211904525756836,-173.45419311523438,127.7259750366211,-225.7807159423828
-3,Pressed,0.9655804634094238,1.708391547203064,0.38856279850006104,347.0269775390625,281.4931335449219,195.2230987548828,0,26.533105850219727,-32.26401138305664,26.6793155670166,-26.855432510375977,-172.92869567871094,127.72415924072266,-229.0299530029297
-3,Pressed,0.9694045782089233,1.703296422958374,0.37243127822875977,347.2702941894531,281.8695068359375,193.95005798339844,0,26.97675323486328,-33.19829559326172,22.890539169311523,-25.403446197509766,-172.43853759765625,127.72369384765625,-232.10523986816406
1,Pressed,0.9832340478897095,1.70114004611969,0.36185720562934875,347.9385070800781,281.84619140625,193.20327758789062,0,25.910066604614258,-32.916290283203125,20.760299682617188,-25.888973236083984,-172.42628479003906,127.7201156616211,-234.80638122558594
1,Pressed,0.9997000098228455,1.7025326490402222,0.36142921447753906,348.2956848144531,282.919921875,192.978271484375,0,23.92327308654785,-31.617984771728516,21.266172409057617,-27.93189811706543,-173.0452880859375,127.72270965576172,-237.4521026611328
1,Pressed,1.0187737941741943,1.7034599781036377,0.3599354028701782,348.9118347167969,283.8792724609375,192.63526916503906,0,21.931238174438477,-30.222440719604492,20.932039260864258,-30.050718307495117,-173.56031799316406,127.7238540649414,-240.6371307373047
1,Pressed,1.0357067584991455,1.7038074731826782,0.35764408111572266,349.5228576660156,284.4463195800781,192.327880859375,0,20.45622444152832,-29.103607177734375,19.71483039855957,-31.687419891357422,-173.69712829589844,127.7201156616211,-243.5889434814453
1,Pressed,1.0547449588775635,1.7039568424224854,0.3555104732513428,350.37213134765625,285.3166809082031,191.93258666992188,0,19.124177932739258,-27.84966278076172,17.922908782958984,-33.469783782958984,-173.98300170898438,127.71974182128906,-247.3040008544922
2,Pressed,1.065346598625183,1.7094260454177856,0.3558298647403717,350.4773254394531,284.94342041015625,191.13352966308594,0,17.894533157348633,-26.761959075927734,17.773191452026367,-33.97649002075195,-174.11416625976562,127.72071075439453,-248.1839141845703
2,Pressed,1.0644581317901611,1.7180557250976562,0.3603547215461731,349.6139221191406,284.83203125,190.19198608398438,0,16.9793643951416,-25.979108810424805,19.694355010986328,-33.57130432128906,-174.0626983642578,127.7203598022461,-247.1005401611328
2,Pressed,1.0622326135635376,1.7282421588897705,0.3658820390701294,348.45928955078125,284.7070617675781,189.1326141357422,0,15.846404075622559,-25.199108123779297,22.332843780517578,-32.93107604980469,-174.02777099609375,127.72195434570312,-245.55784606933594
