cesarbds/cloth_dressing/GMM/demo4.csv
Button,Action,x,y,z,roll,pitch,yaw,gripper_state,joint0,joint1,joint2,joint3,joint4,joint5,joint6,joint7
3,Pressed,2.0041861534118652,1.7094427347183228,0.6892887949943542,36.16553497314453,175.7040557861328,130.4056396484375,0,-49.6761589050293,-62.181495666503906,56.38886260986328,49.111541748046875,76.3476333618164,74.95999908447266,55.79409408569336
3,Pressed,1.9853706359863281,1.7168549299240112,0.7381229996681213,37.129173278808594,173.09886169433594,129.54855346679688,0,-50.1868782043457,-62.1685791015625,54.8520622253418,55.81302261352539,77.35968780517578,73.78254699707031,49.55309295654297
3,Pressed,1.977211356163025,1.7110648155212402,0.7538857460021973,36.87234878540039,173.78945922851562,130.19325256347656,0,-49.97354507446289,-61.98833084106445,55.46739959716797,59.49633026123047,78.07828521728516,73.11852264404297,45.715362548828125
3,Pressed,1.9656782150268555,1.708203673362732,0.77558833360672,37.14098358154297,173.88796997070312,130.359619140625,0,-49.987857818603516,-61.881126403808594,55.36315155029297,63.737125396728516,79.21758270263672,72.39385223388672,41.053157806396484
3,Pressed,1.9567251205444336,1.7051796913146973,0.790104329586029,37.36262130737305,174.3865203857422,130.4781036376953,0,-49.91914367675781,-61.78174591064453,55.29802322387695,67.10978698730469,80.45674133300781,71.88178253173828,37.039730072021484
3,Pressed,1.9436674118041992,1.7064837217330933,0.8024541139602661,37.660770416259766,175.05230712890625,130.31736755371094,0,-49.289466857910156,-61.07673263549805,55.11519241333008,70.78697967529297,81.39569854736328,71.36707305908203,32.46879577636719
3,Pressed,1.934451937675476,1.70489501953125,0.8102673888206482,37.74928283691406,176.17774963378906,130.27857971191406,0,-48.782920837402344,-60.50736999511719,55.19641876220703,73.86713409423828,82.62708282470703,71.01903533935547,28.335262298583984
3,Pressed,1.9254798889160156,1.7109947204589844,0.8044763207435608,37.21503829956055,178.27500915527344,129.3919677734375,0,-47.06467819213867,-58.81755828857422,55.38356399536133,76.510009765625,83.81214904785156,70.78468322753906,24.30759620666504
3,Pressed,1.9167920351028442,1.7226287126541138,0.7799334526062012,37.04735565185547,181.40074157714844,127.68189239501953,0,-43.517784118652344,-57.07840347290039,54.76372146606445,79.07148742675781,85.18252563476562,70.64717864990234,20.353919982910156
3,Pressed,1.9175715446472168,1.706580638885498,0.7217798233032227,37.68341827392578,189.64019775390625,129.90878295898438,0,-37.95349884033203,-57.087398529052734,56.0600471496582,81.13139343261719,85.46635437011719,70.59031677246094,16.526763916015625
3,Pressed,1.9120272397994995,1.7078404426574707,0.6947566270828247,37.82838439941406,193.62701416015625,129.44717407226562,0,-34.88438034057617,-56.179893493652344,56.16217803955078,82.9664077758789,86.70389556884766,70.62240600585938,13.0851411819458
-3,Pressed,1.9024643898010254,1.7044973373413086,0.5993219017982483,38.09481430053711,201.728515625,129.61480712890625,0,-26.40839195251465,-56.96446990966797,55.84608840942383,83.17851257324219,86.80535888671875,70.57485961914062,13.461813926696777
-3,Pressed,1.9077640771865845,1.70151686668396,0.5945520997047424,37.812904357910156,200.50924682617188,130.18490600585938,0,-26.884973526000977,-57.964969635009766,55.88523864746094,81.2999496459961,85.63346099853516,70.59635925292969,17.019956588745117
-3,Pressed,1.9098438024520874,1.7150474786758423,0.8543117642402649,42.284385681152344,173.05906677246094,128.69198608398438,0,-50.68793487548828,-62.18165969848633,51.14372634887695,79.04389190673828,85.64170837402344,70.59015655517578,20.90618896484375
-3,Pressed,1.9289557933807373,1.7073900699615479,0.789524495601654,37.32883834838867,179.53286743164062,130.092041015625,0,-45.96187973022461,-59.11702346801758,55.633792877197266,75.96730041503906,83.16085815429688,70.83917999267578,25.115215301513672
-3,Pressed,1.9361764192581177,1.7126145362854004,0.7894866466522217,36.990726470947266,177.395263671875,129.42677307128906,0,-47.02360153198242,-59.62107849121094,55.23319625854492,73.27118682861328,82.4592514038086,71.08517456054688,29.08172035217285
-3,Pressed,1.9441332817077637,1.7130522727966309,0.7945967316627502,37.16474151611328,175.0963134765625,129.37954711914062,0,-48.6887321472168,-60.63624954223633,54.804832458496094,70.4826431274414,81.6815414428711,71.44027709960938,32.956825256347656
-3,Pressed,1.9545141458511353,1.7138824462890625,0.785888135433197,37.005496978759766,174.1304168701172,129.44024658203125,0,-49.38186264038086,-61.16411209106445,54.827754974365234,67.09425354003906,80.62281036376953,71.90756225585938,37.16421127319336
-3,Pressed,1.9659096002578735,1.7158664464950562,0.7783056497573853,37.23308181762695,172.5383758544922,129.16456604003906,0,-50.463470458984375,-62.01354217529297,54.254268646240234,63.162086486816406,79.77349090576172,72.55361938476562,41.8853874206543
-3,Pressed,1.9773294925689697,1.71467924118042,0.7642801403999329,37.2122917175293,172.1604766845703,129.3661346435547,0,-50.993709564208984,-62.47781753540039,54.335960388183594,59.34726333618164,78.80915832519531,73.21764373779297,46.07592010498047
-3,Pressed,1.9923125505447388,1.7122502326965332,0.737708568572998,37.347938537597656,172.7269287109375,129.7906951904297,0,-51.195579528808594,-62.88103103637695,54.613224029541016,54.133541107177734,77.67372131347656,74.14916229248047,51.13450241088867
-3,Pressed,2.005061149597168,1.7132625579833984,0.7048906087875366,37.485416412353516,173.40834045410156,129.7098846435547,0,-51.06032943725586,-62.941162109375,54.61518478393555,48.48823547363281,76.6484375,75.19316864013672,56.38005828857422
3,Pressed,2.004119634628296,1.6971479654312134,0.7113083004951477,36.680206298828125,175.02169799804688,131.82354736328125,0,-50.95307922363281,-63.00025939941406,56.85631561279297,50.422183990478516,76.13079833984375,74.8666763305664,54.582130432128906
3,Pressed,1.991010308265686,1.7113837003707886,0.7357465028762817,36.948219299316406,173.4107666015625,129.9201202392578,0,-50.78727722167969,-62.66614532470703,54.94792938232422,54.890140533447266,77.93778228759766,74.03661346435547,50.342777252197266
3,Pressed,1.9778448343276978,1.708557367324829,0.7631877660751343,37.297203063964844,173.0630645751953,130.32130432128906,0,-50.85213851928711,-62.560054779052734,55.02622985839844,59.5866584777832,78.48339080810547,73.20433044433594,45.570526123046875
3,Pressed,1.967002034187317,1.7044801712036133,0.7824252843856812,37.44289779663086,173.44285583496094,130.6598358154297,0,-50.78911590576172,-62.464847564697266,55.126930236816406,63.67626190185547,79.5764389038086,72.53565979003906,41.06155014038086
3,Pressed,1.9561896324157715,1.7012741565704346,0.7991032600402832,37.75824737548828,173.8983917236328,130.8690643310547,0,-50.691715240478516,-62.321746826171875,55.10417175292969,67.41947174072266,80.70358276367188,71.94985961914062,36.66373062133789
3,Pressed,1.9451701641082764,1.704382061958313,0.8077558279037476,37.73820114135742,174.58766174316406,130.4434814453125,0,-50.05597686767578,-61.49796676635742,54.97031784057617,70.53202819824219,81.73265838623047,71.54150390625,32.729087829589844
3,Pressed,1.9342273473739624,1.7073030471801758,0.8137065768241882,37.427066802978516,175.72665405273438,129.9624481201172,0,-49.21446228027344,-60.29267501831055,55.1285514831543,73.6226806640625,82.82178497314453,71.17520141601562,28.580541610717773
3,Pressed,1.9252588748931885,1.707526683807373,0.8166092038154602,37.771392822265625,177.12449645996094,129.81797790527344,0,-48.32993698120117,-59.63321304321289,55.01996612548828,76.4087905883789,83.89236450195312,70.92913055419922,24.548471450805664
1,Pressed,1.9357659816741943,1.7135121822357178,0.7990173697471619,37.69344711303711,179.49598693847656,128.9762725830078,0,-47.65729904174805,-58.86518859863281,55.956031799316406,75.21253204345703,85.04936981201172,70.4740219116211,23.878265380859375
1,Pressed,1.9634437561035156,1.7135711908340454,0.7699273824691772,37.68368911743164,182.82882690429688,128.94215393066406,0,-48.13735580444336,-58.91047668457031,58.216468811035156,70.61394500732422,86.03105926513672,69.80481719970703,25.936010360717773
1,Pressed,1.9891473054885864,1.7115063667297363,0.7399336099624634,37.98091125488281,185.86317443847656,129.1807098388672,0,-48.77236557006836,-59.421329498291016,59.95793533325195,65.76821899414062,86.7642822265625,69.2650375366211,28.420190811157227
1,Pressed,2.0119757652282715,1.7072006464004517,0.7144172191619873,38.25236511230469,188.49118041992188,129.70738220214844,0,-49.79462432861328,-59.95111083984375,61.621761322021484,60.887271881103516,87.12042236328125,68.76692962646484,31.0154972076416
1,Pressed,2.0383341312408447,1.7025642395019531,0.6725668907165527,38.323936462402344,192.2489776611328,130.00733947753906,0,-50.68159103393555,-60.51177978515625,63.452449798583984,54.3761100769043,87.79515075683594,68.17365264892578,34.53804016113281
1,Pressed,2.057859420776367,1.6976318359375,0.6334875822067261,38.635894775390625,195.48643493652344,130.4845733642578,0,-51.43864440917969,-61.03942108154297,64.72752380371094,48.18597412109375,87.8910903930664,67.69538116455078,38.07497787475586
1,Pressed,2.076202392578125,1.6897392272949219,0.5757362246513367,38.50926208496094,200.03382873535156,131.0158233642578,0,-52.091461181640625,-61.48186111450195,66.39356231689453,40.04346466064453,87.95613098144531,67.1929702758789,42.87425994873047
1,Pressed,2.0961642265319824,1.6759096384048462,0.5231120586395264,37.11555480957031,204.3998260498047,131.67276000976562,0,-55.41756820678711,-61.52364730834961,69.5464859008789,28.19365119934082,87.6517333984375,66.68073272705078,49.98579406738281
-3,Pressed,2.10359263420105,1.6734294891357422,0.49340155720710754,35.950286865234375,205.3391571044922,131.45986938476562,0,-59.04077911376953,-60.779319763183594,71.45268249511719,16.98969841003418,85.89485168457031,66.89578247070312,58.373897552490234
-3,Pressed,2.097747802734375,1.6833758354187012,0.4564782977104187,33.590335845947266,205.91871643066406,129.60678100585938,0,-62.50789260864258,-58.861572265625,74.05355834960938,5.159646511077881,84.2712173461914,67.28596496582031,67.74044799804688
-3,Pressed,2.080033302307129,1.6857542991638184,0.4036777913570404,27.938289642333984,208.9989471435547,127.9062728881836,0,-62.08515167236328,-57.9267463684082,77.47920989990234,1.7368922233581543,86.04926300048828,67.23318481445312,71.57026672363281
3,Pressed,2.0616962909698486,1.6801881790161133,0.35846492648124695,19.85390281677246,214.33856201171875,127.1540298461914,0,-62.27914047241211,-57.60698318481445,86.82035827636719,1.4184988737106323,86.8084487915039,67.32261657714844,71.23678588867188
3,Pressed,2.05558443069458,1.705689549446106,0.36504286527633667,17.86573600769043,215.36634826660156,124.95970916748047,0,-67.65713500976562,-55.75450897216797,89.84879302978516,-5.892872333526611,88.51870727539062,67.32611083984375,74.09596252441406
3,Pressed,2.071409225463867,1.6982759237289429,0.419891357421875,24.684669494628906,212.14830017089844,127.05990600585938,0,-74.24120330810547,-54.49687194824219,78.47539520263672,-16.080659866333008,93.93071746826172,66.6723403930664,78.28597259521484
3,Pressed,2.094236373901367,1.6832772493362427,0.49926894903182983,32.85584259033203,207.33584594726562,130.0147247314453,0,-79.5845718383789,-53.5839958190918,69.25315856933594,-22.506813049316406,94.67467498779297,65.76921844482422,80.39974975585938
3,Pressed,2.0988454818725586,1.6789791584014893,0.5406935811042786,34.230873107910156,206.2391815185547,130.64512634277344,0,-84.80035400390625,-52.563201904296875,68.7120361328125,-27.659887313842773,95.50440216064453,64.62069702148438,81.5367660522461
3,Pressed,2.093726634979248,1.6889443397521973,0.5470882058143616,32.642494201660156,207.18113708496094,129.10609436035156,0,-88.53987121582031,-51.7093391418457,72.91541290283203,-30.82884407043457,95.7943344116211,63.59869384765625,81.52290344238281
3,Pressed,2.0969581604003906,1.6869261264801025,0.5816317796707153,33.721710205078125,206.39712524414062,129.48776245117188,0,-92.36784362792969,-51.13658142089844,72.55642700195312,-33.4727783203125,96.77049255371094,62.52296447753906,81.12063598632812
3,Pressed,2.0993447303771973,1.683334231376648,0.6120829582214355,34.24168014526367,205.97064208984375,129.9510040283203,0,-95.72753143310547,-50.861576080322266,72.48881530761719,-35.33675765991211,97.95884704589844,61.55900573730469,80.28569793701172
3,Pressed,2.099362850189209,1.6857237815856934,0.6364676356315613,34.277034759521484,205.82228088378906,129.6010284423828,0,-99.0489501953125,-50.56761932373047,73.7408676147461,-36.86933135986328,98.92066192626953,60.55643844604492,79.08231353759766
3,Pressed,2.1003289222717285,1.6849039793014526,0.664780855178833,34.4790153503418,205.5670166015625,129.67327880859375,0,-102.22171020507812,-50.50910568237305,74.4092788696289,-37.90773391723633,100.11891174316406,59.639793395996094,77.48417663574219
3,Pressed,2.1009671688079834,1.6841957569122314,0.6918317675590515,34.5485725402832,205.4091339111328,129.69894409179688,0,-105.16558837890625,-50.61219024658203,75.22187042236328,-38.49609375,101.38214874267578,58.83335876464844,75.54774475097656
3,Pressed,2.101341724395752,1.6840261220932007,0.7182658910751343,34.60881423950195,205.2515411376953,129.63966369628906,0,-107.91112518310547,-50.83003616333008,76.12557220458984,-38.71751022338867,102.61878967285156,58.123497009277344,73.35659790039062
3,Pressed,2.101820945739746,1.6834080219268799,0.7471498847007751,34.642608642578125,205.08103942871094,129.61854553222656,0,-110.61656188964844,-51.24496841430664,77.07371520996094,-38.4311637878418,104.01693725585938,57.53560256958008,70.62379455566406
3,Pressed,2.102220058441162,1.682516098022461,0.7713860869407654,34.65827941894531,205.03187561035156,129.6580810546875,0,-112.664794921875,-51.73084259033203,77.85843658447266,-37.756072998046875,105.29793548583984,57.20529556274414,67.94044494628906
3,Pressed,2.102539539337158,1.6821231842041016,0.7993903756141663,34.68965148925781,204.90908813476562,129.61399841308594,0,-114.7842788696289,-52.39059066772461,78.84101867675781,-36.52525329589844,106.71566772460938,57.00371551513672,64.59346008300781
3,Pressed,2.1028695106506348,1.6808029413223267,0.8262856006622314,34.71867752075195,204.83099365234375,129.67832946777344,0,-116.4918441772461,-53.146236419677734,79.64186096191406,-34.865848541259766,108.1432876586914,57.02316665649414,61.09989547729492
3,Pressed,2.1032097339630127,1.6797659397125244,0.849731981754303,34.78630828857422,204.83644104003906,129.76979064941406,0,-117.66414642333984,-53.88690948486328,80.30829620361328,-32.852500915527344,109.45439910888672,57.26678466796875,57.63538360595703
3,Pressed,2.1031875610351562,1.678790807723999,0.878706157207489,34.931297302246094,204.7212677001953,129.81741333007812,0,-118.84014129638672,-54.81501007080078,81.09583282470703,-29.98638153076172,110.94941711425781,57.72296905517578,53.287906646728516
3,Pressed,2.1035006046295166,1.67679762840271,0.9059088826179504,35.1961669921875,204.6962890625,130.1697998046875,0,-119.23111724853516,-55.747276306152344,81.35784912109375,-26.26327896118164,112.4596176147461,58.555118560791016,48.701961517333984
3,Pressed,2.1037275791168213,1.676151990890503,0.9302948117256165,35.63899230957031,204.76747131347656,130.5684814453125,0,-118.89187622070312,-56.577484130859375,81.33880615234375,-21.676443099975586,113.94633483886719,59.70396041870117,43.80500793457031
3,Pressed,2.1025173664093018,1.6782406568527222,0.9619672894477844,36.74480438232422,204.64303588867188,131.16433715820312,0,-117.53744506835938,-57.42886734008789,80.65543365478516,-14.29749870300293,115.78446960449219,61.54792785644531,36.94097137451172
3,Pressed,2.0975000858306885,1.689681053161621,0.9927862882614136,39.504695892333984,204.25393676757812,132.2179412841797,0,-114.2454833984375,-57.69438171386719,78.21751403808594,-4.090151786804199,117.3939437866211,63.9666748046875,28.819194793701172
3,Pressed,2.0809648036956787,1.6961276531219482,1.0421762466430664,44.004066467285156,203.44781494140625,135.87693786621094,0,-114.25598907470703,-57.59621810913086,76.95429229736328,0.38564226031303406,114.6730728149414,64.67314147949219,24.10063934326172
3,Pressed,2.0635530948638916,1.6868410110473633,1.093039870262146,47.62434005737305,204.03341674804688,141.53390502929688,0,-116.16511535644531,-58.227378845214844,69.42568969726562,0.6409609317779541,117.72818756103516,64.29216003417969,22.060691833496094
3,Pressed,2.0538454055786133,1.6764800548553467,1.122038722038269,48.60264587402344,204.7033233642578,143.77581787109375,0,-118.02023315429688,-59.061466217041016,61.76715850830078,0.45822587609291077,125.07209014892578,63.791297912597656,20.350908279418945
3,Pressed,2.054111957550049,1.6623380184173584,1.1301512718200684,47.1294059753418,204.8384246826172,142.33090209960938,0,-119.5544204711914,-60.20082473754883,52.00020980834961,0.020314672961831093,138.27024841308594,63.24454116821289,18.97718048095703
3,Pressed,2.0564825534820557,1.652360200881958,1.1323466300964355,44.990360260009766,204.0938262939453,138.78965759277344,0,-121.13311767578125,-61.227210998535156,47.6546745300293,-0.2612527012825012,147.77540588378906,62.6359977722168,17.48147201538086
3,Pressed,2.0529568195343018,1.6381666660308838,1.1475090980529785,43.79339599609375,203.42605590820312,137.577880859375,0,-122.70716094970703,-62.489341735839844,31.073925018310547,-0.707011878490448,166.9521942138672,61.69670867919922,16.296586990356445
3,Pressed,2.0409250259399414,1.622516393661499,1.1782400608062744,44.996971130371094,203.98631286621094,140.49301147460938,0,-124.37762451171875,-63.4862060546875,26.568838119506836,-0.941531240940094,170.17617797851562,60.995269775390625,14.638439178466797
3,Pressed,2.0240111351013184,1.6105735301971436,1.2135605812072754,47.02886199951172,204.94857788085938,145.03579711914062,0,-125.80596923828125,-64.26945495605469,14.247342109680176,-1.1352239847183228,179.40774536132812,60.1121940612793,13.245558738708496
3,Pressed,2.0117650032043457,1.5944583415985107,1.2394099235534668,47.360347747802734,205.17422485351562,147.10845947265625,0,-127.25322723388672,-65.382568359375,1.4929327964782715,-1.6233052015304565,191.64694213867188,59.110511779785156,11.848761558532715
3,Pressed,2.0079240798950195,1.590244174003601,1.2494771480560303,47.207725524902344,204.2989501953125,145.5994110107422,0,-128.46946716308594,-65.94348907470703,2.477304458618164,-1.6031444072723389,192.80274963378906,58.48923873901367,10.540979385375977
3,Pressed,2.0061068534851074,1.5877522230148315,1.25661039352417,46.74606704711914,202.80093383789062,142.7484893798828,0,-129.74545288085938,-66.51834869384766,5.001260757446289,-1.5483155250549316,193.50917053222656,57.79816818237305,9.154927253723145
3,Pressed,2.0000083446502686,1.5832059383392334,1.2702953815460205,46.95288848876953,201.89031982421875,141.6475830078125,0,-131.06932067871094,-67.15443420410156,6.060418605804443,-1.5137908458709717,194.20909118652344,57.028865814208984,7.7088751792907715
3,Pressed,1.9887117147445679,1.575749158859253,1.2904154062271118,48.0428581237793,202.25192260742188,143.49102783203125,0,-132.2238006591797,-67.74612426757812,4.654147624969482,-1.5253607034683228,194.87387084960938,56.318965911865234,6.438493251800537
3,Pressed,1.9743194580078125,1.5665124654769897,1.3136475086212158,49.44743728637695,203.40805053710938,146.85519409179688,0,-133.34727478027344,-68.36944580078125,2.0624053478240967,-1.5659537315368652,195.63385009765625,55.58183288574219,5.197385311126709
3,Pressed,1.963587760925293,1.559474229812622,1.3310399055480957,50.28399658203125,203.7982635498047,148.44161987304688,0,-134.4053192138672,-68.96569061279297,0.27962449193000793,-1.6059901714324951,196.9789581298828,54.82054901123047,4.015170097351074
3,Pressed,1.9582605361938477,1.5554094314575195,1.3412463665008545,50.43955612182617,202.71490478515625,147.28390502929688,0,-135.36209106445312,-69.52804565429688,-2.396005392074585,-1.6884139776229858,201.137939453125,53.99443435668945,2.914656162261963
1,Pressed,1.964568853378296,1.5519280433654785,1.3421412706375122,51.03355026245117,201.78225708007812,146.31634521484375,0,-134.97592163085938,-70.13043975830078,-8.113770484924316,-1.9222203493118286,207.06881713867188,52.33455276489258,2.7958264350891113
1,Pressed,1.9786137342453003,1.5505366325378418,1.3357325792312622,52.007408142089844,201.15509033203125,145.48619079589844,0,-133.76058959960938,-70.67438507080078,-11.857527732849121,-2.0111083984375,210.19500732421875,50.388431549072266,3.328326463699341
-1,Pressed,1.980320692062378,1.5552635192871094,1.3311694860458374,51.1646728515625,199.7275848388672,142.84014892578125,0,-134.04380798339844,-70.49547576904297,-10.541969299316406,-1.886414647102356,211.02622985839844,50.80923843383789,3.1599924564361572
-1,Pressed,1.9696686267852783,1.5587129592895508,1.3339190483093262,49.688507080078125,199.16629028320312,141.57667541503906,0,-135.27833557128906,-69.99801635742188,-8.983585357666016,-1.9091449975967407,211.6550750732422,52.56490707397461,2.537274122238159
-1,Pressed,1.9502735137939453,1.5600948333740234,1.345695972442627,49.35898208618164,200.52581787109375,144.05873107910156,0,-136.6232452392578,-69.41798400878906,-10.010623931884766,-1.8644886016845703,212.0548858642578,54.4958381652832,1.8816962242126465
-1,Pressed,1.9260634183883667,1.5593249797821045,1.361579418182373,49.29701614379883,202.69216918945312,148.32460021972656,0,-138.00914001464844,-68.848876953125,-12.34789752960205,-1.8501324653625488,212.42352294921875,56.461334228515625,1.2276332378387451
-1,Pressed,1.9032042026519775,1.5594514608383179,1.3750386238098145,48.96167755126953,204.38217163085938,151.80081176757812,0,-139.34857177734375,-68.3075942993164,-14.12777042388916,-1.7994778156280518,212.71499633789062,58.34393310546875,0.6101204752922058
-1,Pressed,1.8833906650543213,1.5615637302398682,1.3829426765441895,47.89036560058594,204.68099975585938,152.59817504882812,0,-140.8934783935547,-67.72408294677734,-14.08534049987793,-1.7762081623077393,213.232666015625,60.43039321899414,-0.08571517467498779
-1,Pressed,1.8662351369857788,1.565063714981079,1.387223720550537,46.60182571411133,204.35317993164062,151.98475646972656,0,-142.49209594726562,-67.15400695800781,-13.016908645629883,-1.714178442955017,213.76803588867188,62.55385208129883,-0.792733907699585
-1,Pressed,1.8483949899673462,1.5687810182571411,1.3915138244628906,45.412940979003906,204.1244659423828,151.52243041992188,0,-144.11849975585938,-66.59144592285156,-12.11030387878418,-1.6373579502105713,214.3284149169922,64.66200256347656,-1.4960829019546509
-1,Pressed,1.827896237373352,1.5704290866851807,1.3981995582580566,44.43545150756836,204.41168212890625,152.31072998046875,0,-145.68975830078125,-66.09644317626953,-12.141873359680176,-1.5714601278305054,214.77809143066406,66.67208862304688,-2.1649065017700195
-1,Pressed,1.8009110689163208,1.5707577466964722,1.4083762168884277,43.47612380981445,205.09442138671875,154.40762329101562,0,-147.4642791748047,-65.54315948486328,-13.252650260925293,-1.5340300798416138,215.29962158203125,68.86331939697266,-2.9026215076446533
-1,Pressed,1.7712798118591309,1.5702062845230103,1.41910719871521,42.421142578125,205.77737426757812,156.86488342285156,0,-149.3101348876953,-65.01190948486328,-14.735306739807129,-1.5021003484725952,215.82717895507812,71.08582305908203,-3.656972646713257
-1,Pressed,1.7463535070419312,1.5711379051208496,1.4259381294250488,41.37202835083008,205.97068786621094,158.06199645996094,0,-151.04237365722656,-64.53411102294922,-15.279478073120117,-1.4237388372421265,216.2830047607422,73.12395477294922,-4.3561110496521
-1,Pressed,1.7257905006408691,1.5732431411743164,1.428699254989624,40.220218658447266,205.64048767089844,157.66929626464844,0,-152.8169708251953,-64.10836791992188,-14.851811408996582,-1.3620858192443848,217.05369567871094,75.14679718017578,-5.069180965423584
-1,Pressed,1.7053462266921997,1.5757625102996826,1.430487871170044,39.08528518676758,205.24562072753906,156.99078369140625,0,-154.66676330566406,-63.697059631347656,-14.203608512878418,-1.2938239574432373,217.853759765625,77.19537353515625,-5.804738998413086
-1,Pressed,1.6795003414154053,1.5771536827087402,1.4344313144683838,37.93352508544922,205.0837860107422,157.33326721191406,0,-156.67510986328125,-63.26356887817383,-14.201663970947266,-1.2164711952209473,218.4438018798828,79.35220336914062,-6.591104984283447
-1,Pressed,1.6493988037109375,1.576263666152954,1.4400417804718018,36.672916412353516,205.03810119628906,158.60694885253906,0,-158.73204040527344,-62.88179016113281,-15.10190486907959,-1.1770788431167603,219.04061889648438,81.49192810058594,-7.387742042541504
-1,Pressed,1.6202418804168701,1.5754072666168213,1.4450041055679321,35.51547622680664,204.96336364746094,160.01087951660156,0,-160.64889526367188,-62.53629684448242,-16.141517639160156,-1.0996114015579224,219.51805114746094,83.43228912353516,-8.127669334411621
-1,Pressed,1.5941855907440186,1.5754563808441162,1.446960687637329,34.344329833984375,204.61024475097656,160.25079345703125,0,-162.65652465820312,-62.23841857910156,-16.230457305908203,-1.0449875593185425,220.06109619140625,85.39818572998047,-8.89753246307373
-1,Pressed,1.5697195529937744,1.5765302181243896,1.4470528364181519,33.256568908691406,204.16021728515625,159.86883544921875,0,-164.7467498779297,-61.96062088012695,-15.758561134338379,-0.9584227204322815,220.6158905029297,87.38885498046875,-9.696088790893555
-1,Pressed,1.5462225675582886,1.5771398544311523,1.446411371231079,32.20895767211914,203.7004852294922,159.352783203125,0,-166.80870056152344,-61.7515983581543,-15.198439598083496,-0.8891127705574036,221.15797424316406,89.29548645019531,-10.484684944152832
-1,Pressed,1.5179789066314697,1.5769885778427124,1.4462240934371948,31.046649932861328,203.20828247070312,159.34988403320312,0,-169.08091735839844,-61.5261116027832,-15.179830551147461,-0.8341032862663269,221.7512969970703,91.30876159667969,-11.353541374206543
-1,Pressed,1.489827275276184,1.575766682624817,1.446724772453308,29.94100570678711,202.74139404296875,160.031982421875,0,-171.09503173828125,-61.37364196777344,-19.221458435058594,-0.8314728736877441,225.58761596679688,92.97676086425781,-12.20054817199707
-1,Pressed,1.4610823392868042,1.5772414207458496,1.445878267288208,29.052766799926758,202.19342041015625,160.4949188232422,0,-173.2614288330078,-61.10165023803711,-25.338775634765625,-0.8326720595359802,231.74485778808594,94.63929748535156,-13.162521362304688
-1,Pressed,1.4374181032180786,1.5771950483322144,1.4435367584228516,28.16454315185547,201.7301025390625,160.39044189453125,0,-175.23468017578125,-60.97527313232422,-25.564924240112305,-0.7389570474624634,232.48915100097656,96.25112915039062,-13.9369478225708
-1,Pressed,1.4133260250091553,1.5765960216522217,1.4396945238113403,27.231929779052734,201.13893127441406,159.58482360839844,0,-177.4829559326172,-60.9509162902832,-24.934316635131836,-0.7167927026748657,233.0561065673828,98.00630187988281,-14.814459800720215
-1,Pressed,1.387520432472229,1.5755796432495117,1.4356982707977295,26.280900955200195,200.56121826171875,159.19012451171875,0,-179.7469024658203,-60.93839645385742,-24.67091941833496,-0.6418285369873047,233.551513671875,99.73341369628906,-15.704890251159668
-1,Pressed,1.3620071411132812,1.5740635395050049,1.4320244789123535,25.33846664428711,200.013916015625,159.37301635742188,0,-181.789794921875,-60.91899871826172,-24.975088119506836,-0.5272911787033081,233.94845581054688,101.2549819946289,-16.51569938659668
-1,Pressed,1.3330938816070557,1.571254849433899,1.4269683361053467,24.210285186767578,199.27267456054688,159.32887268066406,0,-184.17120361328125,-60.992618560791016,-25.24967384338379,-0.4852128028869629,234.46566772460938,102.9427719116211,-17.46371841430664
-1,Pressed,1.3074113130569458,1.5691392421722412,1.4214496612548828,23.277755737304688,198.6240234375,159.20013427734375,0,-186.35354614257812,-61.07048416137695,-25.375253677368164,-0.4078550934791565,234.89505004882812,104.45269775390625,-18.350984573364258
-1,Pressed,1.2840036153793335,1.5675382614135742,1.415118932723999,22.532079696655273,198.02308654785156,158.66709899902344,0,-188.52720642089844,-61.19236755371094,-25.074012756347656,-0.33722129464149475,235.31065368652344,105.90650939941406,-19.24897575378418
-1,Pressed,1.2637429237365723,1.5664594173431396,1.4089198112487793,21.972026824951172,197.5275115966797,158.1155548095703,0,-190.4747772216797,-61.311424255371094,-24.679697036743164,-0.251569926738739,235.64535522460938,107.17786407470703,-20.07406234741211
-1,Pressed,1.2417547702789307,1.5646109580993652,1.401874303817749,21.356002807617188,196.94338989257812,157.5215301513672,0,-192.58135986328125,-61.48915481567383,-24.353187561035156,-0.20263034105300903,236.0330047607422,108.4923095703125,-20.981792449951172
-1,Pressed,1.2185479402542114,1.5619430541992188,1.3943876028060913,20.636137008666992,196.29393005371094,157.20709228515625,0,-194.6898193359375,-61.6929931640625,-24.370386123657227,-0.14143067598342896,236.39566040039062,109.76564025878906,-21.902517318725586
-1,Pressed,1.192810297012329,1.5581836700439453,1.3857166767120361,19.777814865112305,195.5084228515625,157.0026092529297,0,-196.96881103515625,-61.95320510864258,-25.213518142700195,-0.13033480942249298,237.35743713378906,111.0625991821289,-22.94037628173828
-1,Pressed,1.1717654466629028,1.5555880069732666,1.3780057430267334,19.119794845581055,194.88987731933594,156.97251892089844,0,-198.82528686523438,-62.131378173828125,-25.96917724609375,-0.06891629844903946,238.07952880859375,112.09590148925781,-23.810461044311523
-1,Pressed,1.1515929698944092,1.553052306175232,1.369482398033142,18.650442123413086,194.2945556640625,156.4599609375,0,-200.8161163330078,-62.39435958862305,-25.849584579467773,-0.02603229135274887,238.44422912597656,113.16143798828125,-24.74769401550293
-1,Pressed,1.1318613290786743,1.5507941246032715,1.3602917194366455,18.359460830688477,193.7205352783203,155.6944580078125,0,-202.9129180908203,-62.718048095703125,-29.848493576049805,-0.11683043837547302,243.1651153564453,114.1537857055664,-25.896207809448242
-1,Pressed,1.112310767173767,1.5495245456695557,1.3508827686309814,18.11667823791504,193.1891632080078,155.31277465820312,0,-204.91012573242188,-62.91206741333008,-31.725666046142578,-0.07272076606750488,245.4480438232422,115.10274505615234,-26.955942153930664
-1,Pressed,1.0931836366653442,1.5463764667510986,1.3416104316711426,17.720796585083008,192.5805206298828,154.9756317138672,0,-206.7986602783203,-63.21449279785156,-31.849292755126953,-0.03752037137746811,245.78070068359375,115.9760971069336,-27.92753791809082
-1,Pressed,1.0744776725769043,1.5428417921066284,1.332219123840332,17.307798385620117,191.9575958251953,154.72288513183594,0,-208.6267547607422,-63.53470230102539,-31.99884605407715,-0.0020960269030183554,246.00387573242188,116.7762680053711,-28.891023635864258
-1,Pressed,1.0581461191177368,1.5398718118667603,1.3235597610473633,17.005952835083008,191.4199676513672,154.5028533935547,0,-210.25384521484375,-63.81393814086914,-32.55169677734375,0.01763627678155899,246.62030029296875,117.44479370117188,-29.796123504638672
-1,Pressed,1.0416851043701172,1.5369811058044434,1.3142871856689453,16.852937698364258,190.88282775878906,154.11839294433594,0,-211.99249267578125,-64.13097381591797,-33.12543869018555,0.025058938190340996,247.45767211914062,118.10496520996094,-30.79432487487793
-1,Pressed,1.0249007940292358,1.5334813594818115,1.3044946193695068,16.75328826904297,190.30992126464844,153.64822387695312,0,-213.8046417236328,-64.51680755615234,-33.084938049316406,0.03742089122533798,247.7481231689453,118.74488830566406,-31.840251922607422
-1,Pressed,1.008873701095581,1.529923677444458,1.2950141429901123,16.591867446899414,189.7471160888672,153.41610717773438,0,-215.46823120117188,-64.86194610595703,-33.16619873046875,0.06475409120321274,247.88783264160156,119.28361511230469,-32.83348846435547
-1,Pressed,0.9939740300178528,1.5265004634857178,1.2860386371612549,16.402637481689453,189.2098388671875,153.35177612304688,0,-216.97250366210938,-65.16132354736328,-33.435325622558594,0.08974890410900116,248.0303192138672,119.72108459472656,-33.767799377441406
-1,Pressed,0.978291928768158,1.5223418474197388,1.2760603427886963,16.339305877685547,188.6443328857422,153.06417846679688,0,-218.67506408691406,-65.59146881103516,-38.77965545654297,-0.059014223515987396,253.37501525878906,120.11251068115234,-35.045745849609375
-1,Pressed,0.9643215537071228,1.5224905014038086,1.2667864561080933,16.43045997619629,188.22235107421875,153.3863525390625,0,-220.1392059326172,-65.58597564697266,-48.026771545410156,-0.26901543140411377,262.2255554199219,120.38188171386719,-36.35805892944336
-4,Pressed,0.9503453373908997,1.5180195569992065,1.2639509439468384,17.392337799072266,189.12295532226562,154.75990295410156,0,-220.9903564453125,-65.7266616821289,-49.806861877441406,-0.7074835300445557,263.014892578125,119.58972930908203,-39.22749710083008
-4,Pressed,0.9409365057945251,1.5176827907562256,1.2672653198242188,19.618820190429688,192.26565551757812,157.47325134277344,0,-221.37344360351562,-65.6150894165039,-50.607452392578125,-0.6199512481689453,263.0430603027344,118.13988494873047,-43.43074417114258
-4,Pressed,0.936751127243042,1.5193334817886353,1.273474097251892,22.770832061767578,195.89466857910156,159.42098999023438,0,-221.74168395996094,-65.63801574707031,-49.87993240356445,-0.6203173398971558,263.1693115234375,116.66210174560547,-47.67277145385742
-4,Pressed,0.9346343278884888,1.5221259593963623,1.2810789346694946,26.26110076904297,200.1641082763672,161.65536499023438,0,-222.09866333007812,-65.72293090820312,-48.59193801879883,-0.4926098585128784,263.3006591796875,115.140380859375,-52.11226272583008
-4,Pressed,0.9305212497711182,1.5226576328277588,1.2873830795288086,29.033615112304688,204.32041931152344,164.29620361328125,0,-222.46905517578125,-65.92166900634766,-47.93779754638672,-0.4563324749469757,263.5823059082031,113.67837524414062,-56.44278335571289
-4,Pressed,0.9229422807693481,1.5199843645095825,1.2911179065704346,30.51641845703125,207.97825622558594,167.23739624023438,0,-222.82403564453125,-66.17213439941406,-48.457908630371094,-0.5409061908721924,264.004638671875,112.35936737060547,-60.43429946899414
-4,Pressed,0.9126688241958618,1.5154435634613037,1.293776273727417,31.170631408691406,212.08773803710938,170.87734985351562,0,-223.1912841796875,-66.46636962890625,-49.720211029052734,-0.5222727656364441,264.4598388671875,110.98015594482422,-64.77220916748047
-4,Pressed,0.9037180542945862,1.5103511810302734,1.2960257530212402,31.72138214111328,215.69888305664062,173.8724365234375,0,-223.54278564453125,-66.84576416015625,-50.77339172363281,-0.6891551613807678,265.0787658691406,109.77366638183594,-68.70655059814453
-6,Pressed,0.9046450853347778,1.5229520797729492,1.297088384628296,31.501304626464844,220.98361206054688,177.98471069335938,0,-223.23915100097656,-65.66243743896484,-49.753509521484375,-0.4310600459575653,263.3257751464844,109.53199768066406,-72.30085754394531
-6,Pressed,0.9067163467407227,1.5337715148925781,1.2957041263580322,30.900312423706055,223.6241455078125,180.06439208984375,0,-222.78904724121094,-64.46480560302734,-48.925811767578125,-0.7764348387718201,261.6678161621094,109.75892639160156,-74.14443969726562
-6,Pressed,0.9077198505401611,1.547510027885437,1.2932019233703613,28.79765510559082,226.9470672607422,183.08409118652344,0,-222.03359985351562,-62.81175994873047,-48.792320251464844,-0.8022715449333191,259.25238037109375,109.99556732177734,-76.4078140258789
-6,Pressed,0.9080203771591187,1.5618804693222046,1.2904725074768066,25.829328536987305,230.1988983154297,186.19711303710938,0,-221.04864501953125,-61.02639389038086,-49.155879974365234,-0.7722020149230957,256.5439147949219,110.14440155029297,-78.86652374267578
-6,Pressed,0.9096360802650452,1.5746433734893799,1.289238452911377,23.204391479492188,233.03518676757812,188.73545837402344,0,-219.99159240722656,-59.47641372680664,-49.2901496887207,-0.8909057378768921,254.0272216796875,110.15060424804688,-81.18943786621094
-6,Pressed,0.9144877195358276,1.5863970518112183,1.2904950380325317,21.3066349029541,235.871337890625,190.8689422607422,0,-218.86843872070312,-58.15350341796875,-48.72826385498047,-1.0982201099395752,251.67173767089844,110.03424835205078,-83.36646270751953
-6,Pressed,0.9237256050109863,1.6011812686920166,1.2941620349884033,19.144515991210938,239.4813690185547,193.35311889648438,0,-217.36000061035156,-56.64370346069336,-47.564701080322266,-1.0878779888153076,248.72207641601562,109.82745361328125,-85.8011474609375
-6,Pressed,0.9326600432395935,1.6132862567901611,1.2984007596969604,16.9765625,242.62179565429688,195.4027557373047,0,-215.7991180419922,-55.371089935302734,-46.6156005859375,-1.1855088472366333,245.9625701904297,109.50147247314453,-88.06076049804688
-6,Pressed,0.93965744972229,1.6241862773895264,1.3021326065063477,14.219425201416016,245.21446228027344,197.19842529296875,0,-214.13645935058594,-54.187435150146484,-46.3679084777832,-1.253517985343933,243.2431182861328,109.08342742919922,-90.2140121459961
-6,Pressed,0.9450443387031555,1.632049798965454,1.3059499263763428,11.414435386657715,247.25465393066406,198.53787231445312,0,-212.4533233642578,-53.24766159057617,-45.62913513183594,-1.463645339012146,239.8351287841797,108.55963134765625,-92.19104766845703
-6,Pressed,0.9526457786560059,1.6417717933654785,1.3112387657165527,7.959376811981201,249.580810546875,199.9920196533203,0,-210.3700408935547,-52.23076629638672,-43.79757308959961,-1.4139043092727661,234.81944274902344,107.94981384277344,-94.27526092529297
-6,Pressed,0.9622740745544434,1.6481050252914429,1.3182175159454346,5.184920787811279,251.94403076171875,201.00994873046875,0,-208.32843017578125,-51.47319793701172,-35.413368225097656,-1.379056692123413,224.0107421875,107.3639907836914,-96.0043716430664
-6,Pressed,0.9746508002281189,1.6497371196746826,1.3281093835830688,2.764791965484619,254.49880981445312,201.5966339111328,0,-206.1217803955078,-51.15620040893555,-27.0438289642334,-1.413572072982788,213.55401611328125,106.7121810913086,-97.64734649658203
-6,Pressed,0.9869982004165649,1.655689001083374,1.3372633457183838,0.26723381876945496,256.8664855957031,202.5586700439453,0,-203.949462890625,-50.67518997192383,-26.05918312072754,-1.4633028507232666,210.4141082763672,105.85856628417969,-99.33174133300781
-6,Pressed,0.9990801215171814,1.6595149040222168,1.34698486328125,357.5274658203125,259.0413818359375,203.2423553466797,0,-201.6236572265625,-50.39406204223633,-25.701080322265625,-1.5945402383804321,207.52980041503906,104.89461517333984,-100.96678161621094
-6,Pressed,1.0097156763076782,1.662777304649353,1.3563897609710693,354.5987243652344,260.87750244140625,203.79490661621094,0,-199.3311767578125,-50.230411529541016,-25.136995315551758,-1.6780858039855957,204.1692657470703,103.88410949707031,-102.43280792236328
-6,Pressed,1.0203616619110107,1.6646512746810913,1.366276502609253,351.71368408203125,262.5959777832031,204.1947021484375,0,-197.04766845703125,-50.24880599975586,-24.849143981933594,-1.7642353773117065,201.08663940429688,102.8099136352539,-103.76274108886719
-6,Pressed,1.0312416553497314,1.6650795936584473,1.3761667013168335,349.3223571777344,264.22869873046875,204.4882049560547,0,-194.98451232910156,-50.40604782104492,-24.671945571899414,-1.8774809837341309,198.6295928955078,101.74707794189453,-104.86630249023438
-6,Pressed,1.0443073511123657,1.6645855903625488,1.387683391571045,346.8787841796875,266.0546875,204.7669219970703,0,-192.7594451904297,-50.72587203979492,-24.229087829589844,-1.9207876920700073,195.90992736816406,100.56149291992188,-105.93083190917969
-6,Pressed,1.05801260471344,1.6628832817077637,1.400099277496338,344.3406066894531,267.8593444824219,204.9818878173828,0,-190.4756317138672,-51.22295379638672,-23.707128524780273,-1.9269765615463257,193.00709533691406,99.26297760009766,-106.8925552368164
-6,Pressed,1.0723122358322144,1.6583003997802734,1.4135652780532837,341.85150146484375,269.6692199707031,205.00924682617188,0,-188.18800354003906,-51.98951721191406,-23.139957427978516,-1.9674710035324097,190.0777587890625,97.84708404541016,-107.71650695800781
-6,Pressed,1.084226131439209,1.6525412797927856,1.4253308773040771,339.7986755371094,271.1186828613281,204.9273223876953,0,-186.3134765625,-52.80396270751953,-22.731853485107422,-2.050004482269287,187.69061279296875,96.55657196044922,-108.27125549316406
-6,Pressed,1.0874749422073364,1.6501097679138184,1.4332668781280518,338.7884826660156,271.9162292480469,205.47653198242188,0,-187.0100555419922,-55.82413101196289,-21.464387893676758,4.36533260345459,186.6474151611328,98.8832015991211,-108.39407348632812
6,Pressed,1.0694156885147095,1.6685817241668701,1.4244352579116821,335.3503723144531,269.13482666015625,206.28271484375,0,-187.08609008789062,-54.88650894165039,-24.98655128479004,4.576458930969238,186.09603881835938,98.88129425048828,-108.25891876220703
6,Pressed,1.0454378128051758,1.6673773527145386,1.4090895652770996,334.30780029296875,266.38275146484375,204.5311279296875,0,-186.89138793945312,-52.614322662353516,-30.20231056213379,-1.5532832145690918,188.19032287597656,97.119140625,-108.13980865478516
6,Pressed,1.047465443611145,1.6665881872177124,1.4024264812469482,338.8779602050781,266.5966796875,204.7208251953125,0,-188.7130126953125,-51.69065475463867,-27.524866104125977,-1.918108582496643,190.50827026367188,98.1788101196289,-107.55243682861328
6,Pressed,1.0684303045272827,1.6619079113006592,1.402402639389038,346.5498046875,269.0989685058594,205.3561248779297,0,-190.78582763671875,-51.124778747558594,-20.95418930053711,-1.823225498199463,193.05271911621094,99.47315216064453,-106.76126861572266
6,Pressed,1.0802514553070068,1.6621265411376953,1.3982226848602295,352.82452392578125,270.459228515625,206.02647399902344,0,-193.0188446044922,-50.689998626708984,-16.19830322265625,-1.6838419437408447,195.7015380859375,100.76099395751953,-105.7852783203125
2,Pressed,1.032999038696289,1.6785023212432861,1.3744032382965088,346.8394775390625,264.3725891113281,205.21681213378906,0,-193.8241424560547,-49.45936584472656,-25.27427101135254,-1.8773906230926514,196.69850158691406,101.48888397216797,-105.6511001586914
2,Pressed,1.0192097425460815,1.695752501487732,1.361936330795288,344.176025390625,262.2474670410156,205.80784606933594,0,-193.77574157714844,-48.15951919555664,-28.536359786987305,-1.991050124168396,196.6243133544922,101.74517059326172,-105.92766571044922
2,Pressed,1.0293338298797607,1.710382342338562,1.358769416809082,345.02423095703125,263.30792236328125,207.04046630859375,0,-193.66024780273438,-46.73764419555664,-25.595199584960938,-1.9803087711334229,195.1897735595703,102.01956176757812,-106.22180938720703
2,Pressed,1.052247166633606,1.722318410873413,1.3610173463821411,347.6312561035156,266.20965576171875,208.58160400390625,0,-193.50601196289062,-45.46504592895508,-20.754730224609375,-1.9128773212432861,194.449462890625,102.20142364501953,-106.5125503540039
2,Pressed,1.0705209970474243,1.735016942024231,1.3606985807418823,349.39447021484375,268.52899169921875,210.0512237548828,0,-193.35671997070312,-44.20329284667969,-15.998723030090332,-1.909818410873413,192.7798614501953,102.3419189453125,-106.79634857177734
2,Pressed,1.069277286529541,1.7490262985229492,1.35402250289917,348.4093933105469,268.120849609375,210.9951629638672,0,-193.23440551757812,-42.974403381347656,-14.407177925109863,-1.8997198343276978,190.33395385742188,102.43827056884766,-107.05302429199219
2,Pressed,1.0547016859054565,1.7643074989318848,1.3425506353378296,345.68902587890625,265.7004089355469,211.67481994628906,0,-193.1137237548828,-41.75386047363281,-16.64799690246582,-1.967512845993042,189.0164337158203,102.42642974853516,-107.32080841064453
2,Pressed,1.044075846672058,1.7796733379364014,1.3319766521453857,343.53472900390625,263.7105407714844,212.61561584472656,0,-192.99246215820312,-40.56175994873047,-18.168926239013672,-1.9887490272521973,187.74838256835938,102.35601043701172,-107.57530212402344
2,Pressed,1.0452793836593628,1.7929095029830933,1.3263136148452759,343.0028076171875,263.5010070800781,213.8048553466797,0,-192.84637451171875,-39.4007568359375,-17.574464797973633,-2.055943727493286,186.8206329345703,102.20042419433594,-107.84622192382812
2,Pressed,1.056868553161621,1.802590250968933,1.3261325359344482,343.8323669433594,264.9780578613281,215.0350799560547,0,-192.69520568847656,-38.44723129272461,-14.092915534973145,-2.046464204788208,185.1959686279297,102.03861999511719,-108.07111358642578
2,Pressed,1.0699076652526855,1.8147763013839722,1.3254039287567139,344.52001953125,266.59747314453125,216.5758819580078,0,-192.53256225585938,-37.331050872802734,-7.22658634185791,-1.8679391145706177,180.30177307128906,101.89999389648438,-108.3087387084961
2,Pressed,1.0770879983901978,1.8253470659255981,1.323314905166626,344.5726623535156,267.37860107421875,217.8106689453125,0,-192.3798065185547,-36.38326644897461,-2.616588830947876,-1.8288147449493408,176.5482635498047,101.68357849121094,-108.54486846923828
2,Pressed,1.0756030082702637,1.8391401767730713,1.3173041343688965,343.4489440917969,266.67041015625,219.16815185546875,0,-192.2061004638672,-35.282745361328125,0.7771146297454834,-1.7220207452774048,172.15283203125,101.38700103759766,-108.8123550415039
2,Pressed,1.0680099725723267,1.851622223854065,1.3098223209381104,341.6568298339844,265.00982666015625,220.24745178222656,0,-192.0449676513672,-34.32902145385742,4.622486591339111,-1.6348280906677246,166.07838439941406,101.1253662109375,-109.0967025756836
2,Pressed,1.0636383295059204,1.8656200170516968,1.302708387374878,340.3150634765625,263.6939697265625,221.7028045654297,0,-191.88104248046875,-33.320823669433594,7.655018329620361,-1.4415823221206665,161.49032592773438,100.7716064453125,-109.36591339111328
2,Pressed,1.0646699666976929,1.8752920627593994,1.2994394302368164,339.8119812011719,263.4427795410156,222.8749542236328,0,-191.71627807617188,-32.558467864990234,7.709875106811523,-1.5248446464538574,161.1565399169922,100.25838470458984,-109.58200073242188
1,Pressed,1.081514835357666,1.8832628726959229,1.2974075078964233,340.0172119140625,263.8370056152344,223.60592651367188,0,-189.8520965576172,-31.790685653686523,7.774691581726074,-1.3753222227096558,160.36798095703125,100.67737579345703,-108.76506805419922
1,Pressed,1.1037335395812988,1.8829994201660156,1.2987968921661377,340.7149963378906,264.9010925292969,223.2775421142578,0,-187.48558044433594,-31.522310256958008,7.80786657333374,-1.4137465953826904,159.75790405273438,101.52674102783203,-107.54764556884766
1,Pressed,1.128727674484253,1.8829526901245117,1.3001232147216797,341.6295166015625,266.2936096191406,223.04302978515625,0,-185.0052032470703,-31.255205154418945,8.564449310302734,-1.3741551637649536,158.78030395507812,102.38041687011719,-106.27063751220703
-1,Pressed,1.13988196849823,1.8809688091278076,1.3047659397125244,343.129638671875,268.7859802246094,223.17608642578125,0,-185.5299530029297,-31.30891227722168,11.760261535644531,-1.3853181600570679,158.91079711914062,102.20587921142578,-106.55299377441406
-1,Pressed,1.1328387260437012,1.8803787231445312,1.3088706731796265,344.0622253417969,270.3045654296875,223.8187255859375,0,-187.9878387451172,-31.557769775390625,14.906049728393555,-1.3177971839904785,159.5358123779297,101.33783721923828,-107.83354187011719
-1,Pressed,1.108418345451355,1.8803210258483887,1.3085376024246216,343.25372314453125,269.0320129394531,224.18455505371094,0,-190.46820068359375,-31.871585845947266,14.661564826965332,-1.3293843269348145,160.22738647460938,100.41414642333984,-109.1167984008789
-1,Pressed,1.0709290504455566,1.8805022239685059,1.3033950328826904,341.1190185546875,265.70880126953125,224.2669677734375,0,-192.98533630371094,-32.25472640991211,11.921989440917969,-1.373834252357483,160.93402099609375,99.42598724365234,-110.41079711914062
-1,Pressed,1.0263442993164062,1.8808214664459229,1.2935576438903809,338.2178039550781,261.335693359375,224.195068359375,0,-195.60108947753906,-32.736698150634766,7.87252140045166,-1.4436309337615967,161.68333435058594,98.3267593383789,-111.76085662841797
-1,Pressed,0.9979552030563354,1.8802130222320557,1.287656545639038,336.695556640625,259.1695251464844,224.2781524658203,0,-197.77249145507812,-33.16305160522461,6.232227802276611,-1.5087156295776367,162.34750366210938,97.34139251708984,-112.89885711669922
-1,Pressed,0.9820454120635986,1.8773542642593384,1.2896173000335693,336.86822509765625,259.5366516113281,224.7460174560547,0,-200.2119140625,-33.72172164916992,7.984719276428223,-1.4939966201782227,163.02626037597656,96.14753723144531,-114.19422149658203
-3,Pressed,0.9831995368003845,1.878548264503479,1.2858737707138062,337.82989501953125,261.06201171875,224.73768615722656,0,-201.5458221435547,-33.389244079589844,10.563443183898926,-1.347405195236206,163.2289276123047,96.70236206054688,-115.10604095458984
-3,Pressed,0.9888103008270264,1.8839877843856812,1.2718703746795654,338.56878662109375,262.5401916503906,224.13650512695312,0,-202.57064819335938,-32.1480712890625,12.325244903564453,-1.3929212093353271,163.56973266601562,98.54071044921875,-116.02803039550781
-3,Pressed,0.9857779741287231,1.889533281326294,1.2540347576141357,338.31988525390625,262.4957275390625,223.33387756347656,0,-203.57717895507812,-31.009721755981445,12.278839111328125,-1.373242735862732,163.80294799804688,100.29241943359375,-116.90214538574219
-3,Pressed,0.9754587411880493,1.8950705528259277,1.2317872047424316,337.328857421875,261.15936279296875,222.26620483398438,0,-204.67904663085938,-29.88894271850586,10.658390045166016,-1.3759275674819946,164.0699462890625,102.02134704589844,-117.80311584472656
-3,Pressed,0.9653302431106567,1.9003126621246338,1.2092657089233398,336.3880310058594,259.7459716796875,221.2299346923828,0,-205.84951782226562,-28.815643310546875,9.030272483825684,-1.359869360923767,164.34890747070312,103.68791961669922,-118.7131576538086
-3,Pressed,0.9591765403747559,1.9050301313400269,1.1891496181488037,335.88446044921875,258.977294921875,220.3697967529297,0,-207.0847625732422,-27.78087043762207,8.266715049743652,-1.332401990890503,164.64730834960938,105.27330780029297,-119.6258316040039
-3,Pressed,0.958607017993927,1.910024642944336,1.169426679611206,335.96246337890625,259.2879333496094,219.6106719970703,0,-208.6473388671875,-26.521207809448242,8.803109169006348,-1.3614311218261719,165.12518310546875,107.0780258178711,-120.72447967529297
-3,Pressed,0.9601578712463379,1.9139275550842285,1.1546406745910645,336.2457275390625,259.9893798828125,219.1369171142578,0,-210.0900421142578,-25.53961753845215,9.967462539672852,-1.2733824253082275,165.465576171875,108.56748962402344,-121.68423461914062
-3,Pressed,0.960914134979248,1.9181777238845825,1.1373041868209839,336.42022705078125,260.55450439453125,218.5979461669922,0,-211.81655883789062,-24.433691024780273,10.973910331726074,-1.244720220565796,165.96112060546875,110.15682983398438,-122.76850891113281
-3,Pressed,0.9582993388175964,1.922623872756958,1.115835428237915,336.264404296875,260.42218017578125,217.890380859375,0,-213.85923767089844,-23.252721786499023,11.22907829284668,-1.2469781637191772,166.58665466308594,111.81484985351562,-123.97066497802734
-3,Pressed,0.9514915943145752,1.9267077445983887,1.0910251140594482,335.7503662109375,259.32147216796875,217.0094451904297,0,-216.10772705078125,-22.127439498901367,10.460933685302734,-1.260705590248108,167.28562927246094,113.39340209960938,-125.196533203125
-3,Pressed,0.9440591931343079,1.9304053783416748,1.0648043155670166,335.2037048339844,257.94622802734375,216.08877563476562,0,-218.61575317382812,-21.038551330566406,9.47725772857666,-1.2746306657791138,168.11122131347656,114.93055725097656,-126.4735107421875
-3,Pressed,0.9388824701309204,1.9333808422088623,1.041866421699524,334.8797302246094,256.98492431640625,215.35533142089844,0,-221.1645965576172,-20.114009857177734,9.093505859375,-1.23258638381958,168.94154357910156,116.29278564453125,-127.68634796142578
-3,Pressed,0.9361934661865234,1.9359935522079468,1.0213053226470947,334.77789306640625,256.5690002441406,214.79193115234375,0,-223.92347717285156,-19.246257781982422,9.473060607910156,-1.1804332733154297,169.85433959960938,117.57669830322266,-128.91566467285156
-3,Pressed,0.9355614185333252,1.9385507106781006,1.000907063484192,334.84033203125,256.6354675292969,214.33053588867188,0,-227.20428466796875,-18.331485748291016,10.396109580993652,-1.1551225185394287,171.19107055664062,118.90546417236328,-130.28802490234375
-3,Pressed,0.9348917603492737,1.940845251083374,0.9800771474838257,334.88385009765625,256.6600341796875,213.90338134765625,0,-230.8780517578125,-17.4735107421875,11.363587379455566,-1.1273117065429688,172.7828369140625,120.18533325195312,-131.72482299804688
-3,Pressed,0.9330772757530212,1.9428715705871582,0.9561659097671509,334.82135009765625,256.2721862792969,213.38327026367188,0,-235.19564819335938,-16.630550384521484,11.943167686462402,-1.1260074377059937,174.81307983398438,121.47634887695312,-133.3069610595703
-3,Pressed,0.9291777610778809,1.9441553354263306,0.9318307042121887,334.61590576171875,255.185546875,212.78732299804688,0,-239.47149658203125,-16.004161834716797,11.93293285369873,-1.0774587392807007,176.69271850585938,122.56956481933594,-134.77755737304688
-3,Pressed,0.9244945645332336,1.9446715116500854,0.9026100039482117,334.5626525878906,253.67288208007812,212.1247100830078,0,-244.8699951171875,-15.436186790466309,5.529353618621826,-1.2848074436187744,185.46194458007812,123.53692626953125,-136.5105743408203
-3,Pressed,0.9208372831344604,1.9449658393859863,0.8750015497207642,334.374755859375,252.18795776367188,211.45382690429688,0,-250.24966430664062,-15.002362251281738,5.346338272094727,-1.2466357946395874,187.98561096191406,124.56120300292969,-138.2107391357422
-3,Pressed,0.9188448190689087,1.9450191259384155,0.8512730002403259,334.2980041503906,251.14297485351562,211.0027618408203,0,-255.4120330810547,-14.746055603027344,3.890711545944214,-1.2207911014556885,192.18270874023438,125.36936950683594,-139.82142639160156
-3,Pressed,0.9185003042221069,1.9448270797729492,0.8254738450050354,334.31842041015625,250.475830078125,210.66236877441406,0,-261.839599609375,-14.569384574890137,2.0778772830963135,-1.24635648727417,198.14991760253906,126.23654174804688,-141.8296661376953
-3,Pressed,0.9184298515319824,1.9444596767425537,0.8013659119606018,334.287353515625,249.77626037597656,210.4277801513672,0,-267.93359375,-14.588687896728516,-2.2013027667999268,-1.2807316780090332,206.27392578125,126.89822387695312,-143.82749938964844
-3,Pressed,0.9184452891349792,1.9436111450195312,0.77718186378479,334.15167236328125,248.91110229492188,210.0679168701172,0,-273.85382080078125,-14.71463680267334,-3.823085308074951,-1.2426701784133911,211.3052978515625,127.55457305908203,-145.81944274902344
-3,Pressed,0.9185335636138916,1.9430960416793823,0.7519583702087402,333.9076232910156,247.79356384277344,209.93429565429688,0,-279.5953063964844,-15.030078887939453,-19.92086410522461,-1.6702708005905151,230.11676025390625,127.76577758789062,-148.46585083007812
-3,Pressed,0.9189504384994507,1.944049596786499,0.7277505397796631,332.9841613769531,246.3959503173828,209.5953369140625,0,-284.4486389160156,-15.101906776428223,-29.466798782348633,-2.061978816986084,241.02951049804688,127.76732635498047,-151.19061279296875
-3,Pressed,0.9182243347167969,1.9418179988861084,0.7023463845252991,332.63043212890625,245.20281982421875,209.11659240722656,0,-289.5991516113281,-15.241479873657227,-24.144664764404297,-2.7167370319366455,237.62892150878906,127.76622772216797,-153.67430114746094
-3,Pressed,0.9178495407104492,1.9375,0.6754050850868225,332.6195373535156,244.12942504882812,208.5885467529297,0,-295.20318603515625,-15.57310962677002,-15.863144874572754,-3.5007975101470947,231.74285888671875,127.76622772216797,-156.19631958007812
-3,Pressed,0.9185930490493774,1.933159589767456,0.6503815650939941,332.6009826660156,242.91806030273438,207.9694366455078,0,-300.05517578125,-15.964468955993652,-9.884760856628418,-4.096505165100098,227.4215087890625,127.75542449951172,-158.3889617919922
-3,Pressed,0.9205577373504639,1.928234577178955,0.6236725449562073,332.5091247558594,241.8770751953125,207.29013061523438,0,-305.1414489746094,-16.573469161987305,-4.991030216217041,-4.5602827072143555,224.29808044433594,127.76290893554688,-160.89930725097656
-3,Pressed,0.9230067729949951,1.9238381385803223,0.601769208908081,332.4010314941406,241.25881958007812,206.75242614746094,0,-309.280029296875,-17.19880485534668,-1.1637736558914185,-4.879551887512207,222.01156616210938,127.75647735595703,-163.1045684814453
-3,Pressed,0.9259442687034607,1.9188649654388428,0.5788506269454956,332.23773193359375,240.76246643066406,206.15379333496094,0,-313.2689514160156,-18.022546768188477,1.6323047876358032,-5.046845436096191,220.5261688232422,127.7630615234375,-165.52508544921875
-3,Pressed,0.9289588928222656,1.9141703844070435,0.558316707611084,332.09912109375,240.17263793945312,205.55453491210938,0,-316.3390808105469,-18.811511993408203,2.4707210063934326,-5.1312456130981445,220.2093963623047,127.74755859375,-167.65965270996094
3,Pressed,0.929742157459259,1.9132022857666016,0.5531877279281616,332.3289489746094,238.50009155273438,204.89453125,0,-315.8213806152344,-18.681371688842773,0.6742774844169617,-5.080020904541016,219.75149536132812,127.74986267089844,-167.187255859375
3,Pressed,0.9277665615081787,1.916046380996704,0.5645397901535034,332.65911865234375,237.16896057128906,204.79701232910156,0,-312.66009521484375,-17.896690368652344,-2.8491053581237793,-5.085007667541504,220.37034606933594,127.74465942382812,-165.0022735595703
3,Pressed,0.9239459037780762,1.9208415746688843,0.586629331111908,332.7039794921875,237.9777374267578,205.4901580810547,0,-309.1007385253906,-17.197744369506836,-4.411690711975098,-4.889115333557129,221.22854614257812,127.73754119873047,-162.84213256835938
3,Pressed,0.9200125932693481,1.9275685548782349,0.6210419535636902,332.67083740234375,240.5626678466797,206.84988403320312,0,-304.33392333984375,-16.463918685913086,-6.515946865081787,-4.535972595214844,223.8257598876953,127.74736785888672,-160.369384765625
3,Pressed,0.9182999134063721,1.9337501525878906,0.6563559174537659,332.687744140625,243.51980590820312,208.19163513183594,0,-299.35009765625,-15.887378692626953,-8.720154762268066,-4.051037311553955,226.58578491210938,127.75291442871094,-157.9587860107422
3,Pressed,0.9179250001907349,1.9380042552947998,0.6832537651062012,332.7670593261719,245.3001708984375,208.9839630126953,0,-294.6396789550781,-15.54379940032959,-13.203071594238281,-3.479044198989868,230.17189025878906,127.75922393798828,-155.8262176513672
3,Pressed,0.9174888730049133,1.941164255142212,0.7051184177398682,332.8727722167969,245.65542602539062,209.2801055908203,0,-289.3514404296875,-15.33011531829834,-22.65594482421875,-2.771681070327759,236.560302734375,127.75741577148438,-153.50462341308594
3,Pressed,0.9173139929771423,1.94334876537323,0.7238515615463257,332.9215087890625,245.3590087890625,209.19590759277344,0,-284.2232971191406,-15.163764953613281,-30.718582153320312,-1.9247090816497803,240.88497924804688,127.7581558227539,-151.0440673828125
3,Pressed,0.916795015335083,1.9449408054351807,0.7453456521034241,333.0672912597656,245.3325958251953,209.29173278808594,0,-278.4757385253906,-14.889203071594238,-31.574684143066406,-1.4105136394500732,237.8956298828125,127.4968490600586,-148.3849334716797
3,Pressed,0.9152146577835083,1.9450368881225586,0.7707668542861938,333.5663146972656,246.4036407470703,209.7823486328125,0,-272.5660095214844,-14.731951713562012,-23.566946029663086,-1.4072097539901733,227.1006317138672,126.97200012207031,-145.91392517089844
3,Pressed,0.9164783954620361,1.9465630054473877,0.7995887994766235,333.80828857421875,248.20904541015625,210.5835418701172,0,-266.5338439941406,-14.632649421691895,-22.98299217224121,-1.5148974657058716,224.18780517578125,126.20657348632812,-143.9278564453125
3,Pressed,0.9186456799507141,1.947493076324463,0.826958179473877,334.0702209472656,249.96893310546875,211.3060760498047,0,-260.868896484375,-14.664139747619629,-22.15243911743164,-1.6048500537872314,221.16815185546875,125.43144226074219,-142.11065673828125
3,Pressed,0.9206129908561707,1.9477806091308594,0.8536452054977417,334.2733154296875,251.30259704589844,211.875732421875,0,-255.01358032226562,-14.823315620422363,-20.334671020507812,-1.645909070968628,216.49794006347656,124.56781768798828,-140.20233154296875
3,Pressed,0.9214215278625488,1.9465378522872925,0.880766749382019,334.5276794433594,252.2000732421875,212.2373046875,0,-248.8443145751953,-15.216203689575195,-17.492578506469727,-1.7270398139953613,210.04026794433594,123.5802001953125,-138.12574768066406
3,Pressed,0.9223676919937134,1.9456360340118408,0.902056097984314,334.6445007324219,252.69967651367188,212.5934295654297,0,-244.0645751953125,-15.626178741455078,-17.92728042602539,-1.8346378803253174,207.4891357421875,122.64185333251953,-136.55160522460938
3,Pressed,0.9229710102081299,1.9443793296813965,0.9243768453598022,334.67218017578125,253.01055908203125,212.96142578125,0,-239.2084503173828,-16.197586059570312,-18.4158935546875,-1.9008550643920898,204.760009765625,121.54887390136719,-134.89903259277344
3,Pressed,0.9243873357772827,1.9425485134124756,0.9488087892532349,334.7283935546875,253.51869201660156,213.39190673828125,0,-234.48336791992188,-16.92063331604004,-17.813030242919922,-1.9395713806152344,201.3089141845703,120.35295104980469,-133.19627380371094
3,Pressed,0.9277935028076172,1.9405455589294434,0.9727926254272461,334.888427734375,254.56082153320312,213.88693237304688,0,-230.69540405273438,-17.631986618041992,-14.31180477142334,-1.8993432521820068,196.28631591796875,119.30045318603516,-131.721923828125
3,Pressed,0.932227373123169,1.9376667737960815,0.9985472559928894,335.1252136230469,255.77520751953125,214.382568359375,0,-227.04884338378906,-18.46330451965332,-8.969342231750488,-1.8591700792312622,189.74542236328125,118.18830871582031,-130.2047576904297
1,Pressed,0.9492970108985901,1.9383280277252197,1.0136104822158813,335.63739013671875,257.1561279296875,214.61236572265625,0,-223.3699951171875,-18.278812408447266,-8.471412658691406,-1.7353891134262085,188.07254028320312,118.570556640625,-128.72015380859375
1,Pressed,0.9731735587120056,1.9409222602844238,1.0178215503692627,336.255615234375,258.4097900390625,214.4213104248047,0,-219.6629638671875,-17.21843910217285,-8.748689651489258,-1.7982048988342285,186.79537963867188,120.03965759277344,-127.31558990478516
-1,Pressed,0.9742920398712158,1.9402451515197754,1.0233044624328613,336.66546630859375,260.01202392578125,214.83230590820312,0,-220.6904296875,-17.417430877685547,-6.228280544281006,-1.8676093816757202,186.90631103515625,119.64231872558594,-127.69418334960938
-1,Pressed,0.9572888612747192,1.9378396272659302,1.0258617401123047,336.5169982910156,260.3350830078125,215.4322052001953,0,-224.06246948242188,-18.469768524169922,-3.9829471111297607,-1.7761393785476685,187.7930145263672,118.1858139038086,-129.00477600097656
-1,Pressed,0.9335705041885376,1.9349957704544067,1.0205481052398682,335.7969970703125,258.64483642578125,215.5195770263672,0,-226.96054077148438,-19.46125030517578,-4.511005401611328,-1.8162239789962769,188.7366943359375,116.7509765625,-130.21287536621094
-1,Pressed,0.9025408029556274,1.9310581684112549,1.010514259338379,334.59326171875,255.87022399902344,215.3499755859375,0,-230.0068359375,-20.74469757080078,-6.178338050842285,-1.7703670263290405,189.59951782226562,115.01750183105469,-131.58102416992188
-1,Pressed,0.8729554414749146,1.92690908908844,0.9979466795921326,333.25860595703125,252.9404296875,214.95074462890625,0,-232.53131103515625,-21.926443099975586,-8.466293334960938,-1.8145838975906372,190.349609375,113.35983276367188,-132.80458068847656
-1,Pressed,0.8481782674789429,1.9224233627319336,0.9914197325706482,332.31207275390625,251.4818878173828,214.95263671875,0,-234.86758422851562,-23.20075035095215,-9.05458927154541,-1.7947252988815308,190.96189880371094,111.59037780761719,-134.0321807861328
-3,Pressed,0.8436973094940186,1.9224352836608887,0.9807411432266235,332.43194580078125,251.94332885742188,214.93838500976562,0,-237.4929962158203,-23.14912986755371,-7.498786449432373,-1.7237699031829834,191.77883911132812,111.8638687133789,-135.26817321777344
-3,Pressed,0.8472955226898193,1.9245960712432861,0.9667403697967529,332.9271545410156,253.16790771484375,214.9604949951172,0,-240.693603515625,-22.515214920043945,-4.88746452331543,-1.6941325664520264,192.8236846923828,112.99107360839844,-136.67384338378906
-3,Pressed,0.848391056060791,1.9266581535339355,0.9481610059738159,333.0719299316406,253.58721923828125,214.7383575439453,0,-244.14068603515625,-21.925939559936523,-3.16210675239563,-1.631780743598938,193.93942260742188,114.1207046508789,-138.13722229003906
-3,Pressed,0.8452075123786926,1.927715539932251,0.9249057769775391,332.8058776855469,252.70542907714844,214.0642852783203,0,-247.44761657714844,-21.485214233398438,-3.1059517860412598,-1.5607203245162964,195.01116943359375,115.09175109863281,-139.5032196044922
-3,Pressed,0.8403712511062622,1.9281399250030518,0.8953746557235718,332.373779296875,251.03811645507812,213.03369140625,0,-251.27798461914062,-21.05451774597168,-3.871938705444336,-1.529907464981079,196.2812957763672,116.10952758789062,-141.05271911621094
-3,Pressed,0.8359534740447998,1.927993893623352,0.8623062968254089,331.9420166015625,249.08895874023438,211.84959411621094,0,-255.6149139404297,-20.676151275634766,-4.817327976226807,-1.514014482498169,197.72691345214844,117.14836120605469,-142.78465270996094
-3,Pressed,0.8338783979415894,1.9275927543640137,0.8341187238693237,331.7000732421875,247.75149536132812,210.95726013183594,0,-259.76837158203125,-20.437591552734375,-5.130842685699463,-1.4700531959533691,199.1970977783203,118.0400390625,-144.43849182128906
-3,Pressed,0.8346202373504639,1.9272384643554688,0.8104655742645264,331.7083435058594,247.42910766601562,210.4954833984375,0,-264.2239074707031,-20.28177261352539,-4.185047149658203,-1.4207500219345093,200.90380859375,118.91184997558594,-146.2272186279297
-3,Pressed,0.8361574411392212,1.9269667863845825,0.7914450764656067,331.7300720214844,247.49978637695312,210.2805633544922,0,-268.2540588378906,-20.236299514770508,-2.7967262268066406,-1.336915373802185,202.37130737304688,119.62942504882812,-147.869140625
-3,Pressed,0.8379045724868774,1.926226019859314,0.7703593969345093,331.725341796875,247.52308654785156,210.02801513671875,0,-272.6873474121094,-20.28040885925293,-1.3900505304336548,-1.2701871395111084,204.0,120.35693359375,-149.71397399902344
-3,Pressed,0.8385524153709412,1.9247280359268188,0.7469582557678223,331.58538818359375,246.83334350585938,209.46734619140625,0,-276.7739562988281,-20.421850204467773,-1.2297269105911255,-1.206411361694336,205.6667938232422,120.95344543457031,-151.4703826904297
-3,Pressed,0.8388494849205017,1.9226720333099365,0.7221158742904663,331.4305114746094,245.65432739257812,208.79298400878906,0,-280.5782470703125,-20.672388076782227,-6.25225305557251,-1.2800532579421997,211.6792755126953,121.32096099853516,-153.2513885498047
-3,Pressed,0.8401395082473755,1.9201927185058594,0.6932920217514038,331.15032958984375,244.28517150878906,207.9140625,0,-284.89453125,-21.022216796875,-10.268589973449707,-1.236153483390808,216.63905334472656,121.74312591552734,-155.33729553222656
-3,Pressed,0.8419679999351501,1.9169670343399048,0.667625904083252,331.00994873046875,243.27455139160156,207.07168579101562,0,-288.8051452636719,-21.429996490478516,-10.71739673614502,-1.183382511138916,218.09014892578125,122.16077423095703,-157.2598114013672
-3,Pressed,0.8442589044570923,1.9138191938400269,0.6450226306915283,330.88812255859375,242.56314086914062,206.37213134765625,0,-292.3236999511719,-21.870365142822266,-10.80458927154541,-1.1324717998504639,219.2344207763672,122.48910522460938,-159.09059143066406
-3,Pressed,0.8472304940223694,1.9102799892425537,0.6225554943084717,330.77764892578125,242.31854248046875,205.88107299804688,0,-296.16204833984375,-22.47154426574707,-11.240216255187988,-1.0898852348327637,221.421875,122.78162384033203,-161.2432403564453
-3,Pressed,0.8502671718597412,1.9071366786956787,0.6019216775894165,330.5750732421875,241.96841430664062,205.38958740234375,0,-299.4461669921875,-23.04452896118164,-13.444684028625488,-1.0813955068588257,224.8301239013672,122.91594696044922,-163.25238037109375
-3,Pressed,0.8535589575767517,1.902987003326416,0.5794944763183594,330.3883056640625,241.4969482421875,204.67855834960938,0,-302.6980895996094,-23.714033126831055,-13.905110359191895,-1.0065792798995972,226.12721252441406,123.04962921142578,-165.3258819580078
-3,Pressed,0.8569509387016296,1.8985453844070435,0.5577816963195801,330.2392883300781,240.9256591796875,203.9390106201172,0,-305.5981750488281,-24.38609504699707,-15.124197006225586,-1.0078283548355103,227.7808074951172,123.07660675048828,-167.31065368652344
-3,Pressed,0.860850989818573,1.8935178518295288,0.5348930954933167,330.0818176269531,240.22128295898438,202.9994354248047,0,-308.375244140625,-25.111682891845703,-16.049562454223633,-0.9614075422286987,228.71542358398438,123.04969787597656,-169.3272705078125
-3,Pressed,0.8648135662078857,1.8885631561279297,0.5136141777038574,329.91107177734375,239.69882202148438,202.18988037109375,0,-310.9377136230469,-25.856700897216797,-18.139089584350586,-0.9849667549133301,230.872314453125,122.9131088256836,-171.36102294921875
-3,Pressed,0.8687648177146912,1.883873701095581,0.4940633177757263,329.70697021484375,239.28152465820312,201.39761352539062,0,-313.2085266113281,-26.569576263427734,-19.759174346923828,-0.9800907373428345,232.46835327148438,122.72110748291016,-173.2745361328125
-3,Pressed,0.8729915618896484,1.878580927848816,0.47338828444480896,329.4283447265625,239.06210327148438,200.60401916503906,0,-315.6171569824219,-27.428077697753906,-22.006977081298828,-0.9578320980072021,234.842041015625,122.426513671875,-175.46697998046875
-3,Pressed,0.8771376609802246,1.873433232307434,0.4542374610900879,329.16290283203125,238.85214233398438,199.80242919921875,0,-317.71551513671875,-28.21771812438965,-22.722585678100586,-0.9279250502586365,235.5183868408203,122.09066009521484,-177.45277404785156
-2,Pressed,0.8794739842414856,1.8660292625427246,0.4429096281528473,329.8634338378906,238.8368377685547,198.51548767089844,0,-318.202392578125,-28.90121841430664,-23.907333374023438,-0.8147770166397095,235.32455444335938,122.42164611816406,-178.58172607421875
-2,Pressed,0.8789876699447632,1.8548181056976318,0.4363175332546234,331.4869384765625,239.25152587890625,197.32464599609375,0,-317.77532958984375,-29.79871940612793,-25.1217098236084,-0.8683475255966187,234.82313537597656,123.19475555419922,-179.4336395263672
-2,Pressed,0.8767433166503906,1.8457045555114746,0.4342844486236572,332.78973388671875,240.2445068359375,196.76095581054688,0,-317.3475341796875,-30.63484764099121,-25.269336700439453,-0.8557665348052979,234.35597229003906,123.86839294433594,-180.20675659179688
-2,Pressed,0.8732693195343018,1.8377420902252197,0.4349151849746704,333.8748474121094,241.6382293701172,196.6182403564453,0,-316.9377746582031,-31.45551872253418,-24.691652297973633,-0.8056913614273071,233.88816833496094,124.46912384033203,-180.97164916992188
-2,Pressed,0.8688645362854004,1.8280539512634277,0.435072124004364,335.1377258300781,243.15032958984375,196.56881713867188,0,-316.4895324707031,-32.47357940673828,-24.02923011779785,-0.784753143787384,233.35423278808594,125.080078125,-181.85186767578125
-2,Pressed,0.8655104637145996,1.8182743787765503,0.43255263566970825,336.3779602050781,244.12258911132812,196.23605346679688,0,-316.1053771972656,-33.45705032348633,-24.056367874145508,-0.768973708152771,232.87997436523438,125.56689453125,-182.68894958496094
-2,Pressed,0.8630073666572571,1.807465672492981,0.427161306142807,337.7421569824219,244.6355743408203,195.54258728027344,0,-315.7422790527344,-34.49092102050781,-24.79912567138672,-0.7519482374191284,232.4093475341797,125.98736572265625,-183.5514373779297
-2,Pressed,0.8608244061470032,1.7957241535186768,0.4200856685638428,339.2029724121094,244.91497802734375,194.64877319335938,0,-315.3905029296875,-35.59925842285156,-25.928630828857422,-0.7318288683891296,231.92677307128906,126.34727478027344,-184.45887756347656
-2,Pressed,0.85794997215271,1.7844020128250122,0.4141979217529297,340.53216552734375,245.3468017578125,194.03221130371094,0,-315.0794982910156,-36.7119140625,-26.690597534179688,-0.728200376033783,231.48741149902344,126.6139907836914,-185.3438262939453
-2,Pressed,0.8537040948867798,1.7728126049041748,0.4099217653274536,341.7727966308594,246.13803100585938,193.75733947753906,0,-314.7687072753906,-37.91578674316406,-26.89421272277832,-0.7110506892204285,231.02024841308594,126.8255615234375,-186.28257751464844
-2,Pressed,0.8489665985107422,1.7624248266220093,0.4071592688560486,342.76171875,247.09246826171875,193.74000549316406,0,-314.5018005371094,-39.042640686035156,-26.6959285736084,-0.6665558815002441,230.58604431152344,126.95354461669922,-187.1668701171875
-2,Pressed,0.8430497050285339,1.7492103576660156,0.4034397602081299,343.96270751953125,248.1429443359375,193.80218505859375,0,-314.20904541015625,-40.463111877441406,-26.491308212280273,-0.6414172053337097,230.0955047607422,127.03218841552734,-188.20285034179688
-2,Pressed,0.8381195664405823,1.736196517944336,0.39832088351249695,345.1181640625,248.85882568359375,193.63560485839844,0,-313.9664611816406,-41.81727981567383,-26.719097137451172,-0.6151280403137207,229.65721130371094,127.01744842529297,-189.18946838378906
1,Pressed,0.8470945954322815,1.7342479228973389,0.39265742897987366,345.8726806640625,248.7468719482422,193.51731872558594,0,-314.5705261230469,-41.396697998046875,-25.92725944519043,-1.8993812799453735,228.08229064941406,127.38166046142578,-190.5795135498047
1,Pressed,0.8761399388313293,1.7397456169128418,0.3858410120010376,346.7676696777344,248.03890991210938,195.13864135742188,0,-318.1021728515625,-38.434017181396484,-6.726572513580322,-6.467648506164551,210.8408660888672,127.71060180664062,-192.3116912841797
1,Pressed,0.8941972255706787,1.7436413764953613,0.3850722014904022,347.1197509765625,248.27392578125,196.2445526123047,0,-321.409912109375,-36.555686950683594,5.9416093826293945,-9.349211692810059,201.15821838378906,127.72511291503906,-192.89988708496094
1,Pressed,0.9132727384567261,1.751495122909546,0.39149749279022217,346.7400207519531,249.76007080078125,198.18798828125,0,-325.7760314941406,-34.36069107055664,16.99787139892578,-12.820273399353027,195.57980346679688,127.72355651855469,-193.69447326660156
1,Pressed,0.9285581707954407,1.7597439289093018,0.4017581343650818,345.90460205078125,251.97076416015625,200.0179443359375,0,-330.17340087890625,-32.60242462158203,26.998807907104492,-15.853225708007812,191.89369201660156,127.7269287109375,-194.331787109375
1,Pressed,0.9493035674095154,1.7672027349472046,0.4101390242576599,345.18988037109375,253.84024047851562,201.395751953125,0,-335.759521484375,-30.82539176940918,36.234840393066406,-19.378887176513672,189.23873901367188,127.73078155517578,-195.17613220214844
1,Pressed,0.97249436378479,1.7711303234100342,0.41240620613098145,344.956298828125,254.4347686767578,202.0745086669922,0,-341.5035095214844,-29.409706115722656,42.67338180541992,-22.633283615112305,187.82452392578125,127.729248046875,-196.12762451171875
1,Pressed,0.9967883825302124,1.7735093832015991,0.4136148691177368,344.7700500488281,254.72396850585938,202.6593475341797,0,-347.83685302734375,-28.3243465423584,49.127601623535156,-25.819211959838867,186.5874481201172,127.72761535644531,-197.06622314453125
1,Pressed,1.0179083347320557,1.7759928703308105,0.4173402488231659,344.3094482421875,255.47021484375,203.13580322265625,0,-353.88690185546875,-27.52448272705078,55.468048095703125,-28.67166519165039,185.6573486328125,127.72731018066406,-198.05044555664062
1,Pressed,1.0390658378601074,1.7782678604125977,0.42213818430900574,343.7142028808594,256.3646545410156,203.4271240234375,0,-360.1446228027344,-26.81720733642578,61.4939079284668,-31.504018783569336,185.1233673095703,127.72654724121094,-199.31552124023438
1,Pressed,1.0698679685592651,1.777565836906433,0.42435455322265625,343.2864990234375,256.5322265625,203.78298950195312,0,-369.06036376953125,-26.56521987915039,69.36468505859375,-35.17519760131836,184.07615661621094,127.73026275634766,-200.82540893554688
1,Pressed,1.088879108428955,1.777508020401001,0.4278673529624939,342.7991943359375,256.9805908203125,203.7955780029297,0,-374.748291015625,-26.392967224121094,74.05435943603516,-37.48749542236328,183.75144958496094,127.72844696044922,-202.16415405273438
1,Pressed,1.1134417057037354,1.775805115699768,0.43137261271476746,342.268798828125,257.2667236328125,203.78073120117188,0,-381.9697265625,-26.547975540161133,79.83454132080078,-40.33503341674805,183.1538848876953,127.72900390625,-203.84971618652344
3,Pressed,1.1241228580474854,1.778003215789795,0.4421050250530243,342.25238037109375,257.2059020996094,203.96197509765625,0,-386.4931640625,-26.49422836303711,85.16828155517578,-42.339637756347656,182.79212951660156,127.72696685791016,-202.80288696289062
3,Pressed,1.1230005025863647,1.7885348796844482,0.4742407202720642,342.5810852050781,258.3558349609375,203.97250366210938,0,-390.7664794921875,-25.97637176513672,95.21586608886719,-44.84263610839844,182.33409118652344,127.73030090332031,-197.75538635253906
3,Pressed,1.1244784593582153,1.7929491996765137,0.4921909272670746,342.7417297363281,258.45440673828125,203.98983764648438,0,-394.34527587890625,-24.774730682373047,98.4760513305664,-46.737762451171875,184.0172882080078,127.35184478759766,-196.5884552001953
3,Pressed,1.1243102550506592,1.7961434125900269,0.5199558734893799,342.67974853515625,258.8511657714844,203.82763671875,0,-401.37860107421875,-22.532499313354492,103.3166275024414,-50.514503479003906,187.3795166015625,125.95049285888672,-196.4427947998047
3,Pressed,1.123010277748108,1.7972679138183594,0.5491145849227905,342.6014404296875,259.2334289550781,203.6063232421875,0,-410.19097900390625,-20.49974250793457,110.02467346191406,-54.554443359375,190.6336669921875,124.39688110351562,-196.51205444335938
3,Pressed,1.1221842765808105,1.7977110147476196,0.5733902454376221,342.5823669433594,259.3702392578125,203.5289764404297,0,-417.81768798828125,-19.754465103149414,117.52017974853516,-57.64984893798828,192.51992797851562,123.1957015991211,-195.44102478027344
2,Pressed,1.1205849647521973,1.8098716735839844,0.5834012627601624,342.69989013671875,259.5926208496094,203.46038818359375,0,-417.54949951171875,-18.461585998535156,117.62010955810547,-54.98297119140625,194.0919952392578,125.10971069335938,-194.00318908691406
2,Pressed,1.1189075708389282,1.8319365978240967,0.5871529579162598,342.5376892089844,259.7368469238281,203.02268981933594,0,-401.98046875,-23.576984405517578,124.84004211425781,-48.16408157348633,183.94256591796875,127.53952026367188,-178.29417419433594
2,Pressed,1.115034818649292,1.8429362773895264,0.5904507637023926,341.30316162109375,258.931640625,203.76199340820312,0,-398.0850524902344,-24.75123405456543,127.81558227539062,-45.757652282714844,181.33111572265625,127.72174072265625,-173.29074096679688
3,Pressed,1.1141612529754639,1.8496642112731934,0.602208137512207,341.10430908203125,258.4620666503906,204.0608673095703,0,-397.7774963378906,-24.591035842895508,130.67559814453125,-45.11119842529297,181.03744506835938,127.74068450927734,-170.01548767089844
3,Pressed,1.1151875257492065,1.8559575080871582,0.6283257603645325,341.5597229003906,259.0575866699219,203.8646240234375,0,-397.99139404296875,-24.105499267578125,136.3555145263672,-45.40160369873047,180.8722686767578,127.74180603027344,-164.9604949951172
3,Pressed,1.1165075302124023,1.861797571182251,0.653155505657196,342.01055908203125,259.4193420410156,203.63714599609375,0,-398.0184631347656,-23.404815673828125,141.4033966064453,-45.38394546508789,180.76724243164062,127.74296569824219,-160.12060546875
-3,Pressed,1.1161150932312012,1.860611915588379,0.649066150188446,341.8004455566406,259.87689208984375,203.5438995361328,0,-397.7737121582031,-23.594663619995117,140.61412048339844,-45.4437141418457,180.6580047607422,127.742431640625,-161.25390625
-3,Pressed,1.1148221492767334,1.8553853034973145,0.6267215609550476,341.41961669921875,259.4407958984375,203.740478515625,0,-397.8262939453125,-24.149295806884766,135.98878479003906,-45.40739440917969,180.80836486816406,127.742431640625,-165.61280822753906
-3,Pressed,1.113478422164917,1.849391222000122,0.601830780506134,340.94915771484375,259.00860595703125,203.8770294189453,0,-397.52142333984375,-24.569740295410156,130.46878051757812,-45.084259033203125,180.97267150878906,127.74144744873047,-170.57212829589844
-3,Pressed,1.1122480630874634,1.8438210487365723,0.5794970989227295,340.4937744140625,258.71636962890625,203.90789794921875,0,-396.82171630859375,-24.79090690612793,125.11842346191406,-44.53993606567383,181.14305114746094,127.74004364013672,-175.1137237548828
-3,Pressed,1.1113168001174927,1.838040828704834,0.5568560361862183,340.0638732910156,258.29547119140625,203.90414428710938,0,-395.77239990234375,-24.910791397094727,119.35688781738281,-43.763912200927734,181.3714141845703,127.73873138427734,-179.58596801757812
-3,Pressed,1.1106833219528198,1.8316394090652466,0.5326350927352905,339.611328125,257.82537841796875,203.81784057617188,0,-394.1984558105469,-24.995882034301758,112.85951232910156,-42.70335388183594,181.63961791992188,127.73713684082031,-184.2552490234375
1,Pressed,1.124492883682251,1.825895071029663,0.5223979353904724,339.3128662109375,257.1419982910156,203.9600830078125,0,-397.3726501464844,-25.98089027404785,113.07660675048828,-43.86848831176758,181.64669799804688,127.73493194580078,-186.44918823242188
1,Pressed,1.1438429355621338,1.821986436843872,0.5250558853149414,338.81707763671875,257.312255859375,203.84910583496094,0,-402.7660217285156,-27.41163444519043,117.64323425292969,-46.28564453125,181.37159729003906,127.73616027832031,-187.23834228515625
1,Pressed,1.164138674736023,1.8170626163482666,0.5276778340339661,338.2860107421875,257.30853271484375,203.7412567138672,0,-408.0413513183594,-29.025909423828125,121.67626953125,-48.764766693115234,181.17941284179688,127.73712158203125,-188.18637084960938
-1,Pressed,1.1608792543411255,1.8181660175323486,0.5276373028755188,338.3487548828125,257.3323059082031,203.728759765625,0,-407.28387451171875,-28.73160171508789,121.15865325927734,-48.359928131103516,181.22637939453125,127.73834991455078,-188.00440979003906
-1,Pressed,1.1405158042907715,1.8231251239776611,0.5255489349365234,338.8209228515625,257.4813537597656,203.78086853027344,0,-401.9671936035156,-27.134586334228516,117.15898895263672,-45.89279556274414,181.41761779785156,127.73705291748047,-187.1212615966797
-1,Pressed,1.1211110353469849,1.8268736600875854,0.5230039954185486,339.2729187011719,257.43890380859375,203.85430908203125,0,-396.47344970703125,-25.74513816833496,112.5428695678711,-43.4820671081543,181.66293334960938,127.73700714111328,-186.42884826660156
-1,Pressed,1.0962693691253662,1.830613374710083,0.5198231935501099,339.7774658203125,257.3294982910156,203.90089416503906,0,-388.8491516113281,-24.21967315673828,105.75289154052734,-40.35138702392578,182.05450439453125,127.73494720458984,-185.71189880371094
-1,Pressed,1.0777182579040527,1.8322830200195312,0.516823947429657,340.17364501953125,257.08319091796875,203.9549560546875,0,-382.6539611816406,-23.32244873046875,99.8465576171875,-37.97849655151367,182.43846130371094,127.7355728149414,-185.2696075439453
-1,Pressed,1.053731918334961,1.8336374759674072,0.5134227275848389,340.60296630859375,256.77728271484375,203.93505859375,0,-374.22735595703125,-22.525861740112305,91.80702209472656,-34.89110565185547,182.8960418701172,127.73397827148438,-184.70233154296875
-1,Pressed,1.0308259725570679,1.8334460258483887,0.5092384815216064,341.06402587890625,256.2037353515625,203.87550354003906,0,-365.7532653808594,-22.06125831604004,82.8282470703125,-31.893468856811523,183.7531280517578,127.73304748535156,-184.3804168701172
-1,Pressed,1.0083434581756592,1.8322935104370117,0.5053606629371643,341.47406005859375,255.60308837890625,203.69630432128906,0,-357.33233642578125,-22.01348304748535,73.7455825805664,-28.93423843383789,184.67022705078125,127.732421875,-184.06727600097656
-1,Pressed,0.9832745790481567,1.8298972845077515,0.5010166168212891,341.89361572265625,254.7880859375,203.31561279296875,0,-348.1007080078125,-22.428041458129883,63.476932525634766,-25.570262908935547,185.79359436035156,127.73043823242188,-183.68824768066406
-1,Pressed,0.9625576138496399,1.8268325328826904,0.49697285890579224,342.2249755859375,253.95083618164062,202.86227416992188,0,-340.731201171875,-23.136375427246094,54.63800811767578,-22.713863372802734,187.0772247314453,127.73033142089844,-183.43121337890625
-1,Pressed,0.9406466484069824,1.8233838081359863,0.494131863117218,342.39666748046875,253.25750732421875,202.2792510986328,0,-333.5003967285156,-24.206592559814453,45.701751708984375,-19.641191482543945,188.73143005371094,127.7295150756836,-183.1698760986328
-1,Pressed,0.9186402559280396,1.8186883926391602,0.4904460906982422,342.5528259277344,252.33078002929688,201.49179077148438,0,-326.7496032714844,-25.658885955810547,36.2566032409668,-16.416826248168945,191.0441436767578,127.72874450683594,-182.91368103027344
-1,Pressed,0.8968762755393982,1.8126846551895142,0.48570945858955383,342.6794128417969,251.16510009765625,200.4586181640625,0,-320.59002685546875,-27.487150192260742,25.582548141479492,-13.060565948486328,194.78440856933594,127.72840118408203,-182.7013702392578
-1,Pressed,0.8773185610771179,1.805389165878296,0.4791843593120575,342.8446960449219,249.68760681152344,199.14981079101562,0,-315.5536804199219,-29.5938720703125,13.595200538635254,-9.833100318908691,200.43865966796875,127.728759765625,-182.45468139648438
-1,Pressed,0.8614602088928223,1.798360824584961,0.47281670570373535,342.96295166015625,248.2088623046875,197.89288330078125,0,-311.8363342285156,-31.70676040649414,-1.1425224542617798,-7.094622611999512,210.07078552246094,127.72756958007812,-182.21437072753906
-1,Pressed,0.8411206007003784,1.7903623580932617,0.4691217541694641,342.71728515625,247.2495574951172,196.078857421875,0,-308.7400207519531,-34.726226806640625,-18.3642635345459,-2.9536919593811035,223.41305541992188,127.76608276367188,-181.03819274902344
3,Pressed,0.8330603837966919,1.793584942817688,0.47842976450920105,342.4418029785156,245.95608520507812,193.75628662109375,0,-305.76702880859375,-35.01227569580078,-38.31507110595703,-1.3724143505096436,239.30076599121094,127.74080657958984,-179.15370178222656
-3,Pressed,0.8329172730445862,1.7930731773376465,0.4777587056159973,342.18023681640625,247.11582946777344,194.7480926513672,0,-306.7632141113281,-35.31854248046875,-36.607913970947266,-1.2285618782043457,239.70535278320312,127.73511505126953,-179.89669799804688
-3,Pressed,0.8338660001754761,1.7893040180206299,0.4692256450653076,341.637939453125,249.0740966796875,196.3165740966797,0,-309.2276916503906,-36.25823211669922,-32.35944366455078,-0.8910560011863708,239.12005615234375,127.63675689697266,-181.91244506835938
-3,Pressed,0.836999773979187,1.784200668334961,0.4543512463569641,341.2576599121094,249.6557159423828,196.79501342773438,0,-311.4327392578125,-37.08585739135742,-30.542720794677734,-0.8278087377548218,238.76254272460938,127.36912536621094,-183.91795349121094
-3,Pressed,0.8436130285263062,1.7761439085006714,0.4301759600639343,341.2774658203125,248.84805297851562,195.88470458984375,0,-313.69329833984375,-37.985511779785156,-31.48475456237793,-0.793424129486084,238.81106567382812,126.96814727783203,-186.0926055908203
-3,Pressed,0.8539512753486633,1.766869306564331,0.4013518989086151,341.7767333984375,246.843505859375,193.7987823486328,0,-315.6590576171875,-38.752071380615234,-34.555599212646484,-0.8646771311759949,238.90475463867188,126.49058532714844,-188.0482940673828
1,Pressed,0.8756062388420105,1.7651761770248413,0.3813948631286621,342.78021240234375,244.81661987304688,192.00592041015625,0,-317.6357421875,-38.384212493896484,-38.26423263549805,-1.448279857635498,239.89036560058594,127.27342224121094,-189.72613525390625
1,Pressed,0.8981239795684814,1.7703166007995605,0.3743729293346405,343.102294921875,243.67813110351562,192.79351806640625,0,-319.9670715332031,-36.34403991699219,-21.490306854248047,-4.065859794616699,223.7775115966797,127.68708038330078,-190.96726989746094
1,Pressed,0.9150146245956421,1.7710683345794678,0.37573277950286865,343.6891174316406,244.45162963867188,195.09593200683594,0,-323.5928955078125,-34.46657180786133,-1.0826741456985474,-7.498547077178955,207.80580139160156,127.71607208251953,-191.87977600097656
1,Pressed,0.9282846450805664,1.7774016857147217,0.38533109426498413,343.1922912597656,246.55203247070312,197.37464904785156,0,-327.66827392578125,-32.6475715637207,13.83637809753418,-10.408172607421875,199.2259063720703,127.72721862792969,-192.47076416015625
1,Pressed,0.9424933195114136,1.785471796989441,0.3971045911312103,342.2864074707031,249.006103515625,199.32672119140625,0,-332.2859191894531,-30.91880226135254,25.804216384887695,-13.357500076293945,194.22850036621094,127.73407745361328,-193.13067626953125
1,Pressed,0.9600522518157959,1.7918176651000977,0.4052264392375946,341.5989990234375,250.748291015625,200.5699462890625,0,-337.4797058105469,-29.4346981048584,35.40159225463867,-16.338621139526367,190.96397399902344,127.73624420166016,-193.83428955078125
1,Pressed,0.981077253818512,1.7951995134353638,0.4077844023704529,341.34246826171875,251.35769653320312,201.21978759765625,0,-343.1313171386719,-28.239748001098633,42.70316696166992,-19.26486587524414,188.87457275390625,127.73355102539062,-194.6111297607422
1,Pressed,1.0012977123260498,1.7967127561569214,0.40814071893692017,341.23748779296875,251.4477996826172,201.64993286132812,0,-348.5355529785156,-27.396284103393555,48.350982666015625,-21.828655242919922,187.61456298828125,127.72846221923828,-195.38839721679688
1,Pressed,1.0239671468734741,1.7986301183700562,0.411305695772171,340.8095397949219,252.09889221191406,202.2393035888672,0,-355.2543029785156,-26.688934326171875,55.63627243041992,-24.813798904418945,186.37757873535156,127.72969055175781,-196.3899383544922
1,Pressed,1.0435163974761963,1.8007926940917969,0.4166886806488037,340.14276123046875,253.19107055664062,202.6122589111328,0,-361.5447082519531,-26.235715866088867,62.6452522277832,-27.484987258911133,185.39476013183594,127.73133850097656,-197.42474365234375
1,Pressed,1.0637495517730713,1.8014814853668213,0.4204329550266266,339.6080017089844,253.8712158203125,202.7940673828125,0,-367.84698486328125,-26.014774322509766,68.85069274902344,-30.04645347595215,184.63381958007812,127.73210906982422,-198.5538330078125
1,Pressed,1.0849659442901611,1.800835132598877,0.42294806241989136,339.1627197265625,254.19891357421875,202.8697967529297,0,-374.20550537109375,-25.97783851623535,74.29360961914062,-32.55476760864258,184.11911010742188,127.73178100585938,-199.87123107910156
1,Pressed,1.1063387393951416,1.7995725870132446,0.4259912669658661,338.6506652832031,254.59674072265625,202.8184051513672,0,-380.6304931640625,-26.159229278564453,79.74105072021484,-35.04624557495117,183.54446411132812,127.73180389404297,-201.31570434570312
1,Pressed,1.1279672384262085,1.797499418258667,0.4291696548461914,338.115966796875,254.99652099609375,202.61196899414062,0,-386.97662353515625,-26.46628761291504,84.66172790527344,-37.50172805786133,183.0913543701172,127.73238372802734,-203.0556640625
1,Pressed,1.1470650434494019,1.7948977947235107,0.43174174427986145,337.65484619140625,255.28973388671875,202.32040405273438,0,-392.37811279296875,-26.812381744384766,88.36883544921875,-39.58528518676758,182.79275512695312,127.73169708251953,-204.85806274414062
1,Pressed,1.1669508218765259,1.7912752628326416,0.43387967348098755,337.2181091308594,255.49740600585938,201.9319305419922,0,-397.7259216308594,-27.228431701660156,91.5035629272461,-41.643943786621094,182.5381317138672,127.73140716552734,-207.0218963623047
1,Pressed,1.185835838317871,1.7871003150939941,0.43554264307022095,336.8323669433594,255.6531982421875,201.46473693847656,0,-402.5534973144531,-27.612855911254883,93.76718139648438,-43.48860549926758,182.36212158203125,127.730712890625,-209.43130493164062
2,Pressed,1.1913871765136719,1.7913727760314941,0.43826061487197876,335.9980773925781,254.99716186523438,201.34214782714844,0,-404.6014099121094,-27.84907341003418,95.928466796875,-43.39534378051758,182.32261657714844,127.7297134399414,-208.84523010253906
2,Pressed,1.186095118522644,1.8024725914001465,0.44397497177124023,334.73779296875,254.65032958984375,201.19479370117188,0,-404.69842529296875,-27.849876403808594,98.70301818847656,-42.08713912963867,182.2346649169922,127.7315444946289,-206.36831665039062
2,Pressed,1.1812896728515625,1.8129768371582031,0.4486795961856842,333.557373046875,253.973876953125,201.31568908691406,0,-404.54083251953125,-27.8511905670166,100.9386978149414,-40.68205642700195,182.19927978515625,127.73297119140625,-203.88087463378906
2,Pressed,1.1761640310287476,1.8247287273406982,0.4539787173271179,332.1976318359375,253.19509887695312,201.60153198242188,0,-404.23779296875,-27.8240966796875,103.22412109375,-39.04279708862305,182.20079040527344,127.73434448242188,-201.1945037841797
2,Pressed,1.171411156654358,1.8361588716506958,0.459124892950058,330.8722229003906,252.36175537109375,202.02854919433594,0,-403.8196716308594,-27.7563533782959,105.24317932128906,-37.37419509887695,182.21424865722656,127.73575592041016,-198.63304138183594
2,Pressed,1.1670376062393188,1.8472485542297363,0.4640778601169586,329.59161376953125,251.46163940429688,202.59213256835938,0,-403.3076171875,-27.653799057006836,107.02546691894531,-35.683135986328125,182.23043823242188,127.73702239990234,-196.1824493408203
2,Pressed,1.162886619567871,1.858428716659546,0.4691149592399597,328.2967834472656,250.50587463378906,203.29820251464844,0,-402.7115783691406,-27.510831832885742,108.65975189208984,-33.91874313354492,182.2699432373047,127.73828125,-193.78598022460938
2,Pressed,1.1594372987747192,1.8676583766937256,0.47322162985801697,327.2748107910156,249.613525390625,203.97494506835938,0,-402.1091613769531,-27.341108322143555,109.88343811035156,-32.394168853759766,182.25514221191406,127.73990631103516,-191.7919921875
2,Pressed,1.1558668613433838,1.8789869546890259,0.47814077138900757,325.97808837890625,248.4398193359375,204.9965057373047,0,-401.3879699707031,-27.118934631347656,111.16167449951172,-30.471820831298828,182.38616943359375,127.74040985107422,-189.48162841796875
2,Pressed,1.152698278427124,1.888813853263855,0.48253458738327026,324.90106201171875,247.3707275390625,205.9667205810547,0,-400.6592712402344,-26.870332717895508,112.18314361572266,-28.748559951782227,182.4491424560547,127.74169921875,-187.48411560058594
2,Pressed,1.1498795747756958,1.897949457168579,0.4863695502281189,323.9492492675781,246.2007598876953,207.00315856933594,0,-399.90863037109375,-26.59408950805664,112.94483947753906,-27.066856384277344,182.5199432373047,127.7430648803711,-185.6141815185547
2,Pressed,1.147331714630127,1.9082192182540894,0.4903091490268707,322.8791809082031,244.71356201171875,208.36146545410156,0,-399.0841064453125,-26.267133712768555,113.5333480834961,-25.105985641479492,182.7564239501953,127.7431869506836,-183.5956573486328
2,Pressed,1.14497971534729,1.9171223640441895,0.4938115179538727,322.0107421875,243.3565673828125,209.61032104492188,0,-398.2738037109375,-25.926132202148438,113.93367004394531,-23.34964370727539,182.93304443359375,127.74420928955078,-181.84210205078125
2,Pressed,1.1429376602172852,1.9258569478988647,0.49679261445999146,321.21136474609375,241.7979736328125,210.9883575439453,0,-397.4385070800781,-25.553836822509766,114.04533386230469,-21.53795623779297,183.2025146484375,127.74474334716797,-180.12440490722656
2,Pressed,1.1411975622177124,1.9348220825195312,0.49917834997177124,320.4583435058594,239.89761352539062,212.5802001953125,0,-396.5434265136719,-25.13344383239746,113.78643798828125,-19.569217681884766,183.62094116210938,127.74481201171875,-178.35650634765625
2,Pressed,1.1395056247711182,1.9407882690429688,0.5003314018249512,320.1000671386719,238.34796142578125,213.7115020751953,0,-395.7603759765625,-24.75883674621582,113.2954330444336,-18.137807846069336,183.87074279785156,127.74752807617188,-177.05209350585938
2,Pressed,1.1383916139602661,1.9486165046691895,0.5014125108718872,319.55889892578125,236.24652099609375,215.3179168701172,0,-394.8992919921875,-24.3142032623291,112.3530502319336,-16.248193740844727,184.55072021484375,127.7466812133789,-175.51365661621094
2,Pressed,1.1371970176696777,1.9550974369049072,0.5015783905982971,319.25738525390625,234.1358642578125,216.74481201171875,0,-394.0205383300781,-23.85198974609375,110.98179626464844,-14.539750099182129,185.29466247558594,127.74861145019531,-174.1350555419922
2,Pressed,1.136472225189209,1.9610414505004883,0.5003354549407959,319.0970458984375,231.6863250732422,218.19625854492188,0,-393.1380615234375,-23.361169815063477,108.77356719970703,-12.803322792053223,186.46554565429688,127.74937438964844,-172.82566833496094
2,Pressed,1.1361585855484009,1.966231107711792,0.4976746439933777,319.1024169921875,228.9559326171875,219.57789611816406,0,-392.23602294921875,-22.843374252319336,105.56766510009766,-11.0903902053833,188.1768798828125,127.75056457519531,-171.6041717529297
2,Pressed,1.1363096237182617,1.970680832862854,0.4935499429702759,319.2703552246094,225.93040466308594,220.86119079589844,0,-391.268798828125,-22.277759552001953,100.71961975097656,-9.396178245544434,190.9872589111328,127.75186157226562,-170.4922637939453
2,Pressed,1.136928915977478,1.9739912748336792,0.4877147376537323,319.6329040527344,222.6786651611328,221.94456481933594,0,-390.13568115234375,-21.648927688598633,92.7741928100586,-7.817351341247559,196.1568603515625,127.7479248046875,-169.61575317382812
2,Pressed,1.1385165452957153,1.9799237251281738,0.4802103638648987,319.84149169921875,218.21011352539062,223.69097900390625,0,-387.62945556640625,-20.746444702148438,71.03669738769531,-5.502645492553711,213.2425079345703,127.72145080566406,-168.76412963867188
-2,Pressed,1.1453032493591309,1.9753309488296509,0.46830061078071594,320.5384521484375,215.67002868652344,222.78042602539062,0,-388.681884765625,-20.86967658996582,72.36282348632812,-5.517629623413086,209.51812744140625,127.76034545898438,-168.93374633789062
-2,Pressed,1.1492148637771606,1.9608116149902344,0.4558780789375305,322.4186706542969,215.8187255859375,220.5448760986328,0,-390.6824035644531,-21.72765350341797,85.10171508789062,-7.968382358551025,195.93063354492188,127.74992370605469,-169.76719665527344
-2,Pressed,1.1504679918289185,1.9536550045013428,0.4544292986392975,322.85076904296875,217.7267608642578,219.4074249267578,0,-391.98980712890625,-22.45647621154785,91.64421081542969,-9.751567840576172,190.68585205078125,127.73764038085938,-170.73912048339844
-2,Pressed,1.1458157300949097,1.9525179862976074,0.4666966199874878,321.9974365234375,222.613525390625,218.72682189941406,0,-392.7862243652344,-23.035415649414062,98.49419403076172,-11.442201614379883,188.06613159179688,127.73997497558594,-171.86158752441406
