cesarbds/cloth_dressing/GMM/demo6.csv
Button,Action,x,y,z,roll,pitch,yaw,gripper_state,joint0,joint1,joint2,joint3,joint4,joint5,joint6,joint7
3,Pressed,2.006984233856201,1.7048594951629639,0.6986017823219299,36.25409698486328,175.24522399902344,130.71446228027344,0,-51.051002502441406,-63.198299407958984,54.77280044555664,49.05109786987305,78.48209381103516,75.84611511230469,55.59310531616211
3,Pressed,1.989698886871338,1.7111181020736694,0.7472983002662659,37.20891189575195,172.15908813476562,129.75778198242188,0,-51.96360778808594,-63.56272506713867,53.10328674316406,55.19369125366211,79.4956283569336,74.92892456054688,50.21046829223633
3,Pressed,1.9782888889312744,1.7090094089508057,0.7674534916877747,36.95888900756836,172.37417602539062,129.90118408203125,0,-51.780174255371094,-63.33892822265625,53.34657287597656,59.629676818847656,80.50179290771484,74.24066925048828,45.723487854003906
3,Pressed,1.9656453132629395,1.7105746269226074,0.7826496958732605,37.12018966674805,172.77249145507812,129.75408935546875,0,-51.2461051940918,-62.85037612915039,53.28795623779297,63.64299392700195,81.33655548095703,73.61528015136719,41.22911071777344
3,Pressed,1.9546514749526978,1.7062464952468872,0.7960167527198792,37.3991584777832,173.89210510253906,130.33509826660156,0,-50.804073333740234,-62.4952278137207,53.70398712158203,67.4204330444336,82.088623046875,73.07127380371094,36.58373260498047
3,Pressed,1.9432168006896973,1.7079604864120483,0.8060206174850464,37.40241622924805,174.72640991210938,130.06887817382812,0,-50.23544692993164,-61.6998176574707,53.7173957824707,70.75393676757812,83.11920166015625,72.68512725830078,32.33180618286133
3,Pressed,1.9334903955459595,1.708341360092163,0.814089298248291,37.45781707763672,175.6159210205078,129.92218017578125,0,-49.775352478027344,-60.99844741821289,53.76662826538086,73.57474517822266,84.06878662109375,72.43763732910156,28.538681030273438
3,Pressed,1.9238016605377197,1.7096949815750122,0.8157846331596375,37.27066421508789,177.2911834716797,129.49819946289062,0,-48.70795440673828,-59.87841796875,53.9725341796875,76.6146011352539,85.2916030883789,72.21595001220703,24.20774269104004
3,Pressed,1.9163159132003784,1.709545612335205,0.8158036470413208,37.62202835083008,179.06338500976562,129.38829040527344,0,-47.777713775634766,-59.155941009521484,54.003662109375,79.0972900390625,86.3697280883789,72.13285064697266,20.23775863647461
3,Pressed,1.9101948738098145,1.7156656980514526,0.7962538599967957,37.26250457763672,182.42933654785156,128.45236206054688,0,-45.03620529174805,-57.354103088378906,54.238155364990234,81.26158142089844,87.44215393066406,72.14461517333984,16.361774444580078
3,Pressed,1.909721851348877,1.7099446058273315,0.7564562559127808,37.35677719116211,188.4894256591797,129.3142547607422,0,-40.99552917480469,-56.41046905517578,55.21016311645508,82.91730499267578,87.92317199707031,72.26123046875,12.798250198364258
3,Pressed,1.9068677425384521,1.7113680839538574,0.7069734930992126,37.95201110839844,194.25222778320312,128.76991271972656,0,-36.099178314208984,-55.927337646484375,55.03804397583008,84.57830810546875,89.3048095703125,72.37567901611328,9.519916534423828
3,Pressed,1.8988052606582642,1.7016899585723877,0.6373283863067627,37.93004608154297,203.49807739257812,130.06581115722656,0,-29.51561737060547,-55.0091438293457,56.412864685058594,86.19096374511719,89.68899536132812,72.62354278564453,5.807143688201904
3,Pressed,1.8976746797561646,1.7045185565948486,0.6556494235992432,38.11088943481445,203.7180633544922,129.58514404296875,0,-30.941125869750977,-53.69140625,56.949501037597656,87.19117736816406,90.72115325927734,72.92621612548828,2.5490825176239014
3,Pressed,1.8977577686309814,1.7046778202056885,0.6782582998275757,38.08111572265625,203.76873779296875,129.57229614257812,0,-33.05535125732422,-52.339576721191406,57.96251678466797,87.7983169555664,91.38480377197266,73.2946548461914,-0.34370023012161255
3,Pressed,1.8978971242904663,1.7049789428710938,0.7036490440368652,38.059349060058594,203.746337890625,129.5492706298828,0,-35.65119552612305,-50.86614227294922,59.215362548828125,88.18621826171875,92.06214141845703,73.74851989746094,-3.3213558197021484
3,Pressed,1.8981047868728638,1.7051491737365723,0.7285178899765015,38.03968048095703,203.73977661132812,129.5342254638672,0,-38.44126510620117,-49.45009231567383,60.6368408203125,88.30072784423828,92.6957015991211,74.2396469116211,-6.073286533355713
3,Pressed,1.8982497453689575,1.7054660320281982,0.7556175589561462,38.06850051879883,203.65516662597656,129.4935760498047,0,-41.72255325317383,-48.030513763427734,62.29515075683594,88.15717315673828,93.37964630126953,74.81941986083984,-8.823413848876953
3,Pressed,1.8985320329666138,1.7050856351852417,0.7786797285079956,38.02473449707031,203.7466278076172,129.52932739257812,0,-44.81575012207031,-46.814796447753906,64.05188751220703,87.77391052246094,93.9189682006836,75.38262176513672,-11.084367752075195
3,Pressed,1.8987640142440796,1.7048355340957642,0.8036623597145081,38.01524353027344,203.7540740966797,129.54562377929688,0,-48.37192916870117,-45.66501998901367,66.02996063232422,87.1214828491211,94.50823974609375,76.02762603759766,-13.264897346496582
3,Pressed,1.8990578651428223,1.70449697971344,0.8288516402244568,37.99355697631836,203.75294494628906,129.5935821533203,0,-52.21855545043945,-44.669227600097656,68.17913818359375,86.16426086425781,95.09111785888672,76.74297332763672,-15.179675102233887
3,Pressed,1.899367332458496,1.7039828300476074,0.854087769985199,37.953975677490234,203.774169921875,129.6678924560547,0,-56.329925537109375,-43.84672927856445,70.49207305908203,84.9215087890625,95.69219207763672,77.53412628173828,-16.853607177734375
3,Pressed,1.899556279182434,1.703542709350586,0.8816331028938293,37.94707489013672,203.7443389892578,129.76148986816406,0,-61.01201629638672,-43.213863372802734,73.03665924072266,83.27638244628906,96.4045181274414,78.45709228515625,-18.366920471191406
3,Pressed,1.8998382091522217,1.7026320695877075,0.9071793556213379,37.888484954833984,203.77444458007812,129.8724365234375,0,-65.60392761230469,-42.850502014160156,75.55961608886719,81.4527587890625,97.13516998291016,79.38723754882812,-19.531383514404297
3,Pressed,1.9002304077148438,1.7016310691833496,0.9306299686431885,37.77543640136719,203.83152770996094,129.9648895263672,0,-70.0162582397461,-42.701026916503906,77.99468994140625,79.47222137451172,97.86481475830078,80.29254150390625,-20.34151268005371
3,Pressed,1.900193214416504,1.70072340965271,0.9588339328765869,37.7459602355957,203.77078247070312,130.0969696044922,0,-75.26342010498047,-42.849403381347656,80.61677551269531,76.892578125,98.87067413330078,81.37397003173828,-21.006244659423828
3,Pressed,1.9004228115081787,1.6995635032653809,0.9823535680770874,37.621673583984375,203.8253631591797,130.17562866210938,0,-79.85939025878906,-43.14385986328125,82.97783660888672,74.3644790649414,99.80724334716797,82.32532501220703,-21.328344345092773
3,Pressed,1.9000778198242188,1.6985262632369995,1.0108317136764526,37.59307861328125,203.7349853515625,130.30123901367188,0,-85.23631286621094,-43.79240036010742,85.39566040039062,71.11786651611328,101.08463287353516,83.38978576660156,-21.40114402770996
3,Pressed,1.9000725746154785,1.6974241733551025,1.0346859693527222,37.47024154663086,203.751220703125,130.37181091308594,0,-89.9180908203125,-44.48721694946289,87.54733276367188,67.92578125,102.2392349243164,84.25761413574219,-21.158506393432617
3,Pressed,1.8995094299316406,1.6965854167938232,1.061065435409546,37.427005767822266,203.67218017578125,130.4718017578125,0,-94.95178985595703,-45.42652130126953,89.59869384765625,64.14881134033203,103.61689758300781,85.07108306884766,-20.616365432739258
3,Pressed,1.8984904289245605,1.6950609683990479,1.0905649662017822,37.39990997314453,203.58871459960938,130.72637939453125,0,-100.48946380615234,-46.69428634643555,91.61322784423828,59.51387023925781,105.2133560180664,85.77900695800781,-19.65623664855957
3,Pressed,1.897425651550293,1.694138765335083,1.1166303157806396,37.389015197753906,203.51979064941406,130.92286682128906,0,-105.48100280761719,-47.9149055480957,93.33183288574219,54.81769943237305,106.71126556396484,86.19351196289062,-18.426815032958984
3,Pressed,1.8956215381622314,1.6928205490112305,1.1452226638793945,37.44221115112305,203.43045043945312,131.31817626953125,0,-110.91522979736328,-49.397945404052734,94.8880844116211,49.128326416015625,108.38404083251953,86.34864044189453,-16.684635162353516
3,Pressed,1.8931212425231934,1.6913518905639648,1.1728763580322266,37.58317947387695,203.37173461914062,131.96453857421875,0,-116.2288818359375,-50.93375778198242,96.06925201416016,42.890403747558594,109.97966003417969,86.13874053955078,-14.531502723693848
3,Pressed,1.8896937370300293,1.6893892288208008,1.201843023300171,37.84343338012695,203.34544372558594,132.95941162109375,0,-122.0155258178711,-52.63923263549805,96.98168182373047,35.296363830566406,111.62872314453125,85.41895294189453,-11.664965629577637
3,Pressed,1.8840516805648804,1.6841049194335938,1.2389883995056152,38.3452262878418,203.56727600097656,135.3151092529297,0,-130.27964782714844,-55.068180084228516,97.35576629638672,22.664670944213867,113.6161880493164,83.39871215820312,-6.33796501159668
3,Pressed,1.8679203987121582,1.6708568334579468,1.2812354564666748,40.09543228149414,204.4680938720703,141.5529022216797,0,-139.04733276367188,-57.24184036254883,94.20419311523438,7.49554443359375,114.98220825195312,79.73033905029297,0.18306459486484528
3,Pressed,1.8234384059906006,1.6507136821746826,1.3383941650390625,43.3563232421875,207.47235107421875,155.33441162109375,0,-143.26734924316406,-57.8440055847168,80.41807556152344,0.9997684359550476,118.43352508544922,77.38380432128906,1.7991243600845337
3,Pressed,1.7803833484649658,1.6318484544754028,1.3851191997528076,44.61186981201172,210.11961364746094,166.36109924316406,0,-144.6644744873047,-58.844356536865234,59.859588623046875,0.37436509132385254,130.46881103515625,76.23395538330078,0.9658520221710205
3,Pressed,1.7811920642852783,1.598097801208496,1.3941789865493774,42.717166900634766,210.33233642578125,165.99380493164062,0,-145.12649536132812,-61.48455810546875,20.670541763305664,-0.599265456199646,170.5784149169922,74.74955749511719,0.6097803711891174
3,Pressed,1.8065736293792725,1.5840122699737549,1.3812369108200073,41.25232696533203,206.9596405029297,155.91387939453125,0,-146.00360107421875,-63.36094665527344,7.862478256225586,-1.1855103969573975,192.34254455566406,73.11981201171875,-0.33335644006729126
1,Pressed,1.8437029123306274,1.5957903861999512,1.3590625524520874,41.809024810791016,204.16317749023438,147.17047119140625,0,-145.06448364257812,-63.914608001708984,12.479883193969727,-0.9563714265823364,194.345458984375,71.02228546142578,-0.25739872455596924
1,Pressed,1.8491952419281006,1.5856190919876099,1.3659305572509766,43.06734085083008,205.32289123535156,151.06063842773438,0,-143.68246459960938,-64.4422836303711,7.583925247192383,-1.1695352792739868,195.0731964111328,69.19673156738281,0.3137475550174713
1,Pressed,1.8521863222122192,1.5725147724151611,1.3784765005111694,45.057525634765625,207.79893493652344,157.82044982910156,0,-141.8816375732422,-65.23451232910156,0.46384963393211365,-1.3295845985412598,195.57049560546875,66.82245635986328,1.074849009513855
1,Pressed,1.8692107200622559,1.5679655075073242,1.376131296157837,46.566165924072266,208.56155395507812,159.20895385742188,0,-140.1720733642578,-65.92233276367188,-2.0175249576568604,-1.4008204936981201,195.85227966308594,64.51194763183594,1.811792254447937
-1,Pressed,1.878248929977417,1.5754368305206299,1.3635859489440918,45.449886322021484,205.7593536376953,153.01358032226562,0,-140.63829040527344,-65.784423828125,-5.67728853225708,-1.4373729228973389,204.5416259765625,64.8728256225586,1.5437604188919067
-1,Pressed,1.8764495849609375,1.586455225944519,1.3521275520324707,43.26108932495117,203.29205322265625,146.56072998046875,0,-142.1744384765625,-65.23198699951172,-3.819284200668335,-1.4944909811019897,208.9761199951172,66.75044250488281,0.8463400602340698
-1,Pressed,1.860019564628601,1.5929434299468994,1.3543403148651123,42.12552261352539,203.07504272460938,145.51971435546875,0,-143.8487091064453,-64.60943603515625,-2.829345703125,-1.3918120861053467,210.04937744140625,68.9092025756836,0.13473090529441833
-1,Pressed,1.8245313167572021,1.5884779691696167,1.3741799592971802,41.73347473144531,204.7986602783203,150.8868865966797,0,-145.6598358154297,-64.02708435058594,-6.680131912231445,-1.3807640075683594,210.63038635253906,71.19795989990234,-0.6133309006690979
-1,Pressed,1.7780547142028809,1.5813329219818115,1.400383472442627,41.18617630004883,206.9749298095703,158.86700439453125,0,-147.525634765625,-63.459129333496094,-12.793046951293945,-1.4071612358093262,211.12351989746094,73.47361755371094,-1.3601322174072266
-1,Pressed,1.7448129653930664,1.5806570053100586,1.412980556488037,40.10828399658203,207.52572631835938,162.08583068847656,0,-149.3504180908203,-62.91244888305664,-15.113079071044922,-1.3627996444702148,211.61817932128906,75.62971496582031,-2.0798075199127197
-1,Pressed,1.7323670387268066,1.5854690074920654,1.4097496271133423,38.85957717895508,206.6143341064453,159.41087341308594,0,-151.10580444335938,-62.45675277709961,-12.466202735900879,-1.2534514665603638,212.14710998535156,77.65296936035156,-2.7736432552337646
-1,Pressed,1.7224996089935303,1.5933868885040283,1.4019181728363037,37.43782043457031,205.44529724121094,154.85958862304688,0,-153.21571350097656,-61.97208786010742,-8.123481750488281,-1.1962087154388428,212.87843322753906,79.98262786865234,-3.601003885269165
-1,Pressed,1.7014579772949219,1.5983489751815796,1.4019749164581299,36.308387756347656,205.06631469726562,153.54327392578125,0,-155.36087036132812,-61.485050201416016,-6.521535396575928,-1.082622766494751,213.51165771484375,82.29290008544922,-4.42845344543457
-1,Pressed,1.666494607925415,1.5949394702911377,1.4129506349563599,35.207557678222656,205.3107147216797,156.73193359375,0,-157.30450439453125,-61.08503341674805,-9.104233741760254,-1.0344569683074951,214.0108184814453,84.29866790771484,-5.172776699066162
-1,Pressed,1.6248644590377808,1.589780330657959,1.4248056411743164,33.719627380371094,205.33462524414062,160.57077026367188,0,-159.46827697753906,-60.710845947265625,-12.514532089233398,-1.035979151725769,214.61585998535156,86.45562744140625,-5.9882683753967285
-1,Pressed,1.5936987400054932,1.5889859199523926,1.4294960498809814,32.4648323059082,204.9899139404297,161.9428253173828,0,-161.5258026123047,-60.36152267456055,-13.683497428894043,-0.9631121754646301,215.15863037109375,88.44198608398438,-6.761791706085205
-1,Pressed,1.5737395286560059,1.5921568870544434,1.4263492822647095,31.393428802490234,204.39373779296875,160.01394653320312,0,-163.80349731445312,-60.04913330078125,-11.739269256591797,-0.9449876546859741,215.8228302001953,90.54576110839844,-7.6273088455200195
-1,Pressed,1.558769702911377,1.5965662002563477,1.4220871925354004,30.70135498046875,203.9734649658203,157.8019256591797,0,-165.81640625,-59.80575942993164,-9.374874114990234,-0.869221031665802,216.30856323242188,92.3536148071289,-8.399893760681152
-1,Pressed,1.535368800163269,1.5986586809158325,1.4202511310577393,29.776052474975586,203.530029296875,156.7953643798828,0,-168.10482788085938,-59.5593376159668,-8.24474048614502,-0.8551642298698425,216.87570190429688,94.32160949707031,-9.277937889099121
-1,Pressed,1.4884544610977173,1.597779393196106,1.424799919128418,28.78356170654297,201.22145080566406,155.70411682128906,0,-171.91055297851562,-56.71842956542969,-7.37772798538208,-7.4695258140563965,217.3374481201172,93.23900604248047,-12.528313636779785
-1,Pressed,1.4530011415481567,1.5983946323394775,1.4235644340515137,28.180171966552734,199.7174072265625,154.6191864013672,0,-175.1040802001953,-54.629493713378906,-5.816736221313477,-12.056793212890625,217.2384490966797,92.8116455078125,-15.041926383972168
-1,Pressed,1.4501769542694092,1.6122944355010986,1.410474181175232,28.951560974121094,199.71795654296875,149.28578186035156,0,-177.95089721679688,-53.46881103515625,0.08620672672986984,-14.167211532592773,217.81106567382812,93.59247589111328,-16.82261085510254
-1,Pressed,1.4564675092697144,1.6303035020828247,1.394774317741394,30.227149963378906,200.55335998535156,143.7782440185547,0,-180.2417755126953,-53.01301193237305,6.681424140930176,-14.700127601623535,218.14028930664062,95.032470703125,-18.026927947998047
-1,Pressed,1.43764328956604,1.6349859237670898,1.3890395164489746,30.204448699951172,200.6490936279297,142.45233154296875,0,-182.57008361816406,-53.09724426269531,8.45644474029541,-14.276637077331543,218.4986114501953,97.04714965820312,-18.922433853149414
-1,Pressed,1.3957903385162354,1.6232590675354004,1.3933014869689941,28.363950729370117,199.7272186279297,145.39559936523438,0,-184.6621551513672,-53.79011535644531,4.71295166015625,-12.826737403869629,219.12579345703125,99.43480682373047,-19.356767654418945
-1,Pressed,1.350799798965454,1.6079596281051636,1.3969385623931885,25.707029342651367,198.7578887939453,149.64373779296875,0,-186.34225463867188,-55.4055290222168,-0.706401526927948,-9.324853897094727,219.86083984375,102.73724365234375,-18.99728012084961
-1,Pressed,1.3129945993423462,1.5916056632995605,1.3973941802978516,22.427682876586914,198.37155151367188,154.89210510253906,0,-187.28952026367188,-58.17449951171875,-7.11989164352417,-3.062560558319092,220.8057403564453,107.14019775390625,-17.516016006469727
-1,Pressed,1.2765823602676392,1.5800907611846924,1.3939790725708008,19.805330276489258,197.4502716064453,158.6353759765625,0,-188.89407348632812,-59.35273361206055,-12.082432746887207,-0.4895889163017273,221.7349090576172,109.6611557006836,-17.429004669189453
-1,Pressed,1.2416832447052002,1.5732938051223755,1.3872102499008179,17.95811653137207,196.2105712890625,160.2396697998047,0,-191.16436767578125,-59.674598693847656,-14.657041549682617,-0.06777375191450119,222.38555908203125,111.28353118896484,-18.255239486694336
-1,Pressed,1.2249972820281982,1.5739636421203613,1.379518985748291,17.779773712158203,195.92477416992188,158.83497619628906,0,-193.2654266357422,-59.86530303955078,-13.294042587280273,0.12013094127178192,222.77365112304688,112.61400604248047,-19.12437629699707
-1,Pressed,1.2158339023590088,1.5781936645507812,1.3705074787139893,18.632352828979492,196.17153930664062,155.3512420654297,0,-195.63265991210938,-60.17094802856445,-9.514336585998535,0.1938326507806778,223.28639221191406,114.03115844726562,-20.153047561645508
-1,Pressed,1.2044916152954102,1.5818536281585693,1.3625725507736206,19.347557067871094,196.23843383789062,153.0245361328125,0,-197.7030487060547,-60.39867401123047,-6.910944938659668,0.3229287564754486,223.67922973632812,115.2323989868164,-21.081911087036133
-1,Pressed,1.181614637374878,1.5786032676696777,1.3543016910552979,18.753774642944336,195.5766143798828,152.7054901123047,0,-199.8600311279297,-60.69898223876953,-6.985768795013428,0.3782951235771179,224.03976440429688,116.41947174072266,-22.07180404663086
-1,Pressed,1.1497067213058472,1.5698624849319458,1.344581127166748,17.00973129272461,194.27978515625,153.90525817871094,0,-202.1163330078125,-61.06283950805664,-9.438942909240723,0.3821382522583008,224.60369873046875,117.58627319335938,-23.140220642089844
-1,Pressed,1.1181178092956543,1.5612280368804932,1.3337490558624268,15.13862419128418,192.871337890625,155.35205078125,0,-204.26170349121094,-61.40170669555664,-12.457080841064453,0.41110482811927795,225.341064453125,118.63892364501953,-24.189115524291992
-1,Pressed,1.099278450012207,1.5604896545410156,1.3245282173156738,14.736680030822754,192.3042755126953,155.49127197265625,0,-206.11276245117188,-61.54483413696289,-30.928531646728516,0.0576070174574852,243.4119873046875,119.1343994140625,-25.62118911743164
-1,Pressed,1.0869337320327759,1.5620653629302979,1.315335988998413,15.5765962600708,192.31234741210938,153.56307983398438,0,-208.23760986328125,-61.872230529785156,-30.475528717041016,0.09028656780719757,245.3726043701172,120.08836364746094,-26.781070709228516
-1,Pressed,1.0768853425979614,1.5632425546646118,1.3073508739471436,16.556554794311523,192.3832550048828,151.635986328125,0,-210.11911010742188,-62.264976501464844,-28.481660842895508,0.15035635232925415,245.8212127685547,120.92545318603516,-27.811738967895508
-1,Pressed,1.0613491535186768,1.5608614683151245,1.2982428073883057,16.70368003845215,191.99607849121094,150.8084716796875,0,-211.98675537109375,-62.67898178100586,-27.773460388183594,0.2079789936542511,245.9709014892578,121.70514678955078,-28.852201461791992
-1,Pressed,1.0391851663589478,1.5540883541107178,1.287177562713623,15.673534393310547,191.04385375976562,151.3284912109375,0,-213.84481811523438,-63.08120346069336,-29.063213348388672,0.24244078993797302,246.0865478515625,122.41696166992188,-29.91771697998047
-1,Pressed,1.018143892288208,1.5472534894943237,1.276233434677124,14.452170372009277,190.03086853027344,152.135498046875,0,-215.48023986816406,-63.41058349609375,-31.002347946166992,0.23748432099819183,246.41961669921875,122.98847198486328,-30.90090560913086
-1,Pressed,1.0004397630691528,1.5423243045806885,1.2656188011169434,13.923866271972656,189.2948760986328,152.2028350830078,0,-217.1857452392578,-63.78717803955078,-31.803844451904297,0.2380727082490921,246.68804931640625,123.53964233398438,-31.957191467285156
-1,Pressed,0.9872183799743652,1.5396404266357422,1.2562015056610107,14.343371391296387,188.985595703125,151.34335327148438,0,-218.96376037597656,-64.25556945800781,-35.310462951660156,0.14487813413143158,250.994873046875,124.02523803710938,-33.25871276855469
-1,Pressed,0.9781415462493896,1.541178584098816,1.2487643957138062,15.258198738098145,188.9490509033203,150.62351989746094,0,-220.43690490722656,-64.39598083496094,-41.21575164794922,-0.0028765290044248104,257.9241638183594,124.3666000366211,-34.526031494140625
-1,Pressed,0.9661828279495239,1.5391013622283936,1.2401695251464844,15.898319244384766,188.65066528320312,149.90675354003906,0,-222.06890869140625,-64.79542541503906,-40.80514144897461,0.0057227592915296555,258.3642578125,124.73452758789062,-35.668277740478516
-1,Pressed,0.9525610208511353,1.5348138809204102,1.2311903238296509,15.73316478729248,188.1007080078125,149.99026489257812,0,-223.4652862548828,-65.13951873779297,-41.161293029785156,0.018925627693533897,258.33251953125,124.99512481689453,-36.67293167114258
-1,Pressed,0.935368537902832,1.528211236000061,1.2198985815048218,15.119139671325684,187.2715606689453,150.43814086914062,0,-225.04307556152344,-65.56024932861328,-42.15033721923828,0.01417853869497776,258.240234375,125.21524810791016,-37.825172424316406
-1,Pressed,0.9216283559799194,1.5232207775115967,1.2104413509368896,14.669332504272461,186.61920166015625,150.85516357421875,0,-226.3229217529297,-65.86955261230469,-45.855525970458984,-0.09419440478086472,260.9727783203125,125.32839965820312,-38.92938232421875
-1,Pressed,0.9091699719429016,1.5204089879989624,1.2013574838638306,14.960894584655762,186.1709747314453,150.90431213378906,0,-227.7620849609375,-66.14180755615234,-48.686954498291016,-0.17363114655017853,263.6651611328125,125.39456939697266,-40.181304931640625
-1,Pressed,0.90042644739151,1.518368124961853,1.1950113773345947,15.634803771972656,185.94215393066406,150.62579345703125,0,-228.93911743164062,-66.43682098388672,-48.207122802734375,-0.17738603055477142,263.6674499511719,125.38906860351562,-41.171302795410156
-1,Pressed,0.8910078406333923,1.5156445503234863,1.188387393951416,16.344655990600586,185.67233276367188,150.38902282714844,0,-230.17625427246094,-66.79051971435547,-47.5650749206543,-0.1635952889919281,263.48095703125,125.31669616699219,-42.22401809692383
-1,Pressed,0.8799947500228882,1.5116417407989502,1.1807905435562134,16.633258819580078,185.24624633789062,150.54747009277344,0,-231.38424682617188,-67.12947845458984,-47.53593444824219,-0.16288147866725922,263.27142333984375,125.17193603515625,-43.28452682495117
4,Pressed,0.8799818158149719,1.510363221168518,1.1744236946105957,14.537125587463379,183.46817016601562,149.69044494628906,0,-231.6172332763672,-67.27549743652344,-47.624237060546875,0.07999516278505325,262.986083984375,126.17617797851562,-41.040748596191406
4,Pressed,0.8860721588134766,1.5093116760253906,1.1710987091064453,11.265542984008789,180.51217651367188,148.013916015625,0,-231.14865112304688,-67.37273406982422,-46.19856643676758,-0.1640140414237976,261.38079833984375,127.46868133544922,-36.837547302246094
4,Pressed,0.8878461122512817,1.5082789659500122,1.1697063446044922,8.689964294433594,177.0460662841797,146.79830932617188,0,-230.75070190429688,-66.9641342163086,-30.44828987121582,-1.2088336944580078,245.56568908691406,127.73709106445312,-32.839664459228516
4,Pressed,0.8886042237281799,1.501399040222168,1.1661837100982666,5.686801433563232,173.3854522705078,144.6542205810547,0,-231.13308715820312,-66.7594223022461,-8.512508392333984,-2.972761631011963,224.4503936767578,127.70216369628906,-28.6317081451416
4,Pressed,0.8955764174461365,1.4947338104248047,1.163943886756897,1.9412426948547363,170.09814453125,141.76895141601562,0,-231.79885864257812,-66.70770263671875,8.178608894348145,-5.269979000091553,209.7825469970703,127.68448638916016,-23.385787963867188
4,Pressed,0.9063515663146973,1.4955146312713623,1.1658631563186646,359.3804626464844,168.02557373046875,139.0572052001953,0,-232.3099822998047,-66.64250946044922,18.708593368530273,-6.859010696411133,202.31610107421875,127.70033264160156,-18.439926147460938
2,Pressed,0.919357180595398,1.509749174118042,1.1708062887191772,358.817626953125,166.7655792236328,136.1700897216797,0,-232.69264221191406,-65.95089721679688,24.855318069458008,-7.77999210357666,200.502685546875,127.70814514160156,-14.12790584564209
2,Pressed,0.9261023998260498,1.525672197341919,1.1746832132339478,359.6419677734375,166.1101531982422,134.90293884277344,0,-232.7997283935547,-65.12068939208984,27.375553131103516,-7.537657737731934,200.6746368408203,127.72716522216797,-11.918736457824707
2,Pressed,0.92791748046875,1.538761019706726,1.1755424737930298,359.50457763671875,164.468994140625,134.76007080078125,0,-232.89649963378906,-64.20820617675781,27.3641414642334,-7.166988372802734,201.7952880859375,127.72540283203125,-9.442545890808105
2,Pressed,0.9262964725494385,1.548063039779663,1.1745901107788086,358.7347717285156,162.29115295410156,135.44256591796875,0,-232.94149780273438,-63.38393783569336,25.67893409729004,-6.696126937866211,203.34799194335938,127.73590087890625,-7.004127025604248
2,Pressed,0.9241940975189209,1.5559403896331787,1.1738028526306152,357.9417419433594,160.04220581054688,136.24417114257812,0,-232.90505981445312,-62.670963287353516,23.025890350341797,-6.170769691467285,205.59727478027344,127.71517944335938,-4.688497543334961
2,Pressed,0.9245078563690186,1.5686159133911133,1.1745226383209229,357.7037048339844,157.84632873535156,136.52883911132812,0,-232.77590942382812,-61.81614303588867,19.325571060180664,-5.390635967254639,209.69000244140625,127.70301055908203,-2.0768074989318848
2,Pressed,0.9267029166221619,1.5798025131225586,1.1763148307800293,357.6853942871094,156.3212432861328,136.38076782226562,0,-232.55062866210938,-61.22246170043945,15.557738304138184,-4.643331050872803,214.19859313964844,127.71027374267578,0.10337278246879578
2,Pressed,0.929388165473938,1.5936074256896973,1.1787139177322388,357.8351135253906,154.5205841064453,136.36721801757812,0,-232.1273193359375,-60.58287811279297,7.029021263122559,-3.5277926921844482,223.3461151123047,127.72505950927734,2.559065341949463
2,Pressed,0.9319171905517578,1.604384183883667,1.1821242570877075,357.777587890625,152.64793395996094,136.87002563476562,0,-231.4955291748047,-60.35969924926758,-9.20613956451416,-2.1185665130615234,239.50254821777344,127.7138671875,4.9860405921936035
2,Pressed,0.9446491003036499,1.6188104152679443,1.1882529258728027,357.89813232421875,151.76258850097656,139.26441955566406,0,-230.90744018554688,-60.188106536865234,-56.74522399902344,1.2747939825057983,286.4212951660156,127.74251556396484,8.11927318572998
-3,Pressed,0.9496434926986694,1.6254419088363647,1.1847500801086426,356.9027099609375,151.5382080078125,137.5797119140625,0,-232.5084991455078,-60.24357986450195,-75.94414520263672,2.8191280364990234,308.73876953125,127.77163696289062,10.451359748840332
-3,Pressed,0.9552150964736938,1.6298218965530396,1.1806679964065552,356.2742919921875,152.63037109375,135.124755859375,0,-234.1510467529297,-60.42827606201172,-88.0963363647461,4.533660888671875,324.61822509765625,127.74908447265625,11.57223129272461
-3,Pressed,0.9593830108642578,1.635103702545166,1.1727713346481323,355.4166564941406,153.92933654785156,131.70321655273438,0,-236.3485870361328,-60.75749206542969,-95.1569595336914,6.673845291137695,336.4989929199219,127.76045227050781,12.922995567321777
-3,Pressed,0.967227041721344,1.6477534770965576,1.1641712188720703,355.5955810546875,156.1143035888672,127.44015502929688,0,-238.35858154296875,-61.00924301147461,-94.95893859863281,8.80859088897705,342.4566345214844,127.75770568847656,14.343679428100586
-3,Pressed,0.9789042472839355,1.6684081554412842,1.1536853313446045,357.0111389160156,159.23617553710938,122.40849304199219,0,-240.22250366210938,-61.23648452758789,-90.70922088623047,10.95028305053711,345.8898010253906,127.7552490234375,15.873897552490234
-3,Pressed,0.991931676864624,1.695012092590332,1.1391613483428955,359.49957275390625,162.83641052246094,117.1558609008789,0,-242.03262329101562,-61.47954559326172,-84.11083221435547,13.128778457641602,348.0423583984375,127.7524185180664,17.593420028686523
-3,Pressed,1.00216805934906,1.720259189605713,1.1212964057922363,2.053297758102417,165.97727966308594,112.81318664550781,0,-243.7696990966797,-61.760921478271484,-77.43121337890625,15.253740310668945,349.4805908203125,127.75138092041016,19.488834381103516
-3,Pressed,1.0098659992218018,1.7433675527572632,1.1007411479949951,4.4712395668029785,168.68914794921875,109.28101348876953,0,-245.4661865234375,-62.08265686035156,-70.94122314453125,17.345592498779297,350.51397705078125,127.75191497802734,21.615036010742188
3,Pressed,1.0160691738128662,1.7570267915725708,1.096763014793396,7.4788384437561035,170.2990264892578,107.62191772460938,0,-245.00665283203125,-61.9815559387207,-67.5661849975586,16.963220596313477,350.2579650878906,127.75303649902344,21.001144409179688
6,Pressed,1.0097229480743408,1.7393211126327515,1.113605260848999,2.951824426651001,167.71945190429688,108.81041717529297,0,-243.5960693359375,-62.627132415771484,-69.7870101928711,15.34774112701416,348.1131286621094,127.73453521728516,22.823062896728516
6,Pressed,1.0036911964416504,1.7349649667739868,1.1274027824401855,357.55914306640625,166.14654541015625,104.6731948852539,0,-241.43344116210938,-64.86347198486328,-66.11164093017578,12.180492401123047,346.06829833984375,127.7714614868164,28.717273712158203
6,Pressed,1.002729058265686,1.7353854179382324,1.1348190307617188,355.3670654296875,165.46412658691406,103.17387390136719,0,-240.05055236816406,-65.59261322021484,-61.12328338623047,10.4413480758667,341.6995544433594,127.75492095947266,31.544187545776367
6,Pressed,0.9970325231552124,1.7310822010040283,1.1466314792633057,352.0465393066406,163.561767578125,101.98367309570312,0,-238.3772430419922,-66.29450988769531,-54.220272064208984,7.587167263031006,333.9844055175781,127.76380157470703,34.46923065185547
-6,Pressed,0.9910181760787964,1.710929036140442,1.1527312994003296,349.31475830078125,161.00125122070312,105.7327651977539,0,-238.863525390625,-66.21892547607422,-62.350440979003906,7.973990440368652,336.93682861328125,127.75941467285156,33.87596130371094
-6,Pressed,0.9840011596679688,1.6852680444717407,1.152361273765564,347.651123046875,158.45840454101562,111.75765228271484,0,-240.34075927734375,-65.4906997680664,-75.38785552978516,10.143552780151367,343.0514221191406,127.75800323486328,31.209409713745117
-6,Pressed,0.9855629205703735,1.6865953207015991,1.1410454511642456,350.891845703125,160.1067352294922,113.37213897705078,0,-242.13113403320312,-64.33097076416016,-80.25985717773438,12.76977252960205,347.39776611328125,127.75896453857422,27.207006454467773
-6,Pressed,1.000335454940796,1.7196919918060303,1.1208984851837158,359.84716796875,165.4724884033203,111.18450164794922,0,-243.81268310546875,-62.6702766418457,-76.05999755859375,15.162463188171387,349.6011657714844,127.7503433227539,22.306133270263672
-6,Pressed,1.0130784511566162,1.744506597518921,1.1023484468460083,8.519123077392578,169.59982299804688,112.1537094116211,0,-245.4407958984375,-60.37868118286133,-74.01779174804688,17.26345443725586,350.9100036621094,127.7514877319336,16.216156005859375
-6,Pressed,1.0118083953857422,1.7393373250961304,1.0979139804840088,12.167760848999023,170.80740356445312,117.77529907226562,0,-246.86776733398438,-57.66252899169922,-80.70187377929688,18.679582595825195,352.5361022949219,127.74417114257812,9.000134468078613
-6,Pressed,0.9953802824020386,1.715635895729065,1.0976365804672241,12.664518356323242,170.72837829589844,126.77478790283203,0,-247.9754638671875,-54.246681213378906,-93.88919067382812,19.680824279785156,354.3505859375,127.74620056152344,0.06539193540811539
-6,Pressed,0.9760500192642212,1.6997654438018799,1.0906925201416016,13.946858406066895,172.71994018554688,137.2998504638672,0,-248.2454376220703,-49.853939056396484,-107.34085845947266,20.28241729736328,355.3468322753906,127.74358367919922,-10.852178573608398
-6,Pressed,0.9639554023742676,1.697264313697815,1.0829815864562988,15.496164321899414,177.326416015625,146.8976287841797,0,-247.14581298828125,-45.576324462890625,-118.69523620605469,20.335800170898438,356.2040100097656,127.7371597290039,-21.616594314575195
-6,Pressed,0.9517176151275635,1.6980290412902832,1.0755863189697266,15.119627952575684,182.47216796875,156.4220733642578,0,-244.58631896972656,-41.63819885253906,-130.9365692138672,19.885053634643555,356.9323425292969,127.73033142089844,-31.97270393371582
-6,Pressed,0.9366533160209656,1.6989377737045288,1.0672355890274048,12.874582290649414,185.96923828125,164.1512908935547,0,-241.31214904785156,-38.831539154052734,-143.87359619140625,19.05793571472168,358.253173828125,127.73648834228516,-40.56029510498047
-6,Pressed,0.9260172247886658,1.705665111541748,1.0612019300460815,9.95060920715332,189.64944458007812,171.34890747070312,0,-237.00030517578125,-36.54812240600586,-155.89915466308594,17.780223846435547,358.8341369628906,127.73104095458984,-48.4028434753418
-6,Pressed,0.9202783107757568,1.716115117073059,1.0596418380737305,6.746529579162598,193.2750244140625,177.62075805664062,0,-232.08840942382812,-35.015689849853516,-166.5264892578125,16.0091552734375,358.9718322753906,127.72074127197266,-55.179100036621094
-4,Pressed,0.9167886972427368,1.723037838935852,1.0615906715393066,6.989936351776123,193.8747100830078,179.64111328125,0,-231.45626831054688,-35.08184814453125,-166.9171905517578,14.144140243530273,358.02899169921875,127.70902252197266,-56.08710479736328
-4,Pressed,0.913091242313385,1.733178973197937,1.0668669939041138,11.54919147491455,193.2777099609375,179.54769897460938,0,-234.14451599121094,-36.1533203125,-159.6701202392578,10.895779609680176,356.80218505859375,127.71692657470703,-53.6397590637207
-4,Pressed,0.9062097072601318,1.741195797920227,1.069114327430725,14.782349586486816,192.37020874023438,179.879638671875,0,-235.98980712890625,-37.34635543823242,-151.62921142578125,7.822049617767334,352.43450927734375,127.71593475341797,-51.83781051635742
-4,Pressed,0.895635724067688,1.7678475379943848,1.06764817237854,16.731433868408203,192.37896728515625,186.06227111816406,0,-234.5450439453125,-38.2208251953125,-89.03614807128906,3.032897710800171,287.70208740234375,127.35101318359375,-50.62746810913086
2,Pressed,0.893396258354187,1.7626336812973022,1.0631223917007446,19.3671875,189.9874725341797,181.74696350097656,0,-233.0773162841797,-37.537742614746094,-28.663944244384766,-3.0865650177001953,228.2870330810547,127.75263977050781,-50.085205078125
2,Pressed,0.8966108560562134,1.7747077941894531,1.0577930212020874,20.14540672302246,189.16610717773438,182.84130859375,0,-233.46417236328125,-36.46795654296875,-32.56939697265625,-2.6418120861053467,232.32369995117188,127.75481414794922,-49.088294982910156
2,Pressed,0.8966783285140991,1.783116102218628,1.0515928268432617,20.345375061035156,187.90846252441406,183.8568878173828,0,-233.83563232421875,-35.6721305847168,-35.89590835571289,-2.2593932151794434,235.04550170898438,127.75352478027344,-48.21660614013672
2,Pressed,0.8984176516532898,1.7926180362701416,1.045872688293457,20.854230880737305,186.88394165039062,184.81814575195312,0,-234.30052185058594,-34.814327239990234,-40.00098419189453,-1.8207756280899048,239.02279663085938,127.75322723388672,-47.271114349365234
2,Pressed,0.903697669506073,1.8021599054336548,1.0432460308074951,21.920957565307617,186.73309326171875,185.3408660888672,0,-234.8090362548828,-33.9549560546875,-39.32011413574219,-1.341905117034912,239.54270935058594,127.75694274902344,-46.2027473449707
2,Pressed,0.9105061292648315,1.8112833499908447,1.0435346364974976,23.529123306274414,187.11305236816406,185.47906494140625,0,-235.33253479003906,-33.13066482543945,-32.73622512817383,-0.9783885478973389,235.17555236816406,127.58358764648438,-44.984588623046875
-3,Pressed,0.9138901233673096,1.816489577293396,1.0377511978149414,24.509252548217773,187.92666625976562,185.23683166503906,0,-236.2675323486328,-32.35868835449219,-32.01697540283203,-1.7452033758163452,236.0586395263672,127.73429107666016,-45.750675201416016
-3,Pressed,0.9119715094566345,1.820858120918274,1.024411678314209,24.889312744140625,188.25875854492188,185.45175170898438,0,-237.84642028808594,-31.045169830322266,-23.761638641357422,-3.2715377807617188,228.447021484375,127.76553344726562,-47.38680648803711
-3,Pressed,0.9052760601043701,1.8195792436599731,1.0072853565216064,24.258514404296875,187.40292358398438,185.21084594726562,0,-240.14739990234375,-29.852052688598633,-11.40916919708252,-5.22078275680542,216.23635864257812,127.76556396484375,-48.77467346191406
-3,Pressed,0.8987303972244263,1.8191397190093994,0.987008810043335,23.441951751708984,186.30198669433594,185.23748779296875,0,-243.04293823242188,-28.57291030883789,-2.7825589179992676,-7.163309574127197,207.8130645751953,127.75238037109375,-50.141807556152344
-3,Pressed,0.8971326947212219,1.820378065109253,0.9702344536781311,23.26704216003418,186.36785888671875,185.2128143310547,0,-246.15614318847656,-27.361469268798828,4.302812099456787,-8.954978942871094,202.4333953857422,127.74019622802734,-51.5359992980957
-3,Pressed,0.9011882543563843,1.823145866394043,0.9587240815162659,23.800283432006836,187.99896240234375,185.15121459960938,0,-249.41241455078125,-26.227005004882812,11.58427906036377,-10.650473594665527,198.63345336914062,127.73888397216797,-53.026885986328125
-3,Pressed,0.9067698121070862,1.8262622356414795,0.9487886428833008,24.406879425048828,190.1394500732422,185.30776977539062,0,-252.72938537597656,-25.18476676940918,18.231002807617188,-12.264351844787598,195.82968139648438,127.74176788330078,-54.640377044677734
-3,Pressed,0.9089110493659973,1.8280370235443115,0.935714602470398,24.47400665283203,191.3846435546875,185.67999267578125,0,-256.0943603515625,-24.253389358520508,22.915712356567383,-13.81005573272705,193.82321166992188,127.73970031738281,-56.376155853271484
-3,Pressed,0.9070743322372437,1.8281707763671875,0.9190114736557007,24.052717208862305,191.5240936279297,186.09751892089844,0,-259.4923400878906,-23.457090377807617,25.683252334594727,-15.251886367797852,192.47691345214844,127.73210906982422,-58.211761474609375
-3,Pressed,0.9047827124595642,1.8277666568756104,0.8993008136749268,23.431814193725586,191.59503173828125,186.61611938476562,0,-263.4194641113281,-22.62677001953125,28.359230041503906,-16.83197021484375,191.18386840820312,127.7305908203125,-60.482112884521484
-3,Pressed,0.9041571617126465,1.8275730609893799,0.8837259411811829,22.994577407836914,192.1642608642578,187.14927673339844,0,-266.76214599609375,-21.967313766479492,30.590782165527344,-18.129716873168945,190.39617919921875,127.72530364990234,-62.6888427734375
-3,Pressed,0.9047703742980957,1.827510952949524,0.8687016367912292,22.494665145874023,193.28372192382812,187.8541717529297,0,-270.2059631347656,-21.294300079345703,33.04712677001953,-19.445751190185547,189.59255981445312,127.72561645507812,-65.28947448730469
-3,Pressed,0.9047262668609619,1.8268522024154663,0.8510389924049377,21.61219024658203,194.38079833984375,188.7194061279297,0,-273.87921142578125,-20.579792022705078,35.077537536621094,-20.815980911254883,188.7344970703125,127.73056030273438,-68.49345397949219
-3,Pressed,0.9027802348136902,1.8253061771392822,0.833166241645813,20.6307315826416,194.67300415039062,189.3590850830078,0,-276.8625793457031,-20.0290470123291,35.32969284057617,-21.89705467224121,188.4915008544922,127.72395324707031,-71.51261901855469
1,Pressed,0.9068077802658081,1.8254685401916504,0.821810781955719,20.242189407348633,193.53555297851562,189.13726806640625,0,-279.9711608886719,-19.27849769592285,37.94377136230469,-23.191213607788086,187.5193328857422,127.73261260986328,-71.58799743652344
1,Pressed,0.924718976020813,1.829932689666748,0.827428936958313,21.817129135131836,193.55369567871094,188.0613555908203,0,-284.2369689941406,-18.380281448364258,46.207237243652344,-25.102224349975586,186.8153533935547,127.72837829589844,-68.31150817871094
1,Pressed,0.9469457864761353,1.8359116315841675,0.8382493853569031,23.57577896118164,194.6762237548828,187.05517578125,0,-288.7684020996094,-17.751331329345703,56.54115295410156,-26.906644821166992,185.87538146972656,127.7310791015625,-64.48797607421875
-1,Pressed,0.9476529359817505,1.8369845151901245,0.8444592952728271,23.535198211669922,196.76649475097656,187.7671356201172,0,-287.1577453613281,-17.807025909423828,55.7099494934082,-26.435546875,186.054931640625,127.7332534790039,-65.55097198486328
-1,Pressed,0.9281808733940125,1.8318814039230347,0.836484432220459,22.085939407348633,196.0273895263672,188.65078735351562,0,-283.1385803222656,-18.441280364990234,46.90185546875,-24.78995132446289,186.88255310058594,127.73179626464844,-68.87250518798828
-1,Pressed,0.9084200263023376,1.8260819911956787,0.8245271444320679,20.664413452148438,194.34877014160156,189.18499755859375,0,-280.05780029296875,-19.318227767944336,38.39363098144531,-23.22781753540039,187.97525024414062,127.72418212890625,-71.70120239257812
-1,Pressed,0.8916046619415283,1.8217085599899292,0.8197528719902039,19.28890609741211,194.4198455810547,190.11648559570312,0,-276.5318908691406,-20.464582443237305,31.215476989746094,-21.28815460205078,188.8653564453125,127.72496032714844,-74.58541107177734
-1,Pressed,0.8786174058914185,1.8181471824645996,0.8182367086410522,18.388835906982422,194.98724365234375,190.85516357421875,0,-273.9499206542969,-21.634370803833008,26.070938110351562,-19.58755111694336,189.85934448242188,127.72404479980469,-76.821533203125
-1,Pressed,0.8643797039985657,1.8139320611953735,0.8153026700019836,17.376026153564453,195.1820831298828,191.53536987304688,0,-271.69775390625,-23.012895584106445,20.820215225219727,-17.713809967041016,191.02484130859375,127.7251968383789,-78.94425201416016
-1,Pressed,0.8484741449356079,1.8087862730026245,0.8095767498016357,16.14302635192871,194.7465057373047,192.13214111328125,0,-269.8179016113281,-24.611833572387695,15.044445037841797,-15.655869483947754,192.53994750976562,127.72761535644531,-80.9614028930664
-1,Pressed,0.8340683579444885,1.8036038875579834,0.8033229112625122,14.963677406311035,194.0900115966797,192.57359313964844,0,-268.4638977050781,-26.16448974609375,9.566996574401855,-13.777820587158203,194.39321899414062,127.72824096679688,-82.62787628173828
-1,Pressed,0.8198273181915283,1.7982819080352783,0.7979665994644165,13.8497314453125,193.60643005371094,193.0472869873047,0,-267.32525634765625,-27.87618064880371,3.8635811805725098,-11.745440483093262,196.96710205078125,127.73228454589844,-84.18146514892578
-1,Pressed,0.8070822954177856,1.7930612564086914,0.7932578325271606,12.821279525756836,193.1748504638672,193.44068908691406,0,-266.4747619628906,-29.532690048217773,-2.011881113052368,-9.859906196594238,200.26344299316406,127.73628997802734,-85.50157928466797
-1,Pressed,0.795866072177887,1.7882916927337646,0.789517879486084,11.958346366882324,192.87767028808594,193.81527709960938,0,-265.8772888183594,-31.118227005004883,-8.418900489807129,-8.094535827636719,204.68850708007812,127.74020385742188,-86.60482025146484
-1,Pressed,0.783950924873352,1.7833526134490967,0.7857054471969604,10.953250885009766,192.61094665527344,194.3103790283203,0,-265.4590759277344,-32.94192123413086,-17.177501678466797,-6.002702236175537,211.6051788330078,127.75504302978516,-87.66914367675781
1,Pressed,0.7850937843322754,1.7843480110168457,0.7811899185180664,10.36013412475586,191.5708465576172,194.2216339111328,0,-265.5058898925781,-32.55085754394531,-16.11128807067871,-6.300307273864746,209.52987670898438,127.75982666015625,-87.45056915283203
-3,Pressed,0.7898929119110107,1.785473346710205,0.779575526714325,10.939604759216309,192.9809112548828,194.09913635253906,0,-266.4552001953125,-31.77460479736328,-11.296019554138184,-7.481827735900879,206.2948760986328,127.71623229980469,-88.47953033447266
-3,Pressed,0.7915315628051758,1.785823941230774,0.7672940492630005,10.397870063781738,195.06785583496094,194.44900512695312,0,-268.3607177734375,-31.33185386657715,-7.880793571472168,-8.12056827545166,203.6677703857422,127.75848388671875,-91.73381805419922
-3,Pressed,0.7910349369049072,1.7848856449127197,0.7489573955535889,9.021818161010742,195.09698486328125,194.4749755859375,0,-269.9052429199219,-31.060510635375977,-8.112174034118652,-8.643101692199707,202.5535430908203,127.74037170410156,-94.52890014648438
-3,Pressed,0.7907483577728271,1.7836847305297852,0.7256026268005371,7.099328517913818,194.6018829345703,194.34310913085938,0,-271.5821228027344,-30.82069969177246,-9.25667953491211,-9.106396675109863,201.4456329345703,127.73829650878906,-97.73037719726562
-3,Pressed,0.7910369634628296,1.7824705839157104,0.7044005990028381,5.382882595062256,194.26119995117188,194.1404266357422,0,-273.0692443847656,-30.691165924072266,-10.756072044372559,-9.46074390411377,200.8751220703125,127.72284698486328,-100.76944732666016
-3,Pressed,0.7919620275497437,1.7816495895385742,0.6887653470039368,4.186219215393066,195.2010498046875,194.07740783691406,0,-274.4971923828125,-30.619741439819336,-11.109983444213867,-9.696539878845215,200.33119201660156,127.72213745117188,-103.99408721923828
-3,Pressed,0.7928088307380676,1.7808287143707275,0.6757762432098389,3.1936535835266113,196.72476196289062,194.0597381591797,0,-275.8554992675781,-30.628559112548828,-11.094531059265137,-9.813211441040039,199.89602661132812,127.72749328613281,-107.31315612792969
-3,Pressed,0.7936946153640747,1.7797741889953613,0.6600632667541504,1.88749361038208,197.8641815185547,193.87664794921875,0,-277.2220153808594,-30.719377517700195,-11.806121826171875,-9.818326950073242,199.58653259277344,127.73553466796875,-110.78054809570312
-3,Pressed,0.7949272394180298,1.7783489227294922,0.640867292881012,0.2859995663166046,198.00279235839844,193.3990936279297,0,-278.4913024902344,-30.903034210205078,-13.966899871826172,-9.76600170135498,199.77725219726562,127.72624969482422,-113.99420928955078
-3,Pressed,0.7968384623527527,1.7769122123718262,0.6196209192276001,358.46185302734375,198.16065979003906,192.74404907226562,0,-279.869140625,-31.18450355529785,-16.352230072021484,-9.556273460388184,199.90789794921875,127.73259735107422,-117.52989196777344
-3,Pressed,0.7987681031227112,1.775549292564392,0.6013133525848389,356.97735595703125,198.59251403808594,192.12893676757812,0,-281.1484069824219,-31.52244758605957,-18.61772346496582,-9.286151885986328,200.4180450439453,127.72746276855469,-120.80023956298828
-3,Pressed,0.8004631400108337,1.7740229368209839,0.5846474170684814,355.68487548828125,199.40414428710938,191.52102661132812,0,-282.4539794921875,-31.954551696777344,-20.545095443725586,-8.885787963867188,201.0174560546875,127.73065948486328,-124.06629180908203
-3,Pressed,0.802020788192749,1.7725144624710083,0.5694804191589355,354.579833984375,200.39898681640625,190.95330810546875,0,-283.757568359375,-32.43102264404297,-22.31400489807129,-8.405086517333984,201.80587768554688,127.73095703125,-127.18997955322266
-3,Pressed,0.8039391040802002,1.77091383934021,0.5533233284950256,353.4347229003906,201.2332000732422,190.28060913085938,0,-285.1134033203125,-32.99654006958008,-24.672664642333984,-7.812582015991211,203.05088806152344,127.73407745361328,-130.28616333007812
-3,Pressed,0.8065558671951294,1.7693811655044556,0.5363145470619202,352.2591857910156,201.78468322753906,189.4936981201172,0,-286.5135192871094,-33.60118103027344,-27.48280143737793,-7.158413410186768,204.5972442626953,127.73297882080078,-133.21444702148438
-3,Pressed,0.8097512722015381,1.7678676843643188,0.5187063217163086,351.07867431640625,202.23941040039062,188.6156005859375,0,-288.0084228515625,-34.269588470458984,-30.703907012939453,-6.395907878875732,206.5489959716797,127.73629760742188,-136.0719757080078
-3,Pressed,0.8128237724304199,1.7665989398956299,0.5030304193496704,350.1069030761719,202.85609436035156,187.87855529785156,0,-289.5026550292969,-34.925880432128906,-34.1757926940918,-5.60145378112793,209.18472290039062,127.73199462890625,-138.71505737304688
-3,Pressed,0.8158278465270996,1.7653049230575562,0.48831629753112793,349.2729187011719,203.62353515625,187.2118682861328,0,-291.0993347167969,-35.601806640625,-37.533836364746094,-4.714056015014648,212.1004638671875,127.73423767089844,-141.2148895263672
-3,Pressed,0.8193072080612183,1.7643828392028809,0.4749670624732971,348.5691223144531,204.11767578125,186.6236572265625,0,-292.58648681640625,-36.14989471435547,-41.120635986328125,-3.995164632797241,215.3106231689453,127.69792938232422,-143.29202270507812
-3,Pressed,0.8210403919219971,1.7626609802246094,0.4636780023574829,348.125,205.57191467285156,186.24456787109375,0,-294.38970947265625,-36.8036994934082,-40.92560577392578,-2.850785493850708,215.9364471435547,127.74040222167969,-145.4427947998047
-3,Pressed,0.8227712512016296,1.759141445159912,0.44928401708602905,347.48114013671875,206.589599609375,185.3872528076172,0,-296.1614074707031,-37.35437774658203,-25.3324031829834,-1.6959733963012695,200.70578002929688,127.75220489501953,-147.11830139160156
1,Pressed,0.8302574157714844,1.7581013441085815,0.43722838163375854,346.9151611328125,206.38055419921875,183.88954162597656,0,-296.8161926269531,-37.53057861328125,-30.76805877685547,-1.8926655054092407,204.11956787109375,127.75120544433594,-149.00523376464844
1,Pressed,0.8451420068740845,1.7654218673706055,0.4334549605846405,346.73858642578125,207.0850067138672,183.1953582763672,0,-296.7944030761719,-36.08848190307617,-40.9349250793457,-3.962470769882202,212.29620361328125,127.7551498413086,-152.14625549316406
1,Pressed,0.8540620803833008,1.767927885055542,0.43015915155410767,346.7008056640625,207.71360778808594,182.34140014648438,0,-296.77386474609375,-35.15871047973633,-38.29209518432617,-5.28512716293335,208.31411743164062,127.7376937866211,-154.0348358154297
1,Pressed,0.8645954132080078,1.770056962966919,0.4262019991874695,346.7486572265625,208.45054626464844,181.17494201660156,0,-296.8172912597656,-34.13493728637695,-35.23320770263672,-6.788324356079102,203.68170166015625,127.73055267333984,-156.16763305664062
1,Pressed,0.8769208192825317,1.7729674577713013,0.4215303063392639,346.70416259765625,209.0540008544922,179.8223114013672,0,-296.8968200683594,-33.03587341308594,-33.431705474853516,-8.309357643127441,199.95289611816406,127.72740936279297,-158.4296875
-1,Pressed,0.8799942135810852,1.7733869552612305,0.4176160991191864,346.3736572265625,208.05096435546875,179.28160095214844,0,-296.9295959472656,-33.09894561767578,-34.430267333984375,-8.267930030822754,199.81224060058594,127.73683166503906,-158.26144409179688
-1,Pressed,0.8626607656478882,1.7692432403564453,0.4245573878288269,346.50384521484375,207.5433349609375,181.203369140625,0,-296.8358154296875,-34.572303771972656,-37.022438049316406,-6.244392395019531,205.24658203125,127.71519470214844,-155.35569763183594
-1,Pressed,0.8510680794715881,1.7663021087646484,0.43152016401290894,346.9173278808594,207.8129425048828,182.6171417236328,0,-296.7916564941406,-35.429500579833984,-38.211708068847656,-5.059654712677002,208.8389129638672,127.73091888427734,-153.6526641845703
1,Pressed,0.8482074737548828,1.7665505409240723,0.43595966696739197,347.20916748046875,208.76589965820312,183.251708984375,0,-296.7311706542969,-35.35613250732422,-37.61075973510742,-5.05130672454834,209.4005889892578,127.71647644042969,-153.76300048828125
1,Pressed,0.8611987829208374,1.7692785263061523,0.4302791655063629,347.11505126953125,209.338623046875,181.71511840820312,0,-296.78656005859375,-34.149497985839844,-33.89990997314453,-6.755596160888672,203.52935791015625,127.74092864990234,-156.15037536621094
1,Pressed,0.8771944046020508,1.7730131149291992,0.4212456941604614,346.6789245605469,209.00405883789062,179.7661895751953,0,-296.8934020996094,-33.03495788574219,-33.48807144165039,-8.312976837158203,199.90951538085938,127.7295150756836,-158.4454803466797
1,Pressed,0.8944933414459229,1.7773953676223755,0.41262584924697876,346.2983703613281,208.6922607421875,177.83102416992188,0,-297.01629638671875,-31.88762664794922,-33.98062515258789,-9.864850997924805,197.11749267578125,127.7219467163086,-160.87889099121094
3,Pressed,0.8955063819885254,1.7792028188705444,0.42080020904541016,346.6648254394531,209.3210906982422,177.9000701904297,0,-296.0804138183594,-30.94133758544922,-31.75058937072754,-11.033448219299316,194.8304443359375,127.74778747558594,-160.7525177001953
3,Pressed,0.8927310705184937,1.7817466259002686,0.43837854266166687,347.1859436035156,208.4998779296875,178.87559509277344,0,-293.8763122558594,-29.597070693969727,-30.282686233520508,-12.775835990905762,193.4709014892578,127.73007202148438,-158.088623046875
3,Pressed,0.8909794688224792,1.7840642929077148,0.45304030179977417,347.5740661621094,207.57070922851562,179.6590118408203,0,-292.0451354980469,-28.475126266479492,-29.002195358276367,-14.132128715515137,192.26812744140625,127.72982788085938,-155.54867553710938
3,Pressed,0.8894056677818298,1.7862850427627563,0.4675188958644867,348.001220703125,206.54916381835938,180.51864624023438,0,-290.31561279296875,-27.4002685546875,-27.82135772705078,-15.383160591125488,191.3494873046875,127.73027801513672,-152.8423309326172
3,Pressed,0.887370228767395,1.788271427154541,0.4835561215877533,348.641845703125,205.545654296875,181.61199951171875,0,-288.6305236816406,-26.296886444091797,-26.359468460083008,-16.644290924072266,190.6717987060547,127.72722625732422,-149.77191162109375
3,Pressed,0.8840917944908142,1.789931058883667,0.5020648241043091,349.5403137207031,204.8757781982422,182.9110565185547,0,-287.01116943359375,-25.21585464477539,-24.20810890197754,-17.81906509399414,190.0718536376953,127.72698211669922,-146.39166259765625
3,Pressed,0.8809781074523926,1.7915931940078735,0.5221168994903564,350.7215270996094,204.07130432128906,184.3958282470703,0,-285.54156494140625,-24.109647750854492,-21.695858001708984,-18.984874725341797,189.7124481201172,127.72229766845703,-142.4793243408203
3,Pressed,0.8782115578651428,1.7931431531906128,0.5415056943893433,351.98699951171875,203.265625,185.7744903564453,0,-284.3491516113281,-23.141788482666016,-18.94627571105957,-19.9461612701416,189.38287353515625,127.72148895263672,-138.48580932617188
3,Pressed,0.8754745721817017,1.794838786125183,0.5639544725418091,353.7453918457031,202.3524169921875,187.37570190429688,0,-283.3919982910156,-22.137882232666016,-15.3793306350708,-20.909255981445312,189.26658630371094,127.71665954589844,-133.64859008789062
3,Pressed,0.8734124302864075,1.796086072921753,0.5802251100540161,354.9327392578125,201.71591186523438,188.30360412597656,0,-282.73931884765625,-21.550249099731445,-12.414346694946289,-21.395061492919922,188.79568481445312,127.72457885742188,-130.03724670410156
2,Pressed,0.8733834028244019,1.8027880191802979,0.5937421917915344,355.4205322265625,201.96742248535156,189.93995666503906,0,-282.43426513671875,-20.772850036621094,-10.393149375915527,-21.085723876953125,189.1981201171875,127.71930694580078,-127.88150024414062
2,Pressed,0.8753252029418945,1.8090229034423828,0.5943557620048523,354.80096435546875,201.69114685058594,190.84567260742188,0,-282.3731994628906,-20.331485748291016,-10.703814506530762,-20.430925369262695,189.46438598632812,127.72010040283203,-127.66526794433594
2,Pressed,0.8783482313156128,1.8160278797149658,0.5921247005462646,354.00872802734375,200.85853576660156,191.80894470214844,0,-282.44598388671875,-19.866140365600586,-11.633256912231445,-19.671064376831055,189.9155731201172,127.71803283691406,-127.4711685180664
2,Pressed,0.880813479423523,1.8235218524932861,0.5921761989593506,353.2655334472656,200.4265899658203,192.93992614746094,0,-282.4505615234375,-19.389789581298828,-12.185821533203125,-18.807968139648438,190.3873291015625,127.71785736083984,-127.25505828857422
2,Pressed,0.8824551701545715,1.830796241760254,0.5945298671722412,352.6450500488281,200.4337615966797,194.13278198242188,0,-282.3842468261719,-18.951404571533203,-12.324138641357422,-17.918821334838867,190.86007690429688,127.71949768066406,-127.02680969238281
2,Pressed,0.884316086769104,1.8386883735656738,0.5970495939254761,351.982421875,200.41587829589844,195.44552612304688,0,-282.3338928222656,-18.494918823242188,-12.515451431274414,-16.926618576049805,191.43798828125,127.72205352783203,-126.76789093017578
2,Pressed,0.8863228559494019,1.8459138870239258,0.5982717275619507,351.3585205078125,200.14649963378906,196.648681640625,0,-282.3490295410156,-18.107980728149414,-12.973719596862793,-15.982677459716797,192.1025390625,127.72355651855469,-126.49686431884766
-1,Pressed,0.8824301958084106,1.8477025032043457,0.5980556011199951,351.30841064453125,199.46270751953125,197.34024047851562,0,-282.480712890625,-18.654176712036133,-13.48396110534668,-14.815054893493652,192.96429443359375,127.73375701904297,-125.68597412109375
-1,Pressed,0.8694868087768555,1.8448138236999512,0.5997785329818726,351.9971618652344,198.9793243408203,198.0443115234375,0,-282.6682434082031,-20.42898941040039,-14.345987319946289,-12.821282386779785,195.17739868164062,127.72889709472656,-124.20584106445312
1,Pressed,0.8709570169448853,1.845007061958313,0.6014018058776855,352.019287109375,199.50009155273438,197.9622344970703,0,-282.61529541015625,-20.150205612182617,-13.746438026428223,-13.186600685119629,194.76986694335938,127.72615051269531,-124.48889923095703
1,Pressed,0.882177472114563,1.8475582599639893,0.6001147031784058,351.42645263671875,200.00244140625,197.37161254882812,0,-282.4418640136719,-18.602760314941406,-13.113689422607422,-14.920228958129883,193.002685546875,127.7269287109375,-125.824462890625
1,Pressed,0.894722044467926,1.850073218345642,0.5964046120643616,350.58673095703125,200.1807098388672,196.60556030273438,0,-282.00885009765625,-17.00801658630371,-13.796093940734863,-16.719974517822266,191.60916137695312,127.72286224365234,-127.48326873779297
1,Pressed,0.9065424203872681,1.8521963357925415,0.5927425622940063,349.7005310058594,200.48692321777344,195.7904815673828,0,-281.19830322265625,-15.559883117675781,-15.312719345092773,-18.378658294677734,190.6082000732422,127.71707916259766,-129.34666442871094
1,Pressed,0.9200327396392822,1.854259729385376,0.5895872116088867,348.4634094238281,201.30398559570312,194.560791015625,0,-279.23406982421875,-13.927157402038574,-18.14175033569336,-20.31380844116211,189.40013122558594,127.71881866455078,-131.98675537109375
1,Pressed,0.9333240985870361,1.8559777736663818,0.585774838924408,346.9779052734375,202.36306762695312,192.96701049804688,0,-275.8381042480469,-12.464558601379395,-23.036836624145508,-22.18062973022461,188.3523712158203,127.71940612792969,-135.26254272460938
1,Pressed,0.9465471506118774,1.8573970794677734,0.5798617601394653,345.2994689941406,203.4652099609375,190.9413604736328,0,-270.8639831542969,-11.323650360107422,-30.473466873168945,-23.904491424560547,187.50645446777344,127.7176513671875,-139.24205017089844
1,Pressed,0.9638528823852539,1.8590340614318848,0.5697038173675537,342.8113098144531,205.1093292236328,187.26821899414062,0,-261.71728515625,-10.549607276916504,-43.883460998535156,-25.90616226196289,186.1532440185547,127.72168731689453,-145.56484985351562
1,Pressed,0.9839601516723633,1.8609931468963623,0.5541171431541443,340.446044921875,207.0492401123047,182.3085479736328,0,-252.33726501464844,-10.845630645751953,-59.98595428466797,-27.57638168334961,185.2108917236328,127.72504425048828,-153.85829162597656
-2,Pressed,1.0009284019470215,1.8582161664962769,0.5408250093460083,340.5143737792969,205.21829223632812,180.04750061035156,0,-249.20375061035156,-10.956872940063477,-67.56656646728516,-29.450010299682617,184.55587768554688,127.72953796386719,-156.5973358154297
-2,Pressed,0.9950615167617798,1.851732850074768,0.5471580028533936,341.98748779296875,205.86790466308594,180.39122009277344,0,-249.93148803710938,-10.770281791687012,-64.2850341796875,-30.440155029296875,184.39395141601562,127.7291030883789,-155.08412170410156
-2,Pressed,0.9892938137054443,1.8430671691894531,0.5532602071762085,343.9317932128906,206.37503051757812,180.62722778320312,0,-251.44554138183594,-10.623983383178711,-60.21554946899414,-31.768293380737305,184.32618713378906,127.72808837890625,-153.37261962890625
-2,Pressed,0.9878028035163879,1.8363423347473145,0.554425835609436,345.4327392578125,205.870361328125,180.70858764648438,0,-253.11610412597656,-10.527276039123535,-57.52260971069336,-32.88588333129883,184.3162384033203,127.7275161743164,-152.0490264892578
-2,Pressed,0.9872851371765137,1.8282651901245117,0.553886890411377,347.2001953125,205.03189086914062,180.63040161132812,0,-255.47921752929688,-10.490008354187012,-54.514434814453125,-34.218379974365234,184.372314453125,127.72725677490234,-150.7183837890625
-2,Pressed,0.9856017231941223,1.821234941482544,0.5552766919136047,348.67889404296875,204.8261260986328,180.400390625,0,-257.23260498046875,-10.533227920532227,-51.812034606933594,-35.325721740722656,184.3559112548828,127.726806640625,-149.71253967285156
-2,Pressed,0.9832860231399536,1.8134820461273193,0.5574445128440857,350.2606201171875,204.8552703857422,180.02084350585938,0,-259.0449523925781,-10.659953117370605,-48.88437271118164,-36.50014114379883,184.33432006835938,127.72611236572266,-148.7729949951172
-2,Pressed,0.9815776944160461,1.8052089214324951,0.5585342645645142,351.9182434082031,204.67958068847656,179.5305938720703,0,-261.1873779296875,-10.854375839233398,-45.87158966064453,-37.72886657714844,184.32498168945312,127.72557830810547,-147.86837768554688
-2,Pressed,0.980453610420227,1.7978804111480713,0.5589202642440796,353.3526916503906,204.42137145996094,179.01792907714844,0,-263.0865783691406,-11.080907821655273,-43.38813781738281,-38.80099105834961,184.3223114013672,127.72528839111328,-147.1445770263672
-2,Pressed,0.9792349338531494,1.7907497882843018,0.5593067407608032,354.71728515625,204.21974182128906,178.4598846435547,0,-264.891845703125,-11.359396934509277,-41.035865783691406,-39.80218505859375,184.31649780273438,127.72490692138672,-146.51406860351562
-2,Pressed,0.9777555465698242,1.7832281589508057,0.5598111748695374,356.127197265625,204.0725555419922,177.81988525390625,0,-266.7228088378906,-11.713597297668457,-38.62791442871094,-40.81108093261719,184.30856323242188,127.72464752197266,-145.9195556640625
-2,Pressed,0.9761111736297607,1.7750605344772339,0.560111939907074,357.62677001953125,203.90382385253906,177.07679748535156,0,-268.66729736328125,-12.167718887329102,-36.132484436035156,-41.85179138183594,184.30470275878906,127.72404479980469,-145.34498596191406
-2,Pressed,0.9745644927024841,1.7675728797912598,0.5601537227630615,358.97247314453125,203.7157440185547,176.35789489746094,0,-270.4103698730469,-12.644050598144531,-33.93690490722656,-42.75355911254883,184.2958221435547,127.72370910644531,-144.84982299804688
-2,Pressed,0.9729071259498596,1.7600847482681274,0.559994637966156,0.2872210741043091,203.51571655273438,175.60508728027344,0,-272.06378173828125,-13.186941146850586,-31.89650535583496,-43.59795379638672,184.29611206054688,127.72325134277344,-144.4107666015625
-2,Pressed,0.9711117744445801,1.7528928518295288,0.5597680807113647,1.523283839225769,203.33074951171875,174.86099243164062,0,-273.59234619140625,-13.766500473022461,-29.99846839904785,-44.346195220947266,184.29026794433594,127.72295379638672,-144.0117950439453
-2,Pressed,0.9691262245178223,1.7457473278045654,0.5593645572662354,2.7194559574127197,203.13714599609375,174.10227966308594,0,-275.03692626953125,-14.406981468200684,-28.222225189208984,-45.019622802734375,184.28656005859375,127.72264099121094,-143.64776611328125
-2,Pressed,0.9668675065040588,1.7382816076278687,0.5587242841720581,3.938873291015625,202.92037963867188,173.29757690429688,0,-276.47393798828125,-15.139681816101074,-26.479724884033203,-45.65016174316406,184.28741455078125,127.72222900390625,-143.3004913330078
-2,Pressed,0.9642870426177979,1.730653166770935,0.5578976273536682,5.147948265075684,202.69557189941406,172.4669189453125,0,-277.8535461425781,-15.957517623901367,-24.81117057800293,-46.20786666870117,184.28988647460938,127.72176361083984,-142.97340393066406
-2,Pressed,0.9613961577415466,1.7229841947555542,0.5568743944168091,6.322628974914551,202.46389770507812,171.62901306152344,0,-279.1521301269531,-16.849903106689453,-23.244516372680664,-46.67388153076172,184.29356384277344,127.72126007080078,-142.66845703125
-2,Pressed,0.9579015970230103,1.7145600318908691,0.555504322052002,7.566320419311523,202.20201110839844,170.7149200439453,0,-280.4769287109375,-17.906383514404297,-21.660818099975586,-47.07583236694336,184.3047332763672,127.7206039428711,-142.3654022216797
-2,Pressed,0.9544614553451538,1.7071523666381836,0.5541060566902161,8.604179382324219,201.96563720703125,169.91392517089844,0,-281.533203125,-18.908082962036133,-20.400394439697266,-47.318519592285156,184.315673828125,127.72034454345703,-142.1188201904297
-2,Pressed,0.9501776695251465,1.6985633373260498,0.55224609375,9.758806228637695,201.6898193359375,169.00881958007812,0,-282.6814880371094,-20.13224983215332,-19.034809112548828,-47.48695755004883,184.33033752441406,127.71973419189453,-141.85372924804688
-2,Pressed,0.9457180500030518,1.6904336214065552,0.5503067970275879,10.783973693847656,201.43453979492188,168.17071533203125,0,-283.6369934082031,-21.362470626831055,-17.90421485900879,-47.5190544128418,184.3536376953125,127.71946716308594,-141.6328582763672
2,Pressed,0.9462518095970154,1.691509485244751,0.550782322883606,10.656928062438965,201.50778198242188,168.2848663330078,0,-283.4963073730469,-21.190462112426758,-18.021032333374023,-47.52751159667969,184.34707641601562,127.71791076660156,-141.65733337402344
1,Pressed,0.957625687122345,1.6972689628601074,0.55191969871521,10.293660163879395,201.8479461669922,168.4029083251953,0,-281.8248596191406,-19.609821319580078,-20.776348114013672,-48.907779693603516,184.2338409423828,127.71646881103516,-143.1445770263672
1,Pressed,0.9794886708259583,1.7014306783676147,0.5497035384178162,10.513555526733398,201.72103881835938,167.8736114501953,0,-279.02349853515625,-17.50693702697754,-26.411296844482422,-51.847129821777344,183.94998168945312,127.71713256835938,-146.25094604492188
1,Pressed,1.001507043838501,1.7052357196807861,0.5479245185852051,10.739686965942383,201.6831817626953,167.38565063476562,0,-275.0845031738281,-15.568501472473145,-33.289794921875,-54.69709777832031,183.50372314453125,127.71818542480469,-149.66419982910156
-2,Pressed,1.0126227140426636,1.7038506269454956,0.5452227592468262,11.447845458984375,201.20895385742188,166.84527587890625,0,-273.3262023925781,-15.150213241577148,-37.23611831665039,-56.32600402832031,183.46978759765625,127.72216033935547,-151.69070434570312
2,Pressed,1.0118801593780518,1.7032467126846313,0.5458406209945679,11.550251960754395,201.3567352294922,166.7816162109375,0,-273.3453063964844,-15.226546287536621,-37.025325775146484,-56.356327056884766,183.47174072265625,127.71989440917969,-151.66976928710938
2,Pressed,1.0155885219573975,1.710270643234253,0.5468246936798096,10.325718879699707,201.68460083007812,167.4227752685547,0,-270.60809326171875,-14.373822212219238,-40.33456802368164,-56.09893798828125,183.3896942138672,127.72065734863281,-152.3573455810547
4,Pressed,1.015632152557373,1.7177430391311646,0.5462087392807007,8.003900527954102,202.0632781982422,166.58583068847656,0,-263.7798767089844,-15.06131649017334,-49.45649719238281,-55.19255447387695,183.10403442382812,127.72064208984375,-154.91285705566406
-4,Pressed,1.016851544380188,1.7185158729553223,0.5441404581069946,7.563269138336182,201.11557006835938,166.27325439453125,0,-262.89801025390625,-15.388250350952148,-51.52338790893555,-55.09254455566406,183.21343994140625,127.7230224609375,-155.06016540527344
-4,Pressed,1.017488956451416,1.7066364288330078,0.5472058057785034,12.56579303741455,201.77430725097656,169.4034423828125,0,-281.249755859375,-13.157302856445312,-26.62032699584961,-56.57965087890625,183.65525817871094,127.7214126586914,-149.2106475830078
-4,Pressed,1.0161832571029663,1.6986969709396362,0.5529434084892273,16.648481369018555,202.24014282226562,171.87747192382812,0,-301.4930114746094,-13.150891304016113,0.02558737061917782,-57.28523254394531,183.90724182128906,127.72108459472656,-143.0
-4,Pressed,1.01496422290802,1.6912832260131836,0.5586608648300171,21.805620193481445,202.10818481445312,174.6455535888672,0,-324.82415771484375,-16.156198501586914,31.726707458496094,-57.771419525146484,183.709228515625,127.72186279296875,-134.04823303222656
6,Pressed,1.0190452337265015,1.6792587041854858,0.5630447268486023,24.693174362182617,200.60281372070312,172.41232299804688,0,-327.1289367675781,-17.511783599853516,35.714332580566406,-60.22091293334961,183.57887268066406,127.72338104248047,-131.3182373046875
6,Pressed,1.0226500034332275,1.6675240993499756,0.5635679364204407,25.427194595336914,198.96023559570312,168.57443237304688,0,-319.7559814453125,-17.1430606842041,25.587697982788086,-62.51054000854492,183.63348388671875,127.7208251953125,-133.466552734375
-6,Pressed,1.020998477935791,1.6747446060180664,0.5628523230552673,25.00632667541504,199.8174591064453,170.9512939453125,0,-324.71258544921875,-17.324005126953125,32.1600227355957,-61.14460372924805,183.61325073242188,127.7199935913086,-132.03268432617188
-6,Pressed,1.0180922746658325,1.685971736907959,0.5607137680053711,24.211633682250977,201.3268280029297,174.588623046875,0,-330.8373107910156,-17.76238441467285,40.30522537231445,-58.90937042236328,183.5596466064453,127.72258758544922,-130.6619415283203
-6,Pressed,1.0162899494171143,1.6993530988693237,0.5561881065368652,23.096193313598633,202.9067840576172,178.74746704101562,0,-336.93682861328125,-18.305686950683594,47.970760345458984,-56.320579528808594,183.48974609375,127.72620391845703,-129.89642333984375
-6,Pressed,1.015235424041748,1.7136763334274292,0.5509036779403687,21.716100692749023,204.5984649658203,182.99880981445312,0,-342.3233337402344,-18.90298843383789,54.6751823425293,-53.6140251159668,183.4111328125,127.72960662841797,-129.685546875
-6,Pressed,1.0150216817855835,1.7274811267852783,0.545248806476593,20.240917205810547,206.12583923339844,186.94102478027344,0,-346.7498474121094,-19.504398345947266,60.072776794433594,-51.02627182006836,183.37799072265625,127.73235321044922,-129.8732147216797
-6,Pressed,1.01531982421875,1.7399580478668213,0.5398058295249939,18.792308807373047,207.42161560058594,190.3861541748047,0,-350.2364807128906,-20.09295082092285,64.32963562011719,-48.677547454833984,183.3571014404297,127.73392486572266,-130.2368927001953
-6,Pressed,1.0163259506225586,1.7541776895523071,0.533196210861206,17.03446388244629,208.8740234375,194.25265502929688,0,-353.79193115234375,-20.853822708129883,68.72570037841797,-45.98588943481445,183.3413543701172,127.73553466796875,-130.85064697265625
-6,Pressed,1.0179239511489868,1.7646048069000244,0.5277901291847229,15.331459045410156,209.96351623535156,197.6689910888672,0,-357.01959228515625,-20.853416442871094,70.6759033203125,-44.622520446777344,184.4836883544922,127.02055358886719,-132.60623168945312
2,Pressed,1.0186201333999634,1.7751491069793701,0.5269929766654968,14.044379234313965,210.2990264892578,199.71548461914062,0,-358.934326171875,-21.140918731689453,73.70156860351562,-42.978660583496094,184.388427734375,126.98294067382812,-132.10333251953125
2,Pressed,1.0182263851165771,1.7864995002746582,0.5323204398155212,13.369053840637207,209.96359252929688,200.55584716796875,0,-359.24542236328125,-21.51449203491211,77.50846862792969,-40.92390441894531,183.228515625,127.72820281982422,-129.2440185546875
2,Pressed,1.0177865028381348,1.796057939529419,0.5382952690124512,12.611714363098145,209.5995635986328,201.5904083251953,0,-360.0592346191406,-21.237268447875977,79.92666625976562,-39.795413970947266,183.17115783691406,127.73717498779297,-127.48805236816406
2,Pressed,1.017188310623169,1.8085576295852661,0.545924186706543,11.705164909362793,209.1717071533203,203.06455993652344,0,-360.9413757324219,-20.884449005126953,82.75535583496094,-38.2247314453125,183.20065307617188,127.73702239990234,-125.32286834716797
2,Pressed,1.0166897773742676,1.8159304857254028,0.5500200986862183,11.240252494812012,208.78138732910156,203.95571899414062,0,-361.3060607910156,-20.702247619628906,84.2472915649414,-37.19949722290039,183.18235778808594,127.73699951171875,-123.96207427978516
2,Pressed,1.016120433807373,1.825488567352295,0.5553078651428223,10.688065528869629,208.36387634277344,205.18521118164062,0,-361.69140625,-20.47110939025879,86.02837371826172,-35.83133316040039,183.21817016601562,127.7365493774414,-122.30452728271484
2,Pressed,1.015476942062378,1.8349603414535522,0.5606616139411926,10.189728736877441,207.9945068359375,206.43832397460938,0,-361.9151916503906,-20.241567611694336,87.66045379638672,-34.420597076416016,183.24203491210938,127.7361068725586,-120.688720703125
2,Pressed,1.014908790588379,1.8441283702850342,0.5654549598693848,9.784669876098633,207.56593322753906,207.69659423828125,0,-362.0193176269531,-20.0187931060791,89.00675964355469,-32.98020553588867,183.30398559570312,127.73551940917969,-119.13923645019531
1,Pressed,1.0265358686447144,1.847562313079834,0.5681182146072388,9.711739540100098,207.5221405029297,208.3426055908203,0,-366.7483215332031,-20.277774810791016,94.5782470703125,-33.97754669189453,182.9243621826172,127.73493194580078,-118.33650207519531
1,Pressed,1.0457935333251953,1.847602128982544,0.5715502500534058,9.66552448272705,207.98370361328125,208.65499877929688,0,-374.14031982421875,-21.028114318847656,102.81051635742188,-36.517478942871094,182.3611297607422,127.73825073242188,-117.94329833984375
1,Pressed,1.0654048919677734,1.847046136856079,0.5759575366973877,9.506617546081543,208.56637573242188,208.96995544433594,0,-381.14385986328125,-22.088096618652344,110.735595703125,-39.128692626953125,181.87155151367188,127.7422866821289,-117.52104187011719
-1,Pressed,1.0608913898468018,1.8480956554412842,0.5776593685150146,9.33535385131836,208.92759704589844,208.94619750976562,0,-379.6417541503906,-21.748472213745117,109.57038116455078,-38.557437896728516,181.93409729003906,127.74616241455078,-117.62825012207031
-1,Pressed,1.0430124998092651,1.8489062786102295,0.5747761130332947,9.429586410522461,208.59146118164062,208.72215270996094,0,-373.16748046875,-20.810344696044922,102.44984436035156,-36.17627716064453,182.4056854248047,127.742431640625,-117.99235534667969
-1,Pressed,1.022847056388855,1.8488333225250244,0.5708825588226318,9.539488792419434,208.02220153808594,208.44688415527344,0,-365.33489990234375,-20.095155715942383,93.65406036376953,-33.47780227661133,183.04330444335938,127.73831939697266,-118.35138702392578
-1,Pressed,1.003507375717163,1.8478262424468994,0.5668622851371765,9.621657371520996,207.3434600830078,208.14736938476562,0,-357.4937744140625,-19.768657684326172,84.68504333496094,-30.89365577697754,183.78106689453125,127.73538208007812,-118.64840698242188
-1,Pressed,0.9848117828369141,1.8459932804107666,0.5626828670501709,9.66051197052002,206.5434112548828,207.8131866455078,0,-349.84130859375,-19.800336837768555,75.72521209716797,-28.391328811645508,184.61752319335938,127.73290252685547,-118.88854217529297
-1,Pressed,0.9630143642425537,1.8435320854187012,0.5591372847557068,9.51628303527832,205.7015380859375,207.43423461914062,0,-341.10028076171875,-20.18276023864746,65.4071044921875,-25.44670295715332,185.7672882080078,127.72936248779297,-119.14246368408203
-1,Pressed,0.9439563751220703,1.8403996229171753,0.5553746819496155,9.315664291381836,204.73045349121094,207.0352020263672,0,-333.826171875,-20.887643814086914,56.327491760253906,-22.825763702392578,186.99447631835938,127.72713470458984,-119.32783508300781
-3,Pressed,0.9387418627738953,1.8362020254135132,0.5432610511779785,8.776771545410156,204.45445251464844,206.9510040283203,0,-332.2306213378906,-21.659509658813477,52.35807418823242,-21.790817260742188,187.578369140625,127.72481536865234,-121.24837493896484
-3,Pressed,0.9408119916915894,1.8302754163742065,0.5221452713012695,8.093181610107422,203.85824584960938,206.87033081054688,0,-333.2095947265625,-22.562641143798828,49.90803146362305,-21.310588836669922,187.83885192871094,127.72559356689453,-124.199462890625
-3,Pressed,0.9441176652908325,1.8236637115478516,0.4993401765823364,7.384372234344482,202.90631103515625,206.6341552734375,0,-334.1167907714844,-23.499357223510742,46.86397933959961,-20.740825653076172,188.2457275390625,127.72378540039062,-127.18794250488281
-3,Pressed,0.947357177734375,1.8174841403961182,0.47863227128982544,6.6225433349609375,202.26705932617188,206.44337463378906,0,-334.7503967285156,-24.446090698242188,43.89548110961914,-20.042560577392578,188.6968536376953,127.72309112548828,-130.1055908203125
-3,Pressed,0.9506701231002808,1.8113644123077393,0.45876845717430115,5.8137593269348145,201.7530059814453,206.24046325683594,0,-335.2001647949219,-25.437145233154297,40.8508415222168,-19.213096618652344,189.21261596679688,127.7231216430664,-132.9876708984375
-3,Pressed,0.9543301463127136,1.8051221370697021,0.43920567631721497,4.989387512207031,201.18203735351562,205.9599609375,0,-335.5196838378906,-26.464000701904297,37.59367752075195,-18.279109954833984,189.84274291992188,127.7230224609375,-135.77755737304688
-3,Pressed,0.9585663676261902,1.7986117601394653,0.4194314479827881,4.1365861892700195,200.48875427246094,205.56875610351562,0,-335.7378234863281,-27.541749954223633,33.967655181884766,-17.231250762939453,190.6641082763672,127.72321319580078,-138.5178680419922
2,Pressed,0.9643989205360413,1.8004367351531982,0.4090374708175659,3.3460655212402344,198.46238708496094,205.4517059326172,0,-336.1241455078125,-27.581497192382812,31.573421478271484,-16.257593154907227,191.3559112548828,127.72371673583984,-138.76658630371094
2,Pressed,0.9673515558242798,1.8086838722229004,0.4099135398864746,2.7291059494018555,197.11785888671875,206.20765686035156,0,-336.4988708496094,-27.019437789916992,31.121740341186523,-15.414216041564941,192.1361846923828,127.72055053710938,-137.66543579101562
2,Pressed,0.966931939125061,1.81862211227417,0.41625434160232544,2.165802240371704,196.9594268798828,207.49623107910156,0,-336.68560791015625,-26.458267211914062,31.932621002197266,-14.51285457611084,192.8013916015625,127.7259292602539,-136.48886108398438
2,Pressed,0.966198205947876,1.8269262313842773,0.4220829904079437,1.7506009340286255,196.87060546875,208.60269165039062,0,-336.7332763671875,-26.01365852355957,32.538814544677734,-13.716521263122559,193.42990112304688,127.73458099365234,-135.4373779296875
2,Pressed,0.9684131145477295,1.836954951286316,0.425037145614624,1.1586686372756958,195.715087890625,209.78428649902344,0,-336.98046875,-25.44141960144043,31.856576919555664,-12.585436820983887,194.78651428222656,127.73560333251953,-134.13209533691406
2,Pressed,0.9709993600845337,1.8427077531814575,0.42441239953041077,0.8251709342002869,194.16383361816406,210.29983520507812,0,-337.0195007324219,-25.088932037353516,30.26995086669922,-11.770261764526367,196.0036163330078,127.74071502685547,-133.10308837890625
2,Pressed,0.9747782945632935,1.851266622543335,0.42393362522125244,0.30653074383735657,192.2477569580078,211.22203063964844,0,-337.16766357421875,-24.617843627929688,27.847633361816406,-10.58037281036377,198.15037536621094,127.73908996582031,-131.83026123046875
2,Pressed,0.976896345615387,1.8576936721801758,0.42418554425239563,0.005296171642839909,190.86036682128906,211.97360229492188,0,-337.0865783691406,-24.31186294555664,25.431461334228516,-9.628162384033203,200.31065368652344,127.7465591430664,-130.7822265625
2,Pressed,0.979023277759552,1.8662577867507935,0.42570871114730835,359.630859375,189.50282287597656,213.11932373046875,0,-336.97802734375,-23.963346481323242,22.000728607177734,-8.397062301635742,203.74871826171875,127.74844360351562,-129.56373596191406
2,Pressed,0.9801183342933655,1.8723595142364502,0.4266844689846039,359.4654541015625,188.41685485839844,213.99176025390625,0,-336.72119140625,-23.794158935546875,18.16417694091797,-7.426286220550537,207.4287567138672,127.7463150024414,-128.56451416015625
2,Pressed,0.9818804860115051,1.8796770572662354,0.42738378047943115,359.21966552734375,187.07460021972656,215.0437774658203,0,-336.45013427734375,-23.648038864135742,12.169686317443848,-6.222310543060303,213.1516571044922,127.74440002441406,-127.4422607421875
2,Pressed,0.9838636517524719,1.887376308441162,0.42771828174591064,358.93951416015625,185.53810119628906,216.1476593017578,0,-336.1413269042969,-23.620132446289062,3.035848379135132,-4.848102569580078,221.86109924316406,127.74661254882812,-126.21629333496094
2,Pressed,0.9857621788978577,1.8940751552581787,0.4273020923137665,358.64617919921875,183.93142700195312,217.07049560546875,0,-335.98968505859375,-23.79477310180664,-9.024615287780762,-3.4334309101104736,233.4803466796875,127.74504089355469,-124.96932220458984
2,Pressed,0.9881261587142944,1.9012904167175293,0.4292030930519104,358.2073669433594,182.57339477539062,217.91082763671875,0,-336.37347412109375,-23.911638259887695,-22.985002517700195,-1.9271596670150757,247.7216796875,127.7610092163086,-123.57164764404297
2,Pressed,0.9907084703445435,1.907762885093689,0.4341234564781189,357.9471435546875,181.94903564453125,218.6362762451172,0,-337.23681640625,-23.703256607055664,-31.09140396118164,-0.8850640058517456,257.1043701171875,127.76465606689453,-122.28303527832031
2,Pressed,0.9906103014945984,1.9154655933380127,0.43995779752731323,357.96588134765625,182.0328369140625,220.1138458251953,0,-338.1611633300781,-23.31913948059082,-32.76797103881836,-0.4947441816329956,260.9884033203125,127.17649841308594,-121.1809310913086
2,Pressed,0.9871836304664612,1.9251601696014404,0.44605469703674316,357.9991760253906,182.58880615234375,222.35765075683594,0,-338.9491271972656,-22.932655334472656,-31.233505249023438,-0.3698274493217468,262.1937561035156,125.92806243896484,-120.19922637939453
2,Pressed,0.9836103916168213,1.9355521202087402,0.45037588477134705,358.0383605957031,182.7401885986328,224.76968383789062,0,-339.774169921875,-22.555559158325195,-29.727643966674805,-0.3423251211643219,263.14324951171875,124.37608337402344,-119.19795227050781
2,Pressed,0.9808289408683777,1.945601224899292,0.45200440287590027,358.0482177734375,182.2249298095703,227.0155029296875,0,-340.60906982421875,-22.19843292236328,-28.90261459350586,-0.32513484358787537,264.06982421875,122.71533203125,-118.18818664550781
-2,Pressed,0.9820746183395386,1.9429585933685303,0.4495515525341034,358.0868835449219,181.8638916015625,226.44879150390625,0,-340.4977722167969,-22.280805587768555,-29.502958297729492,-0.4071073830127716,263.9126892089844,123.02586364746094,-118.37303924560547
-2,Pressed,0.9853329658508301,1.9329495429992676,0.44629985094070435,357.9934997558594,181.89256286621094,224.1401824951172,0,-339.6965026855469,-22.618743896484375,-30.812664031982422,-0.3968920111656189,263.0445556640625,124.58316040039062,-119.32633972167969
-2,Pressed,0.9886059761047363,1.9236226081848145,0.4429302513599396,357.9936218261719,181.88671875,221.98007202148438,0,-338.9608154296875,-22.966867446899414,-32.09797668457031,-0.436946302652359,262.24151611328125,126.0151596069336,-120.24723052978516
-2,Pressed,0.990587055683136,1.9146955013275146,0.4408312439918518,358.00946044921875,182.34666442871094,219.94760131835938,0,-338.06207275390625,-23.365976333618164,-32.99065399169922,-0.4915851950645447,261.267578125,127.3722915649414,-121.3086929321289
-2,Pressed,0.9886355996131897,1.9092328548431396,0.43851959705352783,357.84918212890625,183.0452423095703,218.97000122070312,0,-337.0625,-23.65540885925293,-30.91606903076172,-0.812827467918396,257.7947692871094,127.76853942871094,-122.44830322265625
-2,Pressed,0.9858429431915283,1.9042353630065918,0.43568822741508484,357.8572692871094,183.9832305908203,218.39503479003906,0,-336.1856994628906,-23.715940475463867,-21.39365577697754,-1.7046833038330078,247.28421020507812,127.76485443115234,-123.75301361083984
-2,Pressed,0.9845962524414062,1.8963642120361328,0.43143245577812195,358.3011779785156,184.8682098388672,217.4170684814453,0,-335.96563720703125,-23.653039932250977,-7.350987911224365,-3.201263189315796,232.63136291503906,127.76338958740234,-125.12877655029297
-2,Pressed,0.9847750067710876,1.886918544769287,0.4261578321456909,358.6975402832031,185.30520629882812,215.93780517578125,0,-336.22271728515625,-23.6162052154541,3.9207873344421387,-4.767476558685303,220.61607360839844,127.76422119140625,-126.37027740478516
-2,Pressed,0.9855164289474487,1.876805067062378,0.42046329379081726,358.95965576171875,185.61241149902344,214.20968627929688,0,-336.58721923828125,-23.6884708404541,11.70016860961914,-6.301431655883789,211.90054321289062,127.76522064208984,-127.64109802246094
-2,Pressed,0.9851797819137573,1.8693071603775024,0.41796183586120605,359.1618957519531,186.44595336914062,213.02017211914062,0,-336.89990234375,-23.81232452392578,16.675546646118164,-7.489355564117432,206.72715759277344,127.76458740234375,-128.7394561767578
-2,Pressed,0.98244309425354,1.8627411127090454,0.4188278913497925,359.51251220703125,188.1691131591797,212.2418670654297,0,-337.09454345703125,-24.038307189941406,21.09733009338379,-8.603846549987793,202.98623657226562,127.7572021484375,-129.81793212890625
-2,Pressed,0.978232204914093,1.8560700416564941,0.4215427041053772,359.9443359375,190.46563720703125,211.59674072265625,0,-337.1726989746094,-24.3497371673584,25.31429100036621,-9.751228332519531,199.8385772705078,127.75579071044922,-130.97927856445312
-2,Pressed,0.9743090867996216,1.8506269454956055,0.42456334829330444,0.30026718974113464,192.6492156982422,211.16629028320312,0,-337.204833984375,-24.648374557495117,28.490278244018555,-10.709903717041016,197.71539306640625,127.74948120117188,-132.046142578125
-2,Pressed,0.9711460471153259,1.8416451215744019,0.42394566535949707,0.8208994269371033,194.31362915039062,210.13319396972656,0,-337.07574462890625,-25.12605857849121,30.576862335205078,-11.917308807373047,195.64007568359375,127.74840545654297,-133.32424926757812
-2,Pressed,0.9703735113143921,1.8339544534683228,0.4207392930984497,1.1948882341384888,195.0540771484375,209.1599578857422,0,-337.046875,-25.524578094482422,31.160104751586914,-12.826546669006348,194.4723358154297,127.73925018310547,-134.4109649658203
-2,Pressed,0.9695841670036316,1.8249077796936035,0.4165845513343811,1.693114995956421,195.7092742919922,208.0200958251953,0,-336.90606689453125,-26.018306732177734,31.298656463623047,-13.802346229553223,193.43511962890625,127.73344421386719,-135.5736083984375
-2,Pressed,0.9683461785316467,1.8168140649795532,0.41359618306159973,2.1843817234039307,196.57130432128906,207.12057495117188,0,-336.7467346191406,-26.50815773010254,31.474363327026367,-14.656518936157227,192.65081787109375,127.72811889648438,-136.6905059814453
-2,Pressed,0.9655317068099976,1.8075339794158936,0.41178974509239197,2.8330800533294678,197.94554138183594,206.22543334960938,0,-336.3967590332031,-27.129056930541992,31.874475479125977,-15.60753059387207,191.7947998046875,127.72775268554688,-137.95938110351562
-2,Pressed,0.9624603986740112,1.798064112663269,0.4099995791912079,3.5234291553497314,199.35206604003906,205.38294982910156,0,-335.9690856933594,-27.802452087402344,32.065670013427734,-16.500951766967773,191.09263610839844,127.7280502319336,-139.2501983642578
-2,Pressed,0.9608331918716431,1.790463924407959,0.40735840797424316,4.0566840171813965,200.24166870117188,204.7275848388672,0,-335.6942443847656,-28.364887237548828,31.841550827026367,-17.12938117980957,190.7279052734375,127.7252197265625,-140.31900024414062
-2,Pressed,0.9593213796615601,1.780837893486023,0.40314120054244995,4.745392322540283,200.9439239501953,203.8124237060547,0,-335.2816162109375,-29.069740295410156,31.12918472290039,-17.825815200805664,190.35867309570312,127.7235107421875,-141.50038146972656
-2,Pressed,0.9576135277748108,1.7699503898620605,0.3982049226760864,5.545779228210449,201.64076232910156,202.81585693359375,0,-334.7787170410156,-29.90644073486328,30.193185806274414,-18.515708923339844,190.00881958007812,127.72240447998047,-142.77783203125
-2,Pressed,0.9558178186416626,1.7600606679916382,0.3937668204307556,6.286191940307617,202.36111450195312,202.03192138671875,0,-334.3231201171875,-30.734113693237305,29.35415267944336,-19.044361114501953,189.771728515625,127.7209701538086,-143.97207641601562
-2,Pressed,0.9534047245979309,1.7497313022613525,0.3895407021045685,7.0816192626953125,203.1830291748047,201.29827880859375,0,-333.7864685058594,-31.651094436645508,28.518213272094727,-19.508731842041016,189.54843139648438,127.72077178955078,-145.18145751953125
-2,Pressed,0.9510552883148193,1.739054560661316,0.38479164242744446,7.899351119995117,203.89215087890625,200.5702362060547,0,-333.2254943847656,-32.63618087768555,27.491043090820312,-19.88009262084961,189.40428161621094,127.72052001953125,-146.38246154785156
-2,Pressed,0.9488558173179626,1.7276532649993896,0.3791813254356384,8.758322715759277,204.4604034423828,199.80810546875,0,-332.6445617675781,-33.725730895996094,26.228992462158203,-20.15763282775879,189.32774353027344,127.71986389160156,-147.6024932861328
1,Pressed,0.9648648500442505,1.7238376140594482,0.37567535042762756,9.510289192199707,205.01681518554688,199.54493713378906,0,-335.509765625,-33.115943908691406,28.47073745727539,-22.550994873046875,188.29701232910156,127.71968841552734,-149.32843017578125
2,Pressed,0.9695029854774475,1.7326661348342896,0.38001835346221924,8.892640113830566,204.73550415039062,200.14404296875,0,-336.6436462402344,-32.0910758972168,30.09161376953125,-22.792203903198242,188.20846557617188,127.7181625366211,-148.66183471679688
1,Pressed,0.9810547828674316,1.7386821508407593,0.3847661018371582,8.674070358276367,205.66470336914062,200.84371948242188,0,-339.4620056152344,-30.897741317749023,33.65989685058594,-24.405418395996094,187.5137481689453,127.72046661376953,-149.27952575683594
1,Pressed,1.0008125305175781,1.7406336069107056,0.3852141499519348,8.776032447814941,206.12246704101562,201.01419067382812,0,-343.608642578125,-29.679706573486328,37.06017303466797,-26.903221130371094,186.7355499267578,127.7215576171875,-150.7749786376953
2,Pressed,1.0100781917572021,1.7454369068145752,0.38710588216781616,8.461856842041016,205.7532958984375,201.2568817138672,0,-345.7637939453125,-28.828121185302734,38.990238189697266,-27.73193359375,186.47084045410156,127.72148895263672,-150.74754333496094
2,Pressed,1.0100033283233643,1.760035753250122,0.39560285210609436,7.157973289489746,205.3700408935547,202.48609924316406,0,-346.8901062011719,-27.768352508544922,41.70980453491211,-26.940793991088867,186.5782012939453,127.72274780273438,-148.9612274169922
3,Pressed,1.0101450681686401,1.7650057077407837,0.4039746820926666,7.322184085845947,204.90231323242188,202.5258026123047,0,-347.56500244140625,-27.032419204711914,43.88607406616211,-27.506595611572266,186.14535522460938,127.72599792480469,-147.17913818359375
3,Pressed,1.0069648027420044,1.7730590105056763,0.4285229742527008,8.469111442565918,205.3554229736328,202.84503173828125,0,-348.8027038574219,-25.61278533935547,49.150108337402344,-29.48773956298828,185.87718200683594,127.72212219238281,-143.31137084960938
3,Pressed,1.0028289556503296,1.7801376581192017,0.44911763072013855,8.915040016174316,206.4728240966797,203.1422119140625,0,-349.4971618652344,-24.684730529785156,53.92319869995117,-30.629257202148438,185.28172302246094,127.72732543945312,-140.5113983154297
3,Pressed,1.0010631084442139,1.786331295967102,0.4684925675392151,9.657454490661621,206.729736328125,203.18081665039062,0,-350.4501647949219,-23.767051696777344,58.30644226074219,-31.854248046875,184.9432373046875,127.72799682617188,-137.21900939941406
3,Pressed,0.9991961717605591,1.7929048538208008,0.4893127977848053,10.349295616149902,207.09002685546875,203.18931579589844,0,-351.3170166015625,-22.88842010498047,62.92981719970703,-32.96308517456055,184.6172332763672,127.72918701171875,-133.70166015625
3,Pressed,0.9971470832824707,1.7998955249786377,0.511762261390686,10.918804168701172,207.68240356445312,203.17947387695312,0,-351.9792785644531,-22.055095672607422,67.78062438964844,-33.90900421142578,184.24676513671875,127.73131561279297,-130.04637145996094
3,Pressed,0.9955898523330688,1.8070346117019653,0.5354952216148376,11.540797233581543,208.0970458984375,203.06312561035156,0,-352.4454650878906,-21.207172393798828,72.54251861572266,-34.745967864990234,183.9980926513672,127.73209381103516,-126.01077270507812
3,Pressed,0.9944076538085938,1.8129136562347412,0.5554361939430237,11.927046775817871,208.4669647216797,202.89756774902344,0,-352.533935546875,-20.54218864440918,76.39705657958984,-35.25290298461914,183.67324829101562,127.73430633544922,-122.62320709228516
3,Pressed,0.9933210611343384,1.819953203201294,0.5803536176681519,12.466732025146484,208.73443603515625,202.62437438964844,0,-352.2100524902344,-19.6738224029541,80.45858764648438,-35.70256042480469,183.55348205566406,127.73420715332031,-118.32118225097656
3,Pressed,0.9924212694168091,1.8258898258209229,0.6020973324775696,12.747601509094238,209.11439514160156,202.36160278320312,0,-351.4422912597656,-18.93914031982422,83.68633270263672,-35.86512756347656,183.3009033203125,127.73568725585938,-114.7235336303711
3,Pressed,0.9916466474533081,1.8314200639724731,0.6232550740242004,13.031688690185547,209.2693634033203,202.03262329101562,0,-350.19500732421875,-18.158912658691406,86.13903045654297,-35.841068267822266,183.164794921875,127.736572265625,-111.13973999023438
3,Pressed,0.9908138513565063,1.8375378847122192,0.6479664444923401,13.300018310546875,209.42913818359375,201.62850952148438,0,-348.0483703613281,-17.167207717895508,88.07808685302734,-35.58454895019531,183.1358184814453,127.73631286621094,-107.10994720458984
3,Pressed,0.9900118708610535,1.842540979385376,0.6694928407669067,13.446311950683594,209.53921508789062,201.25640869140625,0,-345.4527893066406,-16.252779006958008,88.96195983886719,-35.144290924072266,183.0915985107422,127.7370376586914,-103.7029037475586
3,Pressed,0.9889675378799438,1.8478871583938599,0.6942543983459473,13.590227127075195,209.5220489501953,200.8058319091797,0,-341.47723388671875,-15.103018760681152,88.64522552490234,-34.39612579345703,183.19700622558594,127.73616027832031,-99.88703918457031
-2,Pressed,0.9885862469673157,1.8448572158813477,0.7038964629173279,13.627680778503418,210.18710327148438,199.79437255859375,0,-339.4119873046875,-14.778059959411621,88.0062484741211,-35.011661529541016,183.118896484375,127.7365493774414,-99.18299102783203
-2,Pressed,0.9884942770004272,1.8307554721832275,0.6992658972740173,13.802777290344238,209.9052276611328,199.270263671875,0,-346.3874206542969,-14.165252685546875,90.0186538696289,-40.24335861206055,185.24417114257812,124.91032409667969,-102.2029800415039
-2,Pressed,0.990189254283905,1.8072627782821655,0.7006188035011292,13.745317459106445,210.4099578857422,199.40570068359375,0,-360.5226745605469,-12.797247886657715,97.33599853515625,-49.37326431274414,188.46298217773438,119.4480972290039,-107.46212005615234
-2,Pressed,0.9908196330070496,1.783263087272644,0.7045590281486511,13.597846031188965,211.03314208984375,199.470947265625,0,-372.8438720703125,-12.234829902648926,105.89808654785156,-57.304195404052734,189.92633056640625,114.5263671875,-111.40345764160156
-2,Pressed,0.9907743334770203,1.7592780590057373,0.7068809866905212,13.584733963012695,211.3486785888672,199.44444274902344,0,-380.5213317871094,-13.39799690246582,113.55815124511719,-64.18217468261719,189.06849670410156,109.85294342041016,-112.65752410888672
-2,Pressed,0.9910951256752014,1.7349705696105957,0.7084222435951233,13.518508911132812,211.5916748046875,199.44979858398438,0,-384.7478332519531,-15.293747901916504,119.05450439453125,-70.57333374023438,187.4306182861328,105.22486114501953,-112.74853515625
-2,Pressed,0.9914236068725586,1.7102607488632202,0.7093285322189331,13.458866119384766,211.746337890625,199.46751403808594,0,-387.2547912597656,-17.081714630126953,122.43712615966797,-76.55481719970703,186.02685546875,100.73322296142578,-112.83733367919922
-2,Pressed,0.9916993379592896,1.6839081048965454,0.7097607851028442,13.421345710754395,211.81919860839844,199.47459411621094,0,-388.92181396484375,-18.666587829589844,124.42927551269531,-82.45597076416016,184.880126953125,96.13785552978516,-113.15035247802734
-2,Pressed,0.9919065833091736,1.659700870513916,0.7100481390953064,13.395209312438965,211.88441467285156,199.49758911132812,0,-389.87762451171875,-19.852630615234375,125.29473876953125,-87.53964233398438,184.062255859375,92.00316619873047,-113.6487045288086
-3,Pressed,0.9923045635223389,1.6484802961349487,0.6903728246688843,13.384416580200195,211.87399291992188,199.51889038085938,0,-389.0726623535156,-21.032312393188477,122.12380981445312,-88.73848724365234,182.92837524414062,91.3490219116211,-116.13896942138672
-3,Pressed,0.9922552108764648,1.6485507488250732,0.6721928119659424,13.384119987487793,212.0838165283203,199.5771942138672,0,-387.43408203125,-21.842775344848633,118.82544708251953,-87.53990936279297,181.9895782470703,92.54114532470703,-118.08622741699219
-3,Pressed,0.9925147294998169,1.6486042737960815,0.6454161405563354,13.435295104980469,211.9387969970703,199.6165008544922,0,-385.24774169921875,-23.08278465270996,114.32672119140625,-85.62805938720703,180.5435333251953,94.25345611572266,-120.46170806884766
-3,Pressed,0.9926645755767822,1.6486183404922485,0.6216450929641724,13.479182243347168,211.96629333496094,199.667236328125,0,-382.9002990722656,-24.465734481811523,110.50984191894531,-83.64032745361328,178.97225952148438,95.87419891357422,-122.2945556640625
-3,Pressed,0.9929956197738647,1.648406982421875,0.5945600867271423,13.570919036865234,211.8789520263672,199.71932983398438,0,-380.2770690917969,-26.261178970336914,106.62786865234375,-81.14371490478516,176.99891662597656,97.78430938720703,-124.02590942382812
-3,Pressed,0.9932020306587219,1.648052453994751,0.5687677264213562,13.661238670349121,211.8654327392578,199.7633819580078,0,-377.7331237792969,-28.168230056762695,103.34538269042969,-78.44947814941406,174.92941284179688,99.75209045410156,-125.511474609375
