cesarbds/cloth_dressing/GMM/demo5.csv
Button,Action,x,y,z,roll,pitch,yaw,gripper_state,joint0,joint1,joint2,joint3,joint4,joint5,joint6,joint7
1,Pressed,2.014767646789551,1.7156450748443604,0.6601306200027466,37.83167266845703,176.12103271484375,129.50131225585938,0,-49.65607833862305,-62.426551818847656,55.620941162109375,43.7647819519043,75.54456329345703,75.28754425048828,59.73674774169922
1,Pressed,2.0379862785339355,1.7031251192092896,0.5787478685379028,36.89966583251953,184.0599365234375,130.21273803710938,0,-49.1179313659668,-62.209964752197266,58.146324157714844,35.2524299621582,77.73170471191406,74.88375854492188,63.812103271484375
1,Pressed,2.0432801246643066,1.6914761066436768,0.5117182731628418,36.414127349853516,189.85791015625,131.2102508544922,0,-48.24848937988281,-61.70629119873047,61.364810943603516,28.08368682861328,76.80863189697266,74.70067596435547,67.85293579101562
-1,Pressed,2.031247615814209,1.6656055450439453,0.4608931243419647,32.730960845947266,196.2908172607422,134.21926879882812,0,-45.219600677490234,-61.53178024291992,66.68313598632812,29.105741500854492,76.13693237304688,74.842529296875,67.0998306274414
-1,Pressed,2.0316264629364014,1.675766944885254,0.5519942045211792,33.491146087646484,188.80487060546875,133.90220642089844,0,-46.97898864746094,-61.57556915283203,64.21398162841797,36.92280960083008,75.38545989990234,75.07076263427734,63.0140495300293
-1,Pressed,2.0157103538513184,1.7223858833312988,0.6543970108032227,37.22245407104492,176.30575561523438,128.65196228027344,0,-49.82143020629883,-62.138458251953125,54.638145446777344,43.046817779541016,77.09484100341797,75.62242889404297,60.11031723022461
-1,Pressed,1.9999687671661377,1.7096672058105469,0.6981674432754517,36.097354888916016,173.66519165039062,130.49557495117188,0,-50.17049789428711,-62.427391052246094,55.51438522338867,48.796600341796875,75.6444320678711,75.91586303710938,57.317138671875
-1,Pressed,1.9787858724594116,1.7121864557266235,0.7431829571723938,36.7178955078125,168.7784881591797,130.28724670410156,0,-50.942848205566406,-63.10052490234375,53.281028747558594,53.40834045410156,74.7827377319336,76.4253921508789,55.325653076171875
-1,Pressed,1.9533240795135498,1.7171275615692139,0.7818472981452942,36.58357238769531,164.01727294921875,129.7117462158203,0,-51.47398376464844,-63.39104080200195,51.08250427246094,57.923954010009766,74.03900909423828,77.01044464111328,53.601844787597656
-1,Pressed,1.9292384386062622,1.7152698040008545,0.8118489980697632,36.4792366027832,160.20925903320312,129.96041870117188,0,-51.917137145996094,-63.960323333740234,49.43384552001953,61.788665771484375,73.03923034667969,77.7616195678711,52.285831451416016
-1,Pressed,1.9052497148513794,1.7153961658477783,0.8346798419952393,36.59664535522461,157.0735321044922,130.49615478515625,0,-52.03571701049805,-63.9716682434082,48.37446594238281,64.6484603881836,71.13597106933594,78.42210388183594,51.3150634765625
-1,Pressed,1.8831710815429688,1.7157273292541504,0.8539817333221436,36.21412658691406,153.91612243652344,130.51773071289062,0,-52.43921661376953,-64.29442596435547,46.7156982421875,67.36003875732422,70.38257598876953,79.32108306884766,50.594268798828125
-1,Pressed,1.855012059211731,1.7215831279754639,0.8712981939315796,35.7441520690918,150.0829620361328,130.055908203125,0,-52.495304107666016,-64.24702453613281,44.48530578613281,70.13663482666016,69.0356216430664,80.36526489257812,49.99561309814453
-1,Pressed,1.8334064483642578,1.7229821681976318,0.8835090398788452,35.438533782958984,147.18055725097656,130.04849243164062,0,-52.700469970703125,-64.45310974121094,42.84239196777344,72.16006469726562,67.90316772460938,81.31883239746094,49.65901565551758
-1,Pressed,1.807297706604004,1.7244576215744019,0.8977011442184448,35.25553512573242,143.32070922851562,129.91844177246094,0,-53.27042007446289,-64.96421813964844,40.64858627319336,74.33447265625,66.5530776977539,82.5636215209961,49.44270706176758
-1,Pressed,1.7861320972442627,1.7230238914489746,0.9100004434585571,35.32848358154297,140.00999450683594,130.31744384765625,0,-54.18962097167969,-65.53262329101562,39.12980651855469,75.64653015136719,65.1171875,83.8115463256836,49.552085876464844
-1,Pressed,1.7670854330062866,1.7237160205841064,0.9133746027946472,35.52911376953125,137.1304473876953,130.44528198242188,0,-54.400428771972656,-66.14208221435547,37.31531524658203,76.63504791259766,63.574371337890625,85.21984100341797,49.85456848144531
-1,Pressed,1.7492300271987915,1.7287360429763794,0.9136040806770325,34.71725845336914,134.87986755371094,130.17518615722656,0,-54.181488037109375,-65.89678192138672,35.577579498291016,77.51806640625,62.426025390625,86.49668884277344,50.13927459716797
-1,Pressed,1.7315109968185425,1.7292356491088867,0.9155358076095581,34.42868423461914,132.3220672607422,130.67608642578125,0,-54.482608795166016,-66.0251235961914,34.21373748779297,77.96800994873047,60.748016357421875,88.0829086303711,50.73150634765625
-1,Pressed,1.7135794162750244,1.732998013496399,0.9110957384109497,34.17863464355469,129.28663635253906,130.39828491210938,0,-54.4714469909668,-66.52210998535156,31.851491928100586,78.2916488647461,59.249298095703125,90.10616302490234,51.545528411865234
2,Pressed,1.7183871269226074,1.7476487159729004,0.890194296836853,34.67829895019531,130.78106689453125,130.22494506835938,0,-52.66188430786133,-65.35291290283203,30.89467430114746,75.3916015625,58.47726058959961,91.68818664550781,52.40056610107422
2,Pressed,1.728855848312378,1.7671664953231812,0.8678910732269287,35.895164489746094,133.04547119140625,130.18292236328125,0,-50.97972106933594,-63.47163772583008,30.707284927368164,70.55607604980469,57.607398986816406,93.22738647460938,53.64921569824219
2,Pressed,1.7398041486740112,1.7992743253707886,0.8179000616073608,36.133026123046875,138.03689575195312,129.33718872070312,0,-46.07305908203125,-59.998252868652344,29.919313430786133,64.10305786132812,56.89527130126953,95.48779296875,55.607948303222656
2,Pressed,1.7463279962539673,1.8133225440979004,0.7835453748703003,36.8780517578125,141.4244842529297,129.3307647705078,0,-43.264854431152344,-58.55902862548828,29.458179473876953,59.955440521240234,56.811920166015625,97.33901977539062,56.780887603759766
2,Pressed,1.6146490573883057,1.8072175979614258,0.348267525434494,36.916900634765625,199.39907836914062,132.45339965820312,0,8.443585395812988,-57.45981979370117,31.80510711669922,55.68008041381836,59.175960540771484,99.16832733154297,57.73837661743164
2,Pressed,1.5520133972167969,1.8412278890609741,0.31217217445373535,38.26683807373047,204.53790283203125,130.58787536621094,0,15.747356414794922,-54.17311096191406,30.50037384033203,48.53217315673828,57.49752426147461,101.61946868896484,60.21751022338867
2,Pressed,1.550618052482605,1.8665223121643066,0.3135561943054199,38.29924774169922,203.97869873046875,130.1636199951172,0,14.106775283813477,-50.20217514038086,31.25541114807129,40.58620071411133,57.3883171081543,104.17152404785156,63.30093002319336
2,Pressed,1.5511502027511597,1.888229250907898,0.30864572525024414,38.101749420166016,204.9796142578125,130.81903076171875,0,11.073454856872559,-45.02687072753906,34.65242385864258,29.310916900634766,57.79351806640625,107.56228637695312,68.14295959472656
2,Pressed,1.5495929718017578,1.9044427871704102,0.2955995798110962,37.06373977661133,208.29908752441406,132.19142150878906,0,4.427759170532227,-37.831764221191406,43.34040451049805,11.49411678314209,59.86089324951172,112.43133544921875,76.92233276367188
2,Pressed,1.5227124691009521,1.8990559577941895,0.26510685682296753,32.86495590209961,220.79855346679688,136.21893310546875,0,1.1948888301849365,-33.203121185302734,56.78902816772461,2.9692583084106445,61.8037109375,114.16791534423828,80.75739288330078
2,Pressed,1.468509316444397,1.8776206970214844,0.21561568975448608,26.319988250732422,238.60806274414062,141.3131561279297,0,1.7590640783309937,-31.84162139892578,72.59243774414062,2.5959224700927734,62.32441711425781,113.53058624267578,80.00138092041016
2,Pressed,1.4189250469207764,1.8724709749221802,0.18957364559173584,21.724220275878906,250.06112670898438,142.5023193359375,0,2.8804402351379395,-30.741117477416992,82.91313934326172,2.6472814083099365,62.41573715209961,112.67801666259766,79.00898742675781
2,Pressed,1.426005482673645,1.887101650238037,0.19698882102966309,23.15857696533203,248.55262756347656,140.44940185546875,0,3.3741989135742188,-29.86176109313965,79.7419204711914,2.621798276901245,63.18148422241211,111.81775665283203,78.15179443359375
2,Pressed,1.4699970483779907,1.917457103729248,0.22993120551109314,28.28129768371582,237.95973205566406,135.7359619140625,0,3.333843469619751,-29.10118865966797,62.855384826660156,2.273365020751953,69.2037124633789,110.90992736816406,77.41814422607422
2,Pressed,1.5071160793304443,1.9512648582458496,0.2711755335330963,33.277042388916016,225.76199340820312,129.80935668945312,0,3.4579622745513916,-28.512847900390625,43.85707473754883,1.6867727041244507,76.44093322753906,109.95006561279297,76.7486343383789
2,Pressed,1.5191484689712524,1.9728569984436035,0.29260531067848206,35.28132629394531,220.2696075439453,125.97183227539062,0,3.9247231483459473,-27.762130737304688,38.086612701416016,1.5316599607467651,76.85194396972656,108.81633758544922,75.897705078125
2,Pressed,1.5121817588806152,1.9776060581207275,0.28499752283096313,34.8494758605957,223.19703674316406,125.51923370361328,0,4.394920825958252,-27.06407356262207,40.51917266845703,1.583322286605835,76.60220336914062,107.71260833740234,75.13162231445312
2,Pressed,1.4891644716262817,1.9732239246368408,0.2587241232395172,32.89535903930664,231.5603790283203,126.76991271972656,0,4.962932109832764,-26.370161056518555,47.791114807128906,1.6689612865447998,76.41405487060547,106.53484344482422,74.37349700927734
2,Pressed,1.4633623361587524,1.9727498292922974,0.23691874742507935,31.113813400268555,238.8960418701172,127.05878448486328,0,5.699140548706055,-25.64173126220703,53.98786926269531,1.7059366703033447,76.500244140625,105.233642578125,73.60694122314453
2,Pressed,1.4543606042861938,1.9802420139312744,0.2318468987941742,30.982707977294922,240.92034912109375,125.81600952148438,0,6.236294269561768,-25.033035278320312,54.65800094604492,1.6522517204284668,77.40032196044922,104.02018737792969,72.96788787841797
2,Pressed,1.4677075147628784,1.9978108406066895,0.24545100331306458,32.73246383666992,236.87176513671875,122.7876205444336,0,6.532576560974121,-24.395626068115234,50.0715446472168,1.559382677078247,78.1382827758789,102.67147064208984,72.30548858642578
2,Pressed,1.4899170398712158,2.0193545818328857,0.26980581879615784,35.1654052734375,229.59877014160156,118.8487319946289,0,6.665860652923584,-23.85215950012207,43.268089294433594,1.4067070484161377,78.45511627197266,101.3619613647461,71.69324493408203
2,Pressed,1.5063931941986084,2.039057731628418,0.2925768494606018,36.9084358215332,223.18089294433594,115.07054901123047,0,6.833117485046387,-23.328203201293945,37.940093994140625,1.3465560674667358,78.3216323852539,100.08161926269531,71.12274932861328
2,Pressed,1.511248230934143,2.0525617599487305,0.3016713857650757,37.68809127807617,220.66021728515625,112.47300720214844,0,7.110908508300781,-22.820096969604492,36.147518157958984,1.315642237663269,78.08277893066406,98.72174072265625,70.54405212402344
2,Pressed,1.5057308673858643,2.0601468086242676,0.2956748604774475,37.68107604980469,222.26084899902344,111.11451721191406,0,7.467456817626953,-22.298532485961914,37.883262634277344,1.3105415105819702,77.8704605102539,97.2197494506836,69.94209289550781
2,Pressed,1.4947230815887451,2.0641140937805176,0.28275009989738464,37.229652404785156,225.7958526611328,110.46537017822266,0,7.799101829528809,-21.83806037902832,41.39400100708008,1.352656364440918,77.60752868652344,95.78865051269531,69.39984130859375
3,Pressed,1.4948536157608032,2.0706794261932373,0.290351539850235,37.666099548339844,225.46298217773438,109.73834228515625,0,8.120264053344727,-21.154897689819336,39.89422607421875,1.2776983976364136,78.56385803222656,95.63003540039062,68.585205078125
3,Pressed,1.494354248046875,2.078317642211914,0.31025537848472595,38.198062896728516,225.46226501464844,109.78302001953125,0,8.966190338134766,-19.548505783081055,39.4857292175293,1.242971420288086,77.83292388916016,96.61327362060547,66.81150817871094
1,Pressed,1.514975905418396,2.0857913494110107,0.3285983204841614,38.91292953491211,220.76841735839844,108.2966079711914,0,6.937797546386719,-19.35071563720703,36.422760009765625,1.1761391162872314,78.77368927001953,96.06440734863281,66.45757293701172
1,Pressed,1.5452913045883179,2.089203357696533,0.33578750491142273,38.43960189819336,218.55624389648438,107.31117248535156,0,0.8809574842453003,-19.315248489379883,37.813106536865234,1.2031079530715942,81.50308227539062,94.14575958251953,66.30390167236328
-1,Pressed,1.5417104959487915,2.0920138359069824,0.34408971667289734,38.989192962646484,216.6338348388672,106.83954620361328,0,2.7488033771514893,-19.23969078063965,35.172183990478516,1.1485687494277954,80.63084411621094,94.78240203857422,66.35234832763672
-1,Pressed,1.5230401754379272,2.092066526412964,0.34600016474723816,39.51052474975586,216.5032501220703,107.00918579101562,0,7.306875705718994,-19.23197364807129,32.65269088745117,1.1291685104370117,78.55142211914062,96.26237487792969,66.47129821777344
-1,Pressed,1.5020467042922974,2.0888593196868896,0.34019947052001953,39.53727340698242,218.61109924316406,107.84416198730469,0,11.314496040344238,-19.27333641052246,32.538448333740234,1.2171883583068848,76.54102325439453,97.54629516601562,66.5819091796875
-1,Pressed,1.4748873710632324,2.083308696746826,0.3304000496864319,39.65729522705078,221.868408203125,109.10271453857422,0,16.001869201660156,-19.490097045898438,32.9278678894043,1.2594059705734253,74.30449676513672,99.02305603027344,66.7162094116211
-1,Pressed,1.448276162147522,2.076613664627075,0.3200330436229706,39.63587188720703,225.64122009277344,110.58267211914062,0,20.161006927490234,-19.73098373413086,36.35873031616211,1.425766944885254,69.94888305664062,100.30469512939453,66.77702331542969
-1,Pressed,1.4249505996704102,2.071035385131836,0.31551241874694824,39.713687896728516,228.1297607421875,111.77405548095703,0,24.30436134338379,-20.022947311401367,40.55985641479492,1.7541227340698242,63.71906661987305,101.57839965820312,66.80360412597656
-1,Pressed,1.4065988063812256,2.0685818195343018,0.317576140165329,40.24204635620117,228.44615173339844,112.13025665283203,0,28.22090721130371,-20.47167205810547,39.1488037109375,1.8050273656845093,61.55303192138672,102.8697509765625,66.95020294189453
-1,Pressed,1.3920413255691528,2.067990303039551,0.32381799817085266,40.92095947265625,227.3654327392578,111.93216705322266,0,31.855302810668945,-21.008251190185547,36.46844482421875,1.8038572072982788,59.82460403442383,104.1124496459961,67.11085510253906
-1,Pressed,1.377739429473877,2.0674800872802734,0.3306858539581299,41.55915832519531,226.07252502441406,111.58447265625,0,35.3253173828125,-21.624174118041992,33.75429153442383,1.810819387435913,58.18227767944336,105.33197784423828,67.28236389160156
-1,Pressed,1.3612602949142456,2.065186023712158,0.33439451456069946,42.10795211791992,225.7445526123047,111.55804443359375,0,38.559391021728516,-22.30948829650879,32.36722946166992,1.8380639553070068,56.26003646850586,106.49246978759766,67.45162963867188
-1,Pressed,1.3401739597320557,2.059687614440918,0.33376049995422363,42.71485137939453,226.8624725341797,112.15910339355469,0,41.8383674621582,-23.13191032409668,34.98432540893555,1.9607667922973633,51.42362594604492,107.63513946533203,67.56607818603516
-1,Pressed,1.3184219598770142,2.0517640113830566,0.32986578345298767,43.10694122314453,229.40234375,113.4546890258789,0,44.6524543762207,-23.886484146118164,38.882328033447266,2.2103233337402344,46.83818435668945,108.65908813476562,67.68650817871094
-1,Pressed,1.2952685356140137,2.0436205863952637,0.32546982169151306,43.623069763183594,232.1252899169922,114.69819641113281,0,47.26519012451172,-24.74951171875,39.91233444213867,2.2527804374694824,45.52640151977539,109.69680786132812,67.89251708984375
-1,Pressed,1.2741327285766602,2.036273956298828,0.32296353578567505,44.17729568481445,234.27667236328125,115.70059204101562,0,49.61006164550781,-25.621551513671875,40.41311264038086,2.2585861682891846,44.559722900390625,110.670166015625,68.10643005371094
-1,Pressed,1.2574272155761719,2.030313491821289,0.3220030665397644,44.625606536865234,235.82327270507812,116.46127319335938,0,51.45793533325195,-26.35826301574707,40.69342803955078,2.2755141258239746,43.80454635620117,111.47525024414062,68.30148315429688
-1,Pressed,1.236810564994812,2.023747205734253,0.3234783411026001,45.422218322753906,236.64169311523438,116.85216522216797,0,53.8859977722168,-27.508909225463867,40.300575256347656,2.2848668098449707,42.69692611694336,112.52238464355469,68.57064819335938
-1,Pressed,1.2192069292068481,2.0176210403442383,0.32485145330429077,46.078369140625,237.47442626953125,117.2596206665039,0,55.84278869628906,-28.497722625732422,40.504722595214844,2.3119637966156006,41.44132614135742,113.3941879272461,68.8140640258789
-1,Pressed,1.2023931741714478,2.0114336013793945,0.3262121379375458,46.71453094482422,238.30908203125,117.65569305419922,0,57.60908889770508,-29.473011016845703,40.76953887939453,2.3419394493103027,40.321434020996094,114.19757080078125,69.0621109008789
-1,Pressed,1.1864378452301025,2.0049774646759033,0.3268646001815796,47.30122756958008,239.4318084716797,118.19979858398438,0,59.13019943237305,-30.3699893951416,41.59566116333008,2.3723316192626953,39.07215881347656,114.89295959472656,69.29618072509766
-1,Pressed,1.1679291725158691,1.9972667694091797,0.3277127742767334,48.0256233215332,240.69203186035156,118.77919006347656,0,60.800270080566406,-31.465442657470703,42.23029327392578,2.3999011516571045,38.02836608886719,115.6564712524414,69.58287048339844
-1,Pressed,1.1500890254974365,1.9891310930252075,0.3277274966239929,48.6702995300293,242.39788818359375,119.59961700439453,0,62.2337760925293,-32.4686279296875,42.8402099609375,2.4098660945892334,37.53521728515625,116.32656860351562,69.87138366699219
-1,Pressed,1.1321287155151367,1.9804495573043823,0.32756686210632324,49.3194694519043,244.32852172851562,120.55510711669922,0,63.57612609863281,-33.47280502319336,43.7501106262207,2.419954299926758,36.97754669189453,116.94422912597656,70.16753387451172
-1,Pressed,1.115221381187439,1.9720439910888672,0.32778656482696533,49.95232009887695,246.12457275390625,121.44721221923828,0,64.80564880371094,-34.44381332397461,44.797096252441406,2.4282281398773193,36.282291412353516,117.4947738647461,70.46284484863281
-1,Pressed,1.0975837707519531,1.9627735614776611,0.32825005054473877,50.66835021972656,248.0181121826172,122.43534851074219,0,66.0582275390625,-35.481876373291016,47.52173614501953,2.4959616661071777,33.94239044189453,117.98636627197266,70.75949096679688
-1,Pressed,1.0827674865722656,1.9546422958374023,0.3289620876312256,51.23936080932617,249.69528198242188,123.33849334716797,0,67.0955810546875,-36.35398483276367,49.945247650146484,2.56797456741333,31.91920280456543,118.38771057128906,71.04022979736328
-1,Pressed,1.06999933719635,1.947766900062561,0.3298202157020569,51.721656799316406,251.0015869140625,123.97662353515625,0,67.96495056152344,-37.15266799926758,50.568702697753906,2.579413890838623,31.611164093017578,118.74174499511719,71.33512878417969
-1,Pressed,1.0537917613983154,1.939601182937622,0.3320388197898865,52.476951599121094,251.97360229492188,124.272216796875,0,69.13733673095703,-38.304752349853516,50.761295318603516,2.5685455799102783,31.363075256347656,119.16819763183594,71.74200439453125
-1,Pressed,1.039581298828125,1.9314672946929932,0.3329569101333618,53.0145149230957,253.5577392578125,125.0316162109375,0,70.02547454833984,-39.213436126708984,51.44413757324219,2.5793299674987793,31.201271057128906,119.47183990478516,72.10221099853516
-1,Pressed,1.0237960815429688,1.9225350618362427,0.3343295454978943,53.65729522705078,255.1725311279297,125.72575378417969,0,71.0059814453125,-40.255226135253906,52.0826416015625,2.5648252964019775,31.071426391601562,119.75597381591797,72.5177001953125
-1,Pressed,1.0097038745880127,1.9137146472930908,0.33484455943107605,54.11250305175781,257.2388000488281,126.79986572265625,0,71.77687072753906,-41.10243225097656,53.081825256347656,2.5746350288391113,30.97725486755371,119.94856262207031,72.89268493652344
-1,Pressed,0.994098424911499,1.904280424118042,0.3361034393310547,54.68643569946289,259.16326904296875,127.67803955078125,0,72.6646728515625,-42.10538864135742,53.90994644165039,2.556439161300659,30.921857833862305,120.1150131225586,73.33810424804688
-1,Pressed,0.98038250207901,1.8953068256378174,0.33679115772247314,55.084354400634766,261.2951354980469,128.7829132080078,0,73.37322998046875,-42.93489074707031,54.946533203125,2.5667576789855957,30.87627601623535,120.20574188232422,73.74526977539062
-3,Pressed,0.9703795909881592,1.8869035243988037,0.3298207223415375,54.45869827270508,263.1187744140625,129.5177459716797,0,73.0721435546875,-43.45594024658203,56.321197509765625,2.5047378540039062,31.675630569458008,119.65327453613281,75.05479431152344
-3,Pressed,0.9647562503814697,1.8783841133117676,0.31482118368148804,52.620609283447266,265.1624755859375,130.4365997314453,0,71.71331787109375,-43.56733322143555,58.45171356201172,2.5291225910186768,33.18207550048828,118.47525787353516,77.08303833007812
-3,Pressed,0.9592102766036987,1.8705345392227173,0.3013494610786438,50.889801025390625,266.88507080078125,131.11631774902344,0,70.47395324707031,-43.697479248046875,60.387596130371094,2.5293540954589844,34.53453826904297,117.3327865600586,78.90939331054688
-3,Pressed,0.9538836479187012,1.863059163093567,0.2880202531814575,49.105934143066406,268.35357666015625,131.58053588867188,0,69.21541595458984,-43.84608459472656,61.61761474609375,2.512218475341797,36.48380661010742,116.14049530029297,80.69783782958984
-3,Pressed,0.9491828680038452,1.856654167175293,0.2763148844242096,47.52889633178711,269.4076843261719,131.7882080078125,0,68.10074615478516,-44.01812744140625,62.64326477050781,2.4880216121673584,38.133766174316406,115.0225830078125,82.26691436767578
-3,Pressed,0.9451155662536621,1.8504955768585205,0.26259279251098633,45.6710205078125,270.1875,131.7025604248047,0,66.74464416503906,-44.2109260559082,62.17405319213867,2.431015968322754,41.460357666015625,113.69031524658203,84.04244232177734
-3,Pressed,0.9411430358886719,1.8449788093566895,0.25093722343444824,44.14613723754883,270.79315185546875,131.5624237060547,0,65.6062240600586,-44.43378829956055,62.54474639892578,2.369279146194458,43.4442253112793,112.47854614257812,85.52850341796875
-3,Pressed,0.9382648468017578,1.8397730588912964,0.2374725639820099,42.39492416381836,271.17645263671875,131.23095703125,0,64.25131225585938,-44.632537841796875,63.508880615234375,2.355443000793457,44.94829559326172,111.01693725585938,87.12857818603516
-3,Pressed,0.9354277849197388,1.8350541591644287,0.2251993715763092,40.79232406616211,271.498291015625,130.87197875976562,0,63.02605056762695,-44.85232925415039,63.9416618347168,2.3206920623779297,46.72130584716797,109.64203643798828,88.5698471069336
-3,Pressed,0.9331035017967224,1.8307219743728638,0.2131054401397705,39.252445220947266,271.6965637207031,130.4458770751953,0,61.81638717651367,-45.08465576171875,64.44449615478516,2.2933924198150635,48.256771087646484,108.25214385986328,89.93064880371094
-3,Pressed,0.9308599233627319,1.8266576528549194,0.2013014554977417,37.76216506958008,271.8734130859375,129.9896697998047,0,60.639060974121094,-45.32715606689453,64.84123992919922,2.251410484313965,49.79670333862305,106.85344696044922,91.2175521850586
-3,Pressed,0.9288090467453003,1.8226540088653564,0.18879401683807373,36.17561340332031,272.0241394042969,129.46995544433594,0,59.38489532470703,-45.600547790527344,64.23405456542969,2.184603452682495,52.401268005371094,105.3698959350586,92.54464721679688
-3,Pressed,0.9271935224533081,1.8189332485198975,0.17686766386032104,34.73627853393555,272.08837890625,128.9351043701172,0,58.19678497314453,-45.883079528808594,64.43293762207031,2.1342618465423584,53.972354888916016,103.91089630126953,93.74593353271484
-3,Pressed,0.9256032705307007,1.8155642747879028,0.16578346490859985,33.38957977294922,272.1609802246094,128.41111755371094,0,57.103763580322266,-46.15626525878906,64.75428771972656,2.0853211879730225,55.2708625793457,102.50330352783203,94.83949279785156
-3,Pressed,0.9248579740524292,1.8125076293945312,0.15391778945922852,32.010658264160156,272.1005859375,127.78265380859375,0,55.926902770996094,-46.44635772705078,65.02732849121094,2.0428009033203125,56.56647491455078,100.99483489990234,95.9462661743164
-3,Pressed,0.9249105453491211,1.8097285032272339,0.14115101099014282,30.57199478149414,271.9331970214844,127.05029296875,0,54.65863800048828,-46.75825500488281,65.1270523071289,2.0081920623779297,58.01598358154297,99.36405944824219,97.07918548583984
-3,Pressed,0.9249751567840576,1.8073532581329346,0.12910336256027222,29.237430572509766,271.7586364746094,126.29615783691406,0,53.47983932495117,-47.098148345947266,63.426170349121094,1.9127345085144043,61.107566833496094,97.8313217163086,98.16748046875
-3,Pressed,0.9246302843093872,1.8045190572738647,0.11752516031265259,28.102272033691406,271.6463623046875,125.59649658203125,0,52.36577224731445,-47.49868392944336,61.613983154296875,1.7452600002288818,64.17951965332031,96.35462188720703,99.17093658447266
-3,Pressed,0.9242405891418457,1.8014397621154785,0.10621732473373413,26.794681549072266,271.69525146484375,125.0394287109375,0,51.254085540771484,-47.833465576171875,62.123260498046875,1.7053157091140747,65.1075668334961,94.81498718261719,100.09170532226562
-3,Pressed,0.9238673448562622,1.798715353012085,0.09606385231018066,25.614683151245117,271.74554443359375,124.51605987548828,0,50.26604461669922,-48.14722442626953,62.69883728027344,1.6691739559173584,65.79949188232422,93.39453125,100.90650177001953
-3,Pressed,0.9248870611190796,1.7963042259216309,0.0840078592300415,24.292129516601562,271.622314453125,123.8055419921875,0,49.08406066894531,-48.50639724731445,62.90665054321289,1.6438102722167969,66.89468383789062,91.73517608642578,101.82364654541016
-3,Pressed,0.9264051914215088,1.7947677373886108,0.07377725839614868,23.36681365966797,271.3441162109375,123.05842590332031,0,48.12306213378906,-48.84880828857422,62.9223747253418,1.5881659984588623,67.68482971191406,90.31752014160156,102.5789794921875
-3,Pressed,0.9293412566184998,1.793433666229248,0.06177717447280884,22.294214248657227,270.93878173828125,122.1671142578125,0,46.97713088989258,-49.22817611694336,63.01460266113281,1.5658354759216309,68.45765686035156,88.666748046875,103.41477966308594
-3,Pressed,0.9319467544555664,1.7921271324157715,0.05088323354721069,21.35906982421875,270.5957946777344,121.34162902832031,0,45.95176315307617,-49.600440979003906,63.07192611694336,1.5257352590560913,69.14210510253906,87.13782501220703,104.16483306884766
-3,Pressed,0.9338574409484863,1.7905633449554443,0.04114091396331787,20.476964950561523,270.39459228515625,120.64977264404297,0,45.03756332397461,-49.95465850830078,63.226009368896484,1.4859716892242432,69.73477172851562,85.7354507446289,104.83097076416016
-3,Pressed,0.9360306859016418,1.7884902954101562,0.029986441135406494,19.357271194458008,270.2724914550781,119.93757629394531,0,43.96283721923828,-50.36377716064453,62.81975555419922,1.4403724670410156,71.14360046386719,84.1276626586914,105.59332275390625
-3,Pressed,0.937831461429596,1.7863223552703857,0.019775331020355225,18.379024505615234,270.19696044921875,119.282958984375,0,42.99298095703125,-50.7889404296875,61.04460525512695,1.3314121961593628,73.8003921508789,82.66139221191406,106.31732940673828
-3,Pressed,0.9395390748977661,1.7837735414505005,0.00972515344619751,17.51955223083496,270.133544921875,118.64351654052734,0,42.05095672607422,-51.24114990234375,60.00736618041992,1.19679594039917,75.63024139404297,81.19705200195312,106.99231719970703
3,Pressed,0.9397192001342773,1.7843774557113647,0.011882007122039795,17.58625602722168,270.1618957519531,118.85871124267578,0,42.202476501464844,-51.10649871826172,60.083221435546875,1.2657605409622192,75.51982879638672,81.55516815185547,106.83638000488281
3,Pressed,0.9372750520706177,1.7862040996551514,0.021490633487701416,18.65606689453125,270.24188232421875,119.4322509765625,0,43.144412994384766,-50.76142120361328,59.59381866455078,1.2227897644042969,75.0758285522461,82.97954559326172,106.22301483154297
3,Pressed,0.9350296258926392,1.7879724502563477,0.03164958953857422,19.565603256225586,270.4158020019531,120.14674377441406,0,44.10038375854492,-50.3701286315918,59.449501037597656,1.2758327722549438,74.45879364013672,84.47454071044922,105.55303955078125
3,Pressed,0.9333267211914062,1.7894318103790283,0.04059237241744995,20.265687942504883,270.6282958984375,120.83989715576172,0,44.912174224853516,-50.01039505004883,59.45539093017578,1.359554409980774,73.89752960205078,85.78651428222656,104.94259643554688
3,Pressed,0.9299074411392212,1.791693091392517,0.054451167583465576,21.820531845092773,270.8250732421875,121.64752960205078,0,46.29767990112305,-49.58999252319336,58.824642181396484,1.2853062152862549,73.1407699584961,87.74060821533203,104.02478790283203
3,Pressed,0.928074836730957,1.792834997177124,0.06373637914657593,22.48116111755371,271.1622619628906,122.42625427246094,0,47.1366081237793,-49.2397346496582,58.96800994873047,1.388740062713623,72.50625610351562,89.05646514892578,103.36569213867188
3,Pressed,0.9251841306686401,1.793900728225708,0.07468795776367188,23.432329177856445,271.5921630859375,123.27080535888672,0,48.1728515625,-48.894065856933594,58.884613037109375,1.3992044925689697,71.86639404296875,90.55712890625,102.60082244873047
3,Pressed,0.9230362176895142,1.7953171730041504,0.08607542514801025,24.473724365234375,271.9563903808594,124.1168212890625,0,49.25505065917969,-48.52250289916992,60.17094802856445,1.475255012512207,69.70561218261719,92.0907211303711,101.73392486572266
3,Pressed,0.9225480556488037,1.7979042530059814,0.09752154350280762,25.54656410217285,272.1148376464844,124.84648895263672,0,50.342872619628906,-48.106204986572266,61.34889602661133,1.6181470155715942,67.43795776367188,93.62822723388672,100.82962799072266
3,Pressed,0.9228545427322388,1.8009647130966187,0.10856091976165771,26.870010375976562,272.04656982421875,125.3756332397461,0,51.4336051940918,-47.774784088134766,60.737579345703125,1.6397557258605957,66.61693572998047,95.15470886230469,99.9493179321289
3,Pressed,0.9234592318534851,1.804038166999817,0.11956310272216797,28.190614700317383,271.96588134765625,125.90400695800781,0,52.52027130126953,-47.45831298828125,60.07632827758789,1.6726369857788086,65.81967163085938,96.66670989990234,99.03965759277344
3,Pressed,0.9239547252655029,1.8068796396255493,0.13060349225997925,29.44826889038086,271.9800109863281,126.49720764160156,0,53.599281311035156,-47.14625549316406,59.50115966796875,1.7194700241088867,65.02177429199219,98.15962219238281,98.09761810302734
3,Pressed,0.922992467880249,1.8091063499450684,0.1434383988380432,30.819644927978516,272.2989501953125,127.3227310180664,0,54.8651123046875,-46.83049774169922,59.380496978759766,1.7396663427352905,63.77891540527344,99.81381225585938,97.00255584716797
3,Pressed,0.922234296798706,1.8109899759292603,0.15513217449188232,31.991548538208008,272.70904541015625,128.1654815673828,0,56.00012969970703,-46.523719787597656,59.90908432006836,1.7981150150299072,62.106407165527344,101.28662109375,95.94862365722656
3,Pressed,0.9220322370529175,1.8134710788726807,0.1677030324935913,33.323829650878906,273.0458984375,128.99180603027344,0,57.23870849609375,-46.21435546875,60.00669479370117,1.8533129692077637,60.6092414855957,102.85852813720703,94.78514862060547
3,Pressed,0.9232898950576782,1.8168004751205444,0.17940795421600342,34.729923248291016,273.07177734375,129.58877563476562,0,58.40406036376953,-45.93423080444336,59.819091796875,1.9013227224349976,59.14892578125,104.32913208007812,93.62983703613281
3,Pressed,0.9257278442382812,1.8209888935089111,0.19130581617355347,36.246395111083984,272.8609619140625,130.05703735351562,0,59.59695816040039,-45.63733673095703,60.48857116699219,1.991371512413025,56.54094696044922,105.7796859741211,92.3806381225586
3,Pressed,0.9287453889846802,1.8254668712615967,0.20225805044174194,37.72177505493164,272.4855651855469,130.3673095703125,0,60.69550704956055,-45.38347244262695,60.31290054321289,2.0543363094329834,54.734169006347656,107.11470031738281,91.18306732177734
3,Pressed,0.9312184453010559,1.8301141262054443,0.21538877487182617,39.4268913269043,272.235595703125,130.8181915283203,0,62.0247917175293,-45.124542236328125,60.35804748535156,2.099571943283081,52.45460510253906,108.64383697509766,89.74907684326172
3,Pressed,0.933599591255188,1.834396481513977,0.22735705971717834,40.93240737915039,272.07965087890625,131.27548217773438,0,63.22156524658203,-44.884159088134766,60.040985107421875,2.1450119018554688,50.7740364074707,110.01520538330078,88.38263702392578
3,Pressed,0.9363059997558594,1.838773250579834,0.23907232284545898,42.43024826049805,271.87384033203125,131.70199584960938,0,64.38932800292969,-44.659934997558594,59.79440689086914,2.2016801834106445,48.97657012939453,111.32937622070312,86.9776840209961
3,Pressed,0.9386143684387207,1.8434293270111084,0.25205036997795105,44.09031677246094,271.7141418457031,132.15280151367188,0,65.69803619384766,-44.4610481262207,58.97100067138672,2.2059643268585205,47.55165100097656,112.73814392089844,85.41807556152344
3,Pressed,0.941956639289856,1.8487858772277832,0.26495957374572754,45.793521881103516,271.29034423828125,132.44927978515625,0,66.9881820678711,-44.26752853393555,58.22808837890625,2.238462209701538,45.81636428833008,114.09613800048828,83.78150177001953
3,Pressed,0.9457094669342041,1.8544888496398926,0.27737146615982056,47.46185302734375,270.687255859375,132.5879364013672,0,68.21646118164062,-44.082794189453125,57.78340148925781,2.270475387573242,43.712772369384766,115.33385467529297,82.1435775756836
3,Pressed,0.9502300024032593,1.8608083724975586,0.2899819612503052,49.17694854736328,269.8165283203125,132.56475830078125,0,69.44661712646484,-43.89269256591797,58.06669616699219,2.3347017765045166,40.649009704589844,116.50826263427734,80.41346740722656
3,Pressed,0.95540452003479,1.8679418563842773,0.30308228731155396,50.916622161865234,268.640869140625,132.32171630859375,0,70.6993637084961,-43.705692291259766,57.593910217285156,2.385227680206299,38.09733963012695,117.67340850830078,78.60067749023438
3,Pressed,0.9609317779541016,1.8754863739013672,0.3165006637573242,52.72138977050781,267.13677978515625,131.85189819335938,0,71.96028900146484,-43.54490280151367,57.872676849365234,2.450129270553589,34.550907135009766,118.76016235351562,76.69755554199219
3,Pressed,0.9673071503639221,1.884196400642395,0.3307836353778839,54.52340316772461,265.122314453125,130.9939422607422,0,73.25444030761719,-43.38417053222656,56.68256378173828,2.482438087463379,32.138526916503906,119.8554916381836,74.69160461425781
3,Pressed,0.9732697010040283,1.8926340341567993,0.3445191979408264,56.18857955932617,262.953369140625,129.94244384765625,0,74.46470642089844,-43.26586151123047,54.80956268310547,2.4831764698028564,30.506559371948242,120.83809661865234,72.7416763305664
3,Pressed,0.9791064262390137,1.900554895401001,0.35679861903190613,57.587669372558594,260.71099853515625,128.76710510253906,0,75.4964599609375,-43.14543151855469,53.0008544921875,2.4943015575408936,29.098388671875,121.63684844970703,70.96350860595703
3,Pressed,0.9853349924087524,1.9102427959442139,0.3744589388370514,59.5084342956543,257.7273864746094,127.16241455078125,0,77.01082611083984,-43.06361389160156,51.75590133666992,2.5087387561798096,25.981189727783203,122.67880249023438,68.45867919921875
3,Pressed,0.9922633171081543,1.919991374015808,0.3901621699333191,60.98324203491211,254.20828247070312,125.05554962158203,0,78.24134063720703,-42.94947052001953,49.8625602722168,2.5178720951080322,23.764612197875977,123.47181701660156,66.25747680664062
3,Pressed,0.9996886253356934,1.930501937866211,0.4071745276451111,62.36256408691406,249.72210693359375,122.2056884765625,0,79.49613952636719,-42.86265182495117,48.16082763671875,2.531615972518921,20.930007934570312,124.18447875976562,63.96467971801758
3,Pressed,1.0084569454193115,1.9425500631332397,0.4265752136707306,63.52731704711914,243.71926879882812,118.24214935302734,0,80.7994384765625,-42.77151107788086,46.485023498535156,2.5637025833129883,17.346126556396484,124.82191467285156,61.51873016357422
3,Pressed,1.018384575843811,1.9559208154678345,0.4481301009654999,64.14363098144531,236.09246826171875,113.06147003173828,0,82.05925750732422,-42.69798278808594,42.849891662597656,2.553921699523926,15.097065925598145,125.39140319824219,59.10005569458008
3,Pressed,1.027632713317871,1.9685969352722168,0.47074705362319946,64.35199737548828,228.27317810058594,107.79698181152344,0,83.29752349853516,-42.634342193603516,39.974037170410156,2.5564842224121094,12.031909942626953,125.8379898071289,56.67548370361328
3,Pressed,1.0368576049804688,1.9812757968902588,0.495913565158844,64.09130096435547,219.9318084716797,102.34166717529297,0,84.57984161376953,-42.569358825683594,38.10514831542969,2.5981764793395996,7.500326633453369,126.15957641601562,54.13981628417969
3,Pressed,1.0464096069335938,1.9938244819641113,0.5227522850036621,62.97089385986328,211.49105834960938,97.13267517089844,0,85.7320556640625,-42.4907341003418,34.00918197631836,2.5817711353302,4.906752586364746,126.4157943725586,51.81660079956055
3,Pressed,1.0552319288253784,2.005924701690674,0.5539896488189697,61.21337127685547,203.0421142578125,92.3783950805664,0,86.989990234375,-42.472869873046875,28.27887535095215,2.5331368446350098,3.201087236404419,126.64157104492188,49.3038444519043
3,Pressed,1.0627822875976562,2.016655206680298,0.5887515544891357,58.989864349365234,195.22067260742188,88.6128921508789,0,88.3337631225586,-42.47099304199219,22.137264251708984,2.4622843265533447,1.430413007736206,126.78358459472656,46.61881637573242
3,Pressed,1.0704151391983032,2.0266640186309814,0.6313773393630981,55.3709716796875,186.8969268798828,85.7981185913086,0,89.63550567626953,-42.43926239013672,16.36101722717285,2.4336814880371094,-2.407008647918701,126.74577331542969,44.008323669433594
3,Pressed,1.0756921768188477,2.033296585083008,0.6803054809570312,50.497413635253906,179.06842041015625,84.70105743408203,0,90.8349838256836,-42.41062927246094,7.534633636474609,2.3402435779571533,-4.403129577636719,126.66827392578125,41.632877349853516
3,Pressed,1.0761959552764893,2.0344815254211426,0.733696699142456,45.36664962768555,172.02528381347656,85.19754028320312,0,92.17496490478516,-42.40009307861328,-2.3297200202941895,2.193678140640259,-6.105015277862549,126.50565338134766,39.02301788330078
3,Pressed,1.0708346366882324,2.0285518169403076,0.7920544743537903,39.494361877441406,164.99989318847656,87.4099349975586,0,93.49463653564453,-42.35744857788086,-12.036619186401367,2.0522167682647705,-9.339761734008789,126.19491577148438,36.5102424621582
3,Pressed,1.057094931602478,2.0135223865509033,0.8523112535476685,33.245521545410156,157.85226440429688,91.277587890625,0,94.81359100341797,-42.31113052368164,-22.82054328918457,1.848580241203308,-12.726164817810059,125.77996826171875,34.03681564331055
3,Pressed,1.03458571434021,1.9893877506256104,0.9079647064208984,27.134368896484375,150.690673828125,96.58114624023438,0,96.05541229248047,-42.24702835083008,-35.89951705932617,1.545682430267334,-14.339434623718262,125.36028289794922,31.746671676635742
3,Pressed,1.0062084197998047,1.959682583808899,0.9542115330696106,22.360506057739258,143.87281799316406,102.80658721923828,0,97.43680572509766,-42.11920166015625,-46.546669006347656,1.2680710554122925,-18.0657901763916,124.73694610595703,29.261743545532227
3,Pressed,0.9775680303573608,1.93137788772583,0.9847784042358398,19.22504997253418,138.2206268310547,108.57290649414062,0,98.60858917236328,-42.06740188598633,-54.7301139831543,1.0071053504943848,-21.795333862304688,124.0997543334961,27.10843276977539
-2,Pressed,0.9540202021598816,1.9060916900634766,0.9950418472290039,16.741018295288086,134.66786193847656,113.31216430664062,0,99.09138488769531,-42.20634078979492,-62.198246002197266,0.39196690917015076,-22.600833892822266,124.9036865234375,25.740331649780273
-2,Pressed,0.9576376676559448,1.8956624269485474,0.9872332811355591,16.42719841003418,137.60848999023438,114.63265228271484,0,99.17078399658203,-42.77355194091797,-55.49296951293945,0.8588910102844238,-28.693523406982422,127.16435241699219,25.03594207763672
-2,Pressed,0.9706398248672485,1.8998011350631714,0.9797952771186829,18.453731536865234,142.18345642089844,112.8668441772461,0,99.57496643066406,-43.7517204284668,-31.261831283569336,2.4769816398620605,-47.55171203613281,127.77318572998047,25.298004150390625
-2,Pressed,0.9888623356819153,1.9124263525009155,0.9700121879577637,22.08972930908203,147.83189392089844,109.04781341552734,0,99.8414535522461,-45.15577697753906,-27.651103973388672,4.165133476257324,-42.859188079833984,127.77237701416016,25.19683837890625
-2,Pressed,1.0084999799728394,1.9244385957717896,0.9533910155296326,26.586740493774414,154.27806091308594,105.66620635986328,0,99.71422576904297,-46.65718460083008,-30.229389190673828,6.514937400817871,-31.155792236328125,127.77159881591797,24.640771865844727
-2,Pressed,1.0218149423599243,1.9350380897521973,0.9305084943771362,31.590919494628906,159.7012176513672,102.58343505859375,0,99.27095031738281,-48.049163818359375,-28.729934692382812,8.586304664611816,-23.96309471130371,127.770751953125,23.885150909423828
-2,Pressed,1.0288891792297363,1.9387784004211426,0.9092777967453003,36.037986755371094,164.1663360595703,100.81157684326172,0,98.67755126953125,-49.57441329956055,-27.24103355407715,10.972118377685547,-18.64704132080078,127.77013397216797,22.873477935791016
-2,Pressed,1.0304487943649292,1.9376351833343506,0.8942421674728394,39.19233703613281,167.0265350341797,100.02973937988281,0,98.06005859375,-50.93923568725586,-26.09425926208496,12.994911193847656,-15.55309009552002,127.76982116699219,21.84699821472168
2,Pressed,1.0329838991165161,1.9408962726593018,0.891055703163147,39.81611251831055,167.40159606933594,99.81462097167969,0,98.17485809326172,-50.69011688232422,-24.81986427307129,12.819021224975586,-15.981522560119629,127.77005767822266,21.988176345825195
2,Pressed,1.035243272781372,1.9491169452667236,0.8954105377197266,38.67830276489258,165.5740966796875,99.33499908447266,0,98.80032348632812,-49.21945571899414,-22.530902862548828,10.604386329650879,-19.608318328857422,127.77020263671875,23.079395294189453
2,Pressed,1.0348749160766602,1.9528188705444336,0.9059109091758728,36.45525360107422,162.9678192138672,99.7593002319336,0,99.3572006225586,-47.7685661315918,-20.640962600708008,8.529461860656738,-24.78441619873047,127.77033996582031,24.00259780883789
2,Pressed,1.031202793121338,1.9527294635772705,0.9192612171173096,33.7219123840332,159.6825714111328,100.88919067382812,0,99.77296447753906,-46.38816452026367,-17.58197593688965,6.636819362640381,-32.44858169555664,127.76974487304688,24.729106903076172
2,Pressed,1.0240787267684937,1.9516220092773438,0.9307755827903748,31.086950302124023,155.77198791503906,102.07984161376953,0,99.87174987792969,-44.9265251159668,-10.829224586486816,4.598395824432373,-44.132389068603516,127.76434326171875,25.252099990844727
2,Pressed,1.0129612684249878,1.9451719522476196,0.9442734718322754,27.519180297851562,151.65553283691406,103.77394104003906,0,99.48690795898438,-43.79275894165039,-18.64337921142578,2.418884515762329,-42.30230712890625,127.76828002929688,25.096820831298828
2,Pressed,1.0030009746551514,1.9396872520446777,0.9625447988510132,24.277387619018555,147.16429138183594,105.83760070800781,0,99.34693145751953,-42.99906539916992,-37.94720458984375,1.6136829853057861,-29.307525634765625,126.67481994628906,25.175504684448242
2,Pressed,0.989264965057373,1.9349174499511719,0.9812238812446594,21.598575592041016,141.8260955810547,107.79054260253906,0,99.3437728881836,-42.32200241088867,-46.33737564086914,1.4592987298965454,-27.204225540161133,124.66134643554688,25.787269592285156
2,Pressed,0.9784917831420898,1.936011791229248,0.994290292263031,20.308835983276367,137.44424438476562,108.39694213867188,0,99.324951171875,-41.748146057128906,-50.70878601074219,1.3177469968795776,-26.728483200073242,122.43028259277344,26.451454162597656
2,Pressed,0.974225640296936,1.9448659420013428,1.0030438899993896,20.261531829833984,134.32269287109375,107.52571105957031,0,99.32537841796875,-41.141082763671875,-52.498722076416016,1.2037310600280762,-26.30146598815918,120.01115417480469,27.12220001220703
-2,Pressed,0.9899352788925171,1.9549219608306885,0.9906450510025024,22.23104476928711,138.26724243164062,105.01139831542969,0,99.29157257080078,-41.45680236816406,-47.33224105834961,1.2668521404266357,-25.903053283691406,120.96642303466797,26.86440086364746
-2,Pressed,0.9912244081497192,1.94887113571167,0.9833091497421265,22.368122100830078,140.2991943359375,105.4211196899414,0,99.2473373413086,-41.894439697265625,-46.344181060791016,1.050329566001892,-25.84795570373535,122.75568389892578,26.36201286315918
-2,Pressed,0.9925366640090942,1.9403655529022217,0.9757375717163086,22.45527458190918,142.70672607421875,106.31673431396484,0,99.24069213867188,-42.40229797363281,-45.23942184448242,1.0219868421554565,-26.12958335876465,124.84513854980469,25.7331485748291
-2,Pressed,0.9934188723564148,1.9293431043624878,0.9675514698028564,22.51495933532715,145.46743774414062,107.70833587646484,0,99.2802734375,-43.002933502197266,-39.89751052856445,1.3111872673034668,-30.84867286682129,127.1447525024414,25.039825439453125
-2,Pressed,0.993087887763977,1.9225990772247314,0.9650978446006775,22.743440628051758,147.09124755859375,108.32640838623047,0,99.58554077148438,-43.80908966064453,-25.32052993774414,2.5564162731170654,-44.6818962097168,127.77056121826172,25.207977294921875
4,Pressed,1.0045289993286133,1.9264874458312988,0.9642994403839111,19.705310821533203,148.97085571289062,106.57732391357422,0,100.80332946777344,-44.55805969238281,-19.59236717224121,3.882728338241577,-46.936614990234375,127.75395965576172,30.431867599487305
4,Pressed,1.0234315395355225,1.9391785860061646,0.9563595652580261,15.222811698913574,152.44866943359375,102.98822021484375,0,102.37303161621094,-45.05970001220703,-17.294336318969727,4.422674655914307,-42.78353500366211,127.76387023925781,38.30085372924805
4,Pressed,1.0415774583816528,1.9542326927185059,0.9416470527648926,11.859228134155273,157.0028076171875,99.52471160888672,0,103.82768249511719,-45.373382568359375,-12.170879364013672,4.960378646850586,-40.587257385253906,127.6923828125,45.8132438659668
-4,Pressed,1.0444025993347168,1.9639756679534912,0.9252741932868958,15.95160961151123,159.7665252685547,97.05107879638672,0,103.54489135742188,-45.548500061035156,-7.933610439300537,4.577066421508789,-39.948402404785156,127.71037292480469,44.22170639038086
-4,Pressed,1.0423533916473389,1.968273401260376,0.914894700050354,24.586376190185547,159.63369750976562,97.16970825195312,0,101.99815368652344,-45.083011627197266,-3.6351871490478516,4.4098381996154785,-43.2952766418457,127.69267272949219,36.44337463378906
-4,Pressed,1.034398078918457,1.9668936729431152,0.9142774343490601,31.415599822998047,157.84092712402344,98.3246841430664,0,100.4120864868164,-44.593238830566406,-0.9383869767189026,3.7711634635925293,-48.031436920166016,127.6904296875,28.481224060058594
-4,Pressed,1.0186879634857178,1.9573349952697754,0.9242563247680664,35.662452697753906,154.66909790039062,101.32820129394531,0,98.82572937011719,-44.104957580566406,-1.6178209781646729,2.876157760620117,-53.13234329223633,127.69782257080078,20.720884323120117
-4,Pressed,0.9956217408180237,1.939868450164795,0.9397684931755066,37.378292083740234,151.27825927734375,106.0169677734375,0,97.36322784423828,-43.81635665893555,-16.21468734741211,1.7181447744369507,-47.08980941772461,127.7216567993164,13.387883186340332
-4,Pressed,0.9666339755058289,1.9172203540802002,0.9573876261711121,38.646358489990234,148.29710388183594,113.47825622558594,0,96.0022201538086,-43.362884521484375,-41.9473991394043,1.2454402446746826,-32.511924743652344,127.26815795898438,5.521079063415527
-4,Pressed,0.930483877658844,1.8955672979354858,0.9678845405578613,39.72932052612305,145.2319793701172,120.76090240478516,0,94.82820129394531,-43.017215728759766,-53.98602294921875,0.9235849380493164,-31.125158309936523,125.8786392211914,-1.1538338661193848
-4,Pressed,0.8980822563171387,1.8785743713378906,0.9698532223701477,41.2989501953125,143.85020446777344,127.29509735107422,0,93.8129653930664,-42.834686279296875,-61.63019943237305,0.7015672326087952,-31.663127899169922,124.41506958007812,-7.038418769836426
-4,Pressed,0.8794775009155273,1.8747636079788208,0.9682645201683044,44.99277877807617,144.99208068847656,131.6394500732422,0,92.87908172607422,-42.75816345214844,-64.293212890625,0.5912777185440063,-32.22067642211914,122.8384780883789,-12.6444730758667
-4,Pressed,0.8737649917602539,1.8821113109588623,0.9680570363998413,50.44253158569336,148.20639038085938,134.36358642578125,0,92.1307601928711,-42.75495910644531,-63.00587844848633,0.6187833547592163,-32.699832916259766,121.1773910522461,-17.993925094604492
-4,Pressed,0.8767952919006348,1.8972173929214478,0.968938946723938,57.18635559082031,152.9122772216797,136.47764587402344,0,91.52782440185547,-42.81894302368164,-59.15839385986328,0.7398019433021545,-33.108306884765625,119.42962646484375,-23.18794822692871
-4,Pressed,0.879352331161499,1.9118340015411377,0.9692603945732117,63.540218353271484,158.3653106689453,139.79306030273438,0,91.00254821777344,-42.946598052978516,-55.64814758300781,0.8332012891769409,-33.347103118896484,117.71199798583984,-28.09332275390625
-4,Pressed,0.874600887298584,1.9196592569351196,0.97007155418396,68.10543823242188,164.87515258789062,146.15740966796875,0,90.56380462646484,-43.09674072265625,-54.5288200378418,0.8652510046958923,-33.4539909362793,116.0291748046875,-32.756866455078125
-4,Pressed,0.8603830933570862,1.9188318252563477,0.9719101190567017,70.2977523803711,172.6822052001953,156.02703857421875,0,90.20726013183594,-43.248714447021484,-56.30949020385742,0.8222077488899231,-33.46371841430664,114.35034942626953,-37.290706634521484
-4,Pressed,0.839725136756897,1.9117250442504883,0.9735286831855774,70.40018463134766,180.72845458984375,167.4645538330078,0,89.9378433227539,-43.39849090576172,-60.06343460083008,0.7277772426605225,-33.39139175415039,112.70580291748047,-41.671112060546875
-4,Pressed,0.8190892338752747,1.9042959213256836,0.9739386439323425,69.68148040771484,188.65023803710938,178.6111297607422,0,89.72876739501953,-43.57135009765625,-63.83563232421875,0.6116510629653931,-33.23616027832031,111.09468078613281,-45.940486907958984
-4,Pressed,0.8026553392410278,1.9001803398132324,0.974955677986145,68.85875701904297,197.47682189941406,189.6886444091797,0,89.65753173828125,-43.75767135620117,-66.51019287109375,0.5610237121582031,-33.07856369018555,109.44112396240234,-50.231258392333984
-4,Pressed,0.7936775088310242,1.9015207290649414,0.9769220948219299,68.48127746582031,207.27435302734375,200.2241668701172,0,89.65227508544922,-43.98701858520508,-67.26622009277344,0.5264560580253601,-32.85201644897461,107.97962188720703,-54.17662811279297
6,Pressed,0.7923473119735718,1.9154349565505981,0.9866456389427185,72.15706634521484,210.70118713378906,203.32785034179688,0,90.13368225097656,-44.530941009521484,-65.08824920654297,0.5710973143577576,-32.202178955078125,105.3717041015625,-53.39681625366211
6,Pressed,0.7939386367797852,1.9291648864746094,0.9958614110946655,76.21510314941406,208.66915893554688,200.7760009765625,0,90.66850280761719,-44.98130798339844,-62.782962799072266,0.7903100848197937,-31.69198989868164,103.06941986083984,-50.8309326171875
6,Pressed,0.7882966995239258,1.940104365348816,1.0018733739852905,79.9331283569336,199.79733276367188,192.52978515625,0,91.0168228149414,-45.482791900634766,-61.71281433105469,0.7562825679779053,-31.05891227722168,100.52824401855469,-48.09003829956055
6,Pressed,0.7768770456314087,1.9457478523254395,1.0086393356323242,81.88939666748047,181.20358276367188,175.78639221191406,0,91.48685455322266,-45.84559631347656,-62.55852127075195,0.7479456663131714,-30.468351364135742,97.82166290283203,-45.370689392089844
-6,Pressed,0.7684609889984131,1.9391746520996094,1.0014568567276,80.97191619873047,180.66650390625,176.5154266357422,0,91.06401824951172,-45.91661834716797,-64.20140075683594,0.015494804829359055,-30.14539909362793,98.48094177246094,-45.92459487915039
-6,Pressed,0.7715451121330261,1.9228633642196655,0.9967725276947021,76.5727767944336,193.7988739013672,189.71405029296875,0,90.76963806152344,-45.4160270690918,-66.35828399658203,0.35020703077316284,-31.030803680419922,101.09219360351562,-48.63311767578125
-6,Pressed,0.7754983305931091,1.9105119705200195,0.9879955053329468,72.62370300292969,201.27011108398438,196.81407165527344,0,90.25634765625,-44.907283782958984,-67.76485443115234,0.3513006269931793,-31.746084213256836,103.7717514038086,-51.573387145996094
-6,Pressed,0.7851181030273438,1.904477596282959,0.979680061340332,69.47944641113281,208.75051879882812,202.77992248535156,0,89.75300598144531,-44.3355598449707,-67.52872467041016,0.3613123893737793,-32.55607986450195,106.37648010253906,-54.67393112182617
-6,Pressed,0.8000798225402832,1.9041026830673218,0.9719470739364624,66.91413116455078,217.5351104736328,208.99945068359375,0,89.2300033569336,-43.704246520996094,-65.66986083984375,0.39087334275245667,-33.48593521118164,108.92178344726562,-57.99998474121094
-6,Pressed,0.8170688152313232,1.9064924716949463,0.9642006158828735,64.33010864257812,226.56781005859375,215.07615661621094,0,88.69657135009766,-43.016571044921875,-63.082035064697266,0.3872271478176117,-34.48246765136719,111.3611068725586,-61.51433563232422
-6,Pressed,0.8317040801048279,1.9077658653259277,0.9555503129959106,61.113929748535156,233.80984497070312,219.78823852539062,0,88.11180114746094,-42.26353454589844,-60.96546936035156,0.339019238948822,-35.55875015258789,113.67522430419922,-65.2409896850586
-6,Pressed,0.8446342945098877,1.9059830904006958,0.9452180862426758,56.31770706176758,239.18695068359375,222.96022033691406,0,87.38097381591797,-41.265350341796875,-59.33461380004883,0.4761068820953369,-37.3434944152832,116.15428161621094,-69.87386322021484
-6,Pressed,0.8515555262565613,1.9024602174758911,0.9340706467628479,51.577999114990234,241.91476440429688,224.42886352539062,0,86.67153930664062,-40.282989501953125,-56.336997985839844,0.3970053791999817,-41.5666389465332,118.22587585449219,-74.33565521240234
-6,Pressed,0.8562424182891846,1.8974627256393433,0.9214595556259155,45.99229431152344,243.72598266601562,225.15545654296875,0,85.8481216430664,-39.17284393310547,-54.05641174316406,0.3694649636745453,-45.96470642089844,120.2712173461914,-79.59147644042969
-6,Pressed,0.8615828156471252,1.8934855461120605,0.9085583686828613,39.37571334838867,245.3477783203125,225.5097198486328,0,85.01976013183594,-37.72700500488281,-52.951934814453125,0.4687093496322632,-49.864070892333984,122.22422790527344,-85.74017333984375
-6,Pressed,0.8665386438369751,1.8919126987457275,0.8954949378967285,32.84532165527344,247.3563995361328,226.03343200683594,0,84.14173126220703,-36.268341064453125,-51.640682220458984,0.3921111226081848,-53.69310760498047,123.86238098144531,-92.28446197509766
-6,Pressed,0.8724538087844849,1.893031120300293,0.8838497400283813,26.14429473876953,249.7802734375,226.59085083007812,0,83.32957458496094,-34.69607925415039,-50.457401275634766,0.26624447107315063,-57.15211868286133,125.15798950195312,-99.20962524414062
-6,Pressed,0.8785802125930786,1.8963708877563477,0.8732584714889526,18.762210845947266,252.56640625,227.05055236816406,0,82.52252960205078,-32.978084564208984,-47.989383697509766,0.22516340017318726,-61.86951446533203,126.03763580322266,-106.88020324707031
-6,Pressed,0.8830084204673767,1.9007914066314697,0.8640697002410889,11.358624458312988,254.96437072753906,227.03501892089844,0,81.90532684326172,-31.215768814086914,-44.676971435546875,0.11626526713371277,-67.76730346679688,126.44662475585938,-114.56568145751953
-6,Pressed,0.8843492865562439,1.905600905418396,0.8550562858581543,3.8199164867401123,256.68060302734375,226.3570556640625,0,81.4393081665039,-29.41771697998047,-42.52830123901367,-0.05021250247955322,-73.3161849975586,126.37466430664062,-122.36255645751953
-6,Pressed,0.8824678659439087,1.910980463027954,0.8455793261528015,356.13134765625,257.81134033203125,224.97500610351562,0,81.16710662841797,-27.5898380279541,-39.19316101074219,-0.14537645876407623,-80.91117858886719,125.77789306640625,-130.12525939941406
-6,Pressed,0.878643810749054,1.9171946048736572,0.8361989259719849,348.9872741699219,258.6723327636719,223.2069091796875,0,81.11953735351562,-25.867528915405273,-36.56426239013672,-0.3646039664745331,-88.05062103271484,124.78678131103516,-137.34156799316406
-6,Pressed,0.8740119934082031,1.923924446105957,0.8283088207244873,342.8986511230469,259.60675048828125,221.50888061523438,0,81.2770004272461,-24.41668701171875,-35.68006134033203,-0.8259003758430481,-92.9385986328125,123.51814270019531,-143.66468811035156
-6,Pressed,0.871044933795929,1.935307502746582,0.8221349120140076,335.40838623046875,261.37518310546875,218.86248779296875,0,81.7813949584961,-22.626192092895508,-34.120338439941406,-0.7271263003349304,-98.96077728271484,121.7038803100586,-150.57797241210938
-6,Pressed,0.8678763508796692,1.94651198387146,0.8188028335571289,329.30523681640625,263.5419921875,216.5357208251953,0,82.46214294433594,-21.203121185302734,-31.472736358642578,-0.945010244846344,-104.93131256103516,119.75353240966797,-156.3546600341797
-6,Pressed,0.8651158809661865,1.9586255550384521,0.8177677392959595,323.6810302734375,266.1048278808594,214.05445861816406,0,83.35348510742188,-19.93137550354004,-30.291521072387695,-1.1888444423675537,-108.98479461669922,117.6306381225586,-161.56771850585938
-6,Pressed,0.8626012802124023,1.9717634916305542,0.8175997734069824,318.3211364746094,268.94964599609375,211.1210174560547,0,84.4186782836914,-18.739526748657227,-29.8710880279541,-1.3377679586410522,-112.21857452392578,115.36907958984375,-166.31765747070312
-6,Pressed,0.8592053651809692,1.9846196174621582,0.8174121379852295,313.48291015625,271.9761047363281,207.76881408691406,0,85.61095428466797,-17.701416015625,-28.325759887695312,-1.495807409286499,-116.56587982177734,113.02629089355469,-170.5422821044922
2,Pressed,0.8601300716400146,1.9970436096191406,0.8169201016426086,310.5416259765625,272.1918640136719,207.12498474121094,0,85.66323852539062,-16.851499557495117,-27.401546478271484,-1.3608981370925903,-118.23285675048828,111.31776428222656,-171.7027130126953
2,Pressed,0.8598092794418335,2.0037362575531006,0.8172705173492432,309.49871826171875,270.9103088378906,208.52049255371094,0,85.25589752197266,-16.545639038085938,-26.884077072143555,-1.519903540611267,-118.15619659423828,110.20437622070312,-171.44308471679688
2,Pressed,0.8609934449195862,2.0136053562164307,0.817901611328125,307.9683532714844,269.27178955078125,210.2342071533203,0,84.71125793457031,-16.070476531982422,-26.472028732299805,-1.4899489879608154,-117.83248138427734,108.81575775146484,-171.06101989746094
-2,Pressed,0.8628168702125549,2.013291597366333,0.8191221356391907,307.9990234375,269.8392333984375,209.91148376464844,0,84.7704086303711,-16.039522171020508,-26.286392211914062,-1.3457380533218384,-117.85630798339844,109.07318115234375,-171.1239776611328
-2,Pressed,0.862413763999939,2.00459361076355,0.8201968669891357,309.38983154296875,271.5372314453125,208.57028198242188,0,85.2835464477539,-16.474306106567383,-26.15424156188965,-1.3972735404968262,-118.27429962158203,110.31339263916016,-171.4693145751953
-2,Pressed,0.8614140748977661,1.9949607849121094,0.8198186159133911,310.9152526855469,273.12322998046875,206.97567749023438,0,85.85132598876953,-16.958919525146484,-26.422571182250977,-1.4054263830184937,-118.7200927734375,111.67584991455078,-171.86776733398438
-2,Pressed,0.8598684072494507,1.9863905906677246,0.8181278705596924,312.26287841796875,274.25140380859375,205.48687744140625,0,86.32550048828125,-17.3950252532959,-25.944686889648438,-1.349737524986267,-120.13172912597656,112.8591537475586,-172.19508361816406
-2,Pressed,0.8571144938468933,1.975874900817871,0.8160531520843506,313.9674987792969,275.34088134765625,203.997802734375,0,86.89541625976562,-17.98833656311035,-25.62324333190918,-1.4042043685913086,-121.56192016601562,114.15796661376953,-172.5875244140625
-2,Pressed,0.8551146984100342,1.9668889045715332,0.8141580820083618,315.42431640625,276.3218994140625,202.60577392578125,0,87.43020629882812,-18.51650047302246,-26.233850479125977,-1.3765703439712524,-122.0406723022461,115.32402801513672,-172.9996337890625
-2,Pressed,0.8533412218093872,1.9581595659255981,0.8135044574737549,316.87109375,277.3897399902344,201.46055603027344,0,87.95999145507812,-19.083864212036133,-26.62290382385254,-1.3619449138641357,-122.44227600097656,116.4227066040039,-173.4230194091797
-2,Pressed,0.85186767578125,1.9496784210205078,0.8140264749526978,318.29833984375,278.57550048828125,200.51182556152344,0,88.4922103881836,-19.681787490844727,-26.740549087524414,-1.3438856601715088,-122.84564208984375,117.47296905517578,-173.86106872558594
-2,Pressed,0.8502631187438965,1.9412553310394287,0.8149302005767822,319.7188720703125,279.7628479003906,199.67601013183594,0,89.01908874511719,-20.31597328186035,-26.76437759399414,-1.325714349746704,-123.2544937133789,118.47404479980469,-174.31593322753906
-2,Pressed,0.8480830788612366,1.9327448606491089,0.8153291344642639,321.1388244628906,280.80670166015625,198.8582305908203,0,89.52888488769531,-20.98773765563965,-26.9106502532959,-1.306814193725586,-123.6607666015625,119.4188003540039,-174.78598022460938
-2,Pressed,0.8451056480407715,1.9239919185638428,0.8148365020751953,322.57598876953125,281.6463623046875,198.00588989257812,0,90.0206069946289,-21.703100204467773,-27.28554916381836,-1.2908662557601929,-124.06048583984375,120.30911254882812,-175.27438354492188
-2,Pressed,0.8414851427078247,1.9150941371917725,0.8137239217758179,324.01361083984375,282.32415771484375,197.1422119140625,0,90.48978424072266,-22.45757293701172,-27.821752548217773,-1.2746130228042603,-124.45252227783203,121.13764190673828,-175.7786407470703
-2,Pressed,0.8379227519035339,1.9069607257843018,0.812705397605896,325.3066711425781,282.9183349609375,196.37313842773438,0,90.90129852294922,-23.17893409729004,-28.283384323120117,-1.2402440309524536,-124.84431457519531,121.8486328125,-176.26112365722656
-2,Pressed,0.8338474035263062,1.8980462551116943,0.8122332096099854,326.7049255371094,283.6006164550781,195.68359375,0,91.33349609375,-24.008708953857422,-28.632282257080078,-1.2259750366210938,-125.26356506347656,122.5522689819336,-176.795166015625
-2,Pressed,0.82909095287323,1.8880892992019653,0.8124071359634399,328.2322998046875,284.4038391113281,195.0751953125,0,91.79259490966797,-24.980024337768555,-28.885662078857422,-1.227974534034729,-125.68663024902344,123.24994659423828,-177.4012908935547
-2,Pressed,0.8249841928482056,1.8799136877059937,0.8126614093780518,329.4416809082031,285.1037292480469,194.57254028320312,0,92.14855194091797,-25.813674926757812,-29.06875228881836,-1.1825331449508667,-126.0354232788086,123.78181457519531,-177.94151306152344
-2,Pressed,0.819251298904419,1.8694339990615845,0.8130313158035278,330.9468078613281,285.867919921875,194.0723419189453,0,92.56219482421875,-26.90288543701172,-29.290239334106445,-1.1783028841018677,-126.44628143310547,124.34030151367188,-178.59896850585938
-2,Pressed,0.8130888938903809,1.8590497970581055,0.8129810094833374,332.37432861328125,286.50494384765625,193.57777404785156,0,92.92603302001953,-28.00291633605957,-29.622365951538086,-1.1662510633468628,-126.81681823730469,124.79761505126953,-179.2589111328125
-2,Pressed,0.8077333569526672,1.850637435913086,0.812481164932251,333.47412109375,286.96002197265625,193.10302734375,0,93.19114685058594,-28.912195205688477,-30.013629913330078,-1.1144412755966187,-127.10457611083984,125.11163330078125,-179.82766723632812
-2,Pressed,0.8006271719932556,1.8396532535552979,0.8123114109039307,334.8638916015625,287.5010681152344,192.68698120117188,0,93.4986343383789,-30.103803634643555,-30.38503646850586,-1.1234997510910034,-127.44269561767578,125.41202545166016,-180.52110290527344
-2,Pressed,0.7935760021209717,1.829091191291809,0.8121408820152283,336.1235656738281,288.02642822265625,192.2776641845703,0,93.77118682861328,-31.265846252441406,-30.740352630615234,-1.1050677299499512,-127.77495574951172,125.62493896484375,-181.22283935546875
-2,Pressed,0.7883139848709106,1.8192236423492432,0.8043363690376282,336.1305847167969,287.42254638671875,193.3165740966797,0,98.42646026611328,-26.668855667114258,-33.489349365234375,-15.619376182556152,-132.9683380126953,119.71898651123047,-188.95237731933594
-2,Pressed,0.7991803884506226,1.8003026247024536,0.8145444393157959,334.8577575683594,290.3756408691406,196.42738342285156,0,103.0824203491211,-19.904645919799805,-29.73770523071289,-33.577144622802734,-139.44667053222656,111.01448059082031,-197.14987182617188
-2,Pressed,0.8139233589172363,1.778291940689087,0.8584346771240234,334.367919921875,296.735595703125,198.1982879638672,0,107.46092987060547,-16.565532684326172,-24.116628646850586,-43.48579788208008,-143.03038024902344,105.08122253417969,-200.8591766357422
-2,Pressed,0.8179929256439209,1.7542318105697632,0.867118775844574,334.2203063964844,297.9951477050781,198.34490966796875,0,109.99864959716797,-14.122100830078125,-23.425310134887695,-51.799156188964844,-145.2257537841797,99.62610626220703,-203.62403869628906
-2,Pressed,0.8139582872390747,1.730698585510254,0.8507676124572754,334.0268249511719,295.8894958496094,198.29141235351562,0,109.8616714477539,-12.217168807983398,-24.080419540405273,-58.9771728515625,-146.4906005859375,94.61872863769531,-205.95458984375
-2,Pressed,0.8123213052749634,1.7045780420303345,0.8424886465072632,333.9268493652344,294.86114501953125,198.32456970214844,0,109.8487548828125,-10.780517578125,-23.945545196533203,-65.73092651367188,-147.3799591064453,89.61270141601562,-208.22415161132812
5,Pressed,0.8132316470146179,1.6950995922088623,0.8452035784721375,333.94097900390625,297.5474853515625,198.44374084472656,0,109.3768081665039,-11.348137855529785,-23.727083206176758,-66.85645294189453,-146.39962768554688,89.61367797851562,-211.5716552734375
5,Pressed,0.8105447888374329,1.694388747215271,0.8403921723365784,334.00384521484375,303.3941955566406,198.2417449951172,0,106.48948669433594,-14.028907775878906,-23.48504066467285,-63.622344970703125,-143.9550018310547,94.01557922363281,-217.96145629882812
5,Pressed,0.8122148513793945,1.693636178970337,0.8501241207122803,334.08209228515625,308.9148254394531,198.3539581298828,0,105.8579330444336,-16.013961791992188,-22.768104553222656,-61.14562225341797,-142.4877471923828,97.12862396240234,-221.899658203125
5,Pressed,0.8107913732528687,1.6935454607009888,0.8483364582061768,334.1188659667969,313.119140625,198.36029052734375,0,104.17603302001953,-18.04356575012207,-22.350833892822266,-58.387840270996094,-141.15924072265625,100.36966705322266,-225.65835571289062
5,Pressed,0.8080617785453796,1.6935646533966064,0.8437299728393555,334.2332458496094,317.70123291015625,198.29856872558594,0,102.08959197998047,-20.536489486694336,-21.798847198486328,-54.76128387451172,-139.88314819335938,104.20952606201172,-229.59727478027344
5,Pressed,0.8069486021995544,1.6930556297302246,0.8448079228401184,334.359619140625,323.0375061035156,198.30311584472656,0,100.68415832519531,-23.11710548400879,-20.82526969909668,-50.88315963745117,-138.90000915527344,108.00736236572266,-233.196533203125
-5,Pressed,0.8095502853393555,1.691977620124817,0.8546486496925354,334.42333984375,323.967041015625,198.31993103027344,0,101.61335754394531,-22.9644832611084,-20.06976318359375,-51.20287322998047,-139.35934448242188,107.56124877929688,-232.87054443359375
-5,Pressed,0.8094028234481812,1.6928913593292236,0.8492885231971741,334.3003234863281,317.6515808105469,198.28436279296875,0,102.93720245361328,-20.23893165588379,-21.741878509521484,-55.27739334106445,-140.17034912109375,103.60643005371094,-229.01010131835938
-5,Pressed,0.809788167476654,1.6935280561447144,0.8457602858543396,334.1772155761719,311.9286193847656,198.25775146484375,0,104.4037857055664,-17.717397689819336,-22.825925827026367,-58.83777618408203,-141.36619567871094,99.7927017211914,-224.94235229492188
-5,Pressed,0.8117401599884033,1.6935911178588867,0.8497926592826843,334.1622314453125,308.1958312988281,198.23751831054688,0,106.26690673828125,-15.795135498046875,-23.088428497314453,-61.40929412841797,-142.7407684326172,96.68930053710938,-221.2422637939453
-5,Pressed,0.8141905069351196,1.6936315298080444,0.8538693189620972,334.1029052734375,303.29205322265625,198.2901153564453,0,108.76815795898438,-13.402331352233887,-23.532567977905273,-64.5224838256836,-144.62257385253906,92.78068542480469,-216.23779296875
-5,Pressed,0.8151586055755615,1.693881869316101,0.8531138300895691,334.03155517578125,298.1867980957031,198.27183532714844,0,110.73424530029297,-11.224553108215332,-23.849416732788086,-67.15634155273438,-146.75022888183594,89.17700958251953,-211.1400146484375
-5,Pressed,0.8166674971580505,1.6940933465957642,0.8547132611274719,333.9801025390625,293.4361877441406,198.27313232421875,0,112.88589477539062,-9.195658683776855,-23.7734375,-69.46940612792969,-149.23306274414062,85.7220458984375,-205.62632751464844
-5,Pressed,0.8182806372642517,1.694239854812622,0.8570441007614136,333.9315185546875,289.14190673828125,198.25694274902344,0,114.8554916381836,-7.4096598625183105,-23.298524856567383,-71.40211486816406,-151.9231414794922,82.6209945678711,-200.07040405273438
-5,Pressed,0.8211432695388794,1.6943848133087158,0.8629246354103088,333.9002685546875,284.3834533691406,198.33395385742188,0,117.3960189819336,-5.482408046722412,-22.37258529663086,-73.41415405273438,-155.4315643310547,79.22716522216797,-192.97877502441406
-5,Pressed,0.8239558339118958,1.6944847106933594,0.8690053224563599,333.8755187988281,280.1883544921875,198.34744262695312,0,119.45480346679688,-3.9285356998443604,-20.97343635559082,-74.95945739746094,-159.05258178710938,76.45503234863281,-186.0539093017578
-5,Pressed,0.8270491361618042,1.6944808959960938,0.8759998083114624,333.87158203125,276.083984375,198.3297119140625,0,121.41329193115234,-2.6123297214508057,-19.246910095214844,-76.23792266845703,-163.00698852539062,74.08158874511719,-178.68807983398438
-5,Pressed,0.8307433128356934,1.6943882703781128,0.8845348358154297,333.8681945800781,271.6492004394531,198.2775115966797,0,123.60392761230469,-1.4642505645751953,-17.218441009521484,-77.3446044921875,-167.65667724609375,72.01203155517578,-170.17271423339844
-5,Pressed,0.8337607979774475,1.6942919492721558,0.8913722038269043,333.8365478515625,267.4712219238281,198.1903076171875,0,125.54093933105469,-0.6969605088233948,-15.4043550491333,-78.08344268798828,-172.11912536621094,70.675537109375,-162.1197967529297
-5,Pressed,0.8357824683189392,1.694213628768921,0.8958491086959839,333.8052062988281,263.31768798828125,198.10411071777344,0,127.23255920410156,-0.24405023455619812,-13.890170097351074,-78.51776885986328,-176.33999633789062,69.97172546386719,-154.49508666992188
2,Pressed,0.8269938826560974,1.7052066326141357,0.8754417300224304,333.85968017578125,258.66949462890625,198.0349578857422,0,124.56172180175781,-0.6524965763092041,-13.09350299835205,-76.02513122558594,-177.86041259765625,72.007568359375,-151.46881103515625
2,Pressed,0.8274925351142883,1.7339179515838623,0.8776417970657349,333.8526306152344,258.9011535644531,198.1580047607422,0,125.01483917236328,-1.8199939727783203,-13.857843399047852,-69.45970153808594,-177.26930236816406,77.3879165649414,-151.71261596679688
2,Pressed,0.8291400074958801,1.7574372291564941,0.8827504515647888,333.9398193359375,259.5719909667969,198.22097778320312,0,125.43548583984375,-3.2113969326019287,-14.402953147888184,-63.42720031738281,-176.49142456054688,82.13726806640625,-152.0497283935547
-3,Pressed,0.8336060643196106,1.7682652473449707,0.8836767673492432,333.92926025390625,261.26300048828125,198.26560974121094,0,126.2723617553711,-3.4299733638763428,-15.964310646057129,-61.07564163208008,-175.0903778076172,84.38632202148438,-154.04098510742188
-3,Pressed,0.8358231782913208,1.7688605785369873,0.8658310770988464,333.8785400390625,262.9605712890625,198.23219299316406,0,124.60625457763672,-2.544621229171753,-17.825712203979492,-61.90827560424805,-172.57122802734375,84.83477783203125,-158.83950805664062
-3,Pressed,0.8333764672279358,1.7689769268035889,0.8436076641082764,333.8692321777344,262.84783935546875,198.264892578125,0,122.42350769042969,-2.184025526046753,-19.733489990234375,-62.28804016113281,-170.54669189453125,85.28005981445312,-162.43460083007812
-3,Pressed,0.8290646076202393,1.7689404487609863,0.8105207681655884,333.872314453125,261.7833557128906,198.26882934570312,0,118.89422607421875,-2.0508975982666016,-22.113924026489258,-62.46231460571289,-168.08560180664062,86.00820922851562,-166.73886108398438
-3,Pressed,0.8247982263565063,1.7689003944396973,0.7704289555549622,333.9152526855469,259.91510009765625,198.27658081054688,0,114.41679382324219,-2.314547538757324,-24.81688117980957,-62.2483024597168,-165.3148651123047,87.06214904785156,-171.32150268554688
3,Pressed,0.8216763138771057,1.7687382698059082,0.7469847798347473,333.93890380859375,256.03594970703125,198.2169189453125,0,111.7121353149414,-2.2888898849487305,-24.65782356262207,-62.2739372253418,-166.02423095703125,86.81517791748047,-170.14796447753906
3,Pressed,0.8188934326171875,1.7682702541351318,0.7495617270469666,333.9677734375,253.33453369140625,198.15655517578125,0,111.75480651855469,-2.2028210163116455,-22.648914337158203,-62.38390350341797,-168.49058532714844,85.93135070800781,-165.9920196533203
3,Pressed,0.8175867795944214,1.7680895328521729,0.7763236165046692,333.9815979003906,253.66676330566406,198.1145477294922,0,114.51508331298828,-2.392023801803589,-20.436002731323242,-62.179256439208984,-170.86190795898438,85.26929473876953,-161.84799194335938
3,Pressed,0.8205142021179199,1.7681827545166016,0.8219009041786194,333.97381591796875,256.2550354003906,198.13845825195312,0,119.53199768066406,-2.8553545475006104,-18.283790588378906,-61.66916275024414,-173.12948608398438,84.78291320800781,-157.70079040527344
3,Pressed,0.830255925655365,1.7684166431427002,0.8773409128189087,333.9666442871094,260.17938232421875,198.19056701660156,0,125.71295166015625,-3.6096863746643066,-16.253509521484375,-60.824493408203125,-175.20973205566406,84.51770782470703,-153.77276611328125
3,Pressed,0.8403301239013672,1.7683932781219482,0.9217280149459839,333.9761962890625,262.7446594238281,198.24368286132812,0,130.52110290527344,-4.645654201507568,-14.482004165649414,-59.700199127197266,-177.1317138671875,84.42130279541016,-150.0605926513672
3,Pressed,0.8445499539375305,1.7680896520614624,0.9497828483581543,334.0251770019531,263.2635498046875,198.25697326660156,0,133.3079833984375,-5.945804595947266,-13.150408744812012,-58.277713775634766,-178.82870483398438,84.54557037353516,-146.6864471435547
3,Pressed,0.8395351767539978,1.767528772354126,0.9605821371078491,334.0664367675781,261.64398193359375,198.22341918945312,0,134.06231689453125,-7.399223327636719,-12.415977478027344,-56.68072509765625,-180.27122497558594,84.8143539428711,-143.7338409423828
3,Pressed,0.8289386034011841,1.7669978141784668,0.9650329351425171,334.11163330078125,258.925537109375,198.16954040527344,0,134.19281005859375,-9.223003387451172,-12.254782676696777,-54.579986572265625,-181.56661987304688,85.33482360839844,-140.8076171875
3,Pressed,0.8218779563903809,1.7664991617202759,0.9775561094284058,334.148681640625,257.27117919921875,198.12806701660156,0,135.23129272460938,-11.292267799377441,-12.23580551147461,-52.08474349975586,-182.6414794921875,86.06144714355469,-138.12826538085938
3,Pressed,0.8239695429801941,1.7657887935638428,1.0063114166259766,334.23614501953125,257.7610778808594,198.12322998046875,0,137.70042419433594,-13.61473560333252,-11.746832847595215,-49.1452522277832,-183.57432556152344,87.01298522949219,-135.70184326171875
3,Pressed,0.8313814401626587,1.7648701667785645,1.043578028678894,334.4518127441406,259.21612548828125,198.13011169433594,0,140.63844299316406,-16.448843002319336,-10.9213285446167,-45.30445861816406,-184.35850524902344,88.44486999511719,-133.43173217773438
3,Pressed,0.8354415893554688,1.7635490894317627,1.074655532836914,334.7337951660156,259.94085693359375,198.1237335205078,0,142.68478393554688,-19.607770919799805,-10.365837097167969,-40.8121452331543,-184.83738708496094,90.2457275390625,-131.51255798339844
3,Pressed,0.8326766490936279,1.7620455026626587,1.095755696296692,334.9144592285156,259.4994812011719,198.03831481933594,0,143.726318359375,-22.952529907226562,-10.515596389770508,-35.84044647216797,-184.9917755126953,92.33760070800781,-129.95826721191406
3,Pressed,0.8313921689987183,1.7597438097000122,1.11952543258667,335.17523193359375,259.36114501953125,197.93443298339844,0,144.69033813476562,-26.90195655822754,-10.587644577026367,-29.63158416748047,-184.9242401123047,95.10636901855469,-128.58668518066406
3,Pressed,0.8346534967422485,1.7558472156524658,1.1500532627105713,335.9454345703125,260.152587890625,197.9432373046875,0,145.34890747070312,-32.234798431396484,-9.769962310791016,-20.44448471069336,-184.50210571289062,99.55384826660156,-127.50260162353516
1,Pressed,0.8620938658714294,1.75027596950531,1.1717995405197144,337.1629638671875,262.17437744140625,197.977783203125,0,148.16464233398438,-31.69969367980957,-8.068157196044922,-22.085912704467773,-185.42332458496094,99.27459716796875,-125.6949234008789
1,Pressed,0.8867893815040588,1.7543505430221558,1.1715281009674072,336.5086975097656,262.2464904785156,197.92115783691406,0,151.81724548339844,-28.081188201904297,-8.644726753234863,-28.038047790527344,-187.3909454345703,97.11258697509766,-123.5343017578125
1,Pressed,0.9045159220695496,1.7585736513137817,1.1600359678268433,335.376220703125,260.51251220703125,197.6442108154297,0,155.86378479003906,-24.415283203125,-11.11874008178711,-33.92218780517578,-189.45468139648438,95.39842987060547,-120.72442626953125
-3,Pressed,0.9189393520355225,1.7609184980392456,1.1451232433319092,335.1180419921875,261.06689453125,197.81492614746094,0,157.43637084960938,-20.24021339416504,-10.935538291931152,-40.175357818603516,-190.67861938476562,93.13774871826172,-120.10841369628906
-3,Pressed,0.918129563331604,1.7630959749221802,1.1218230724334717,334.77459716796875,260.88037109375,197.88229370117188,0,157.01597595214844,-16.813539505004883,-11.306884765625,-44.95392990112305,-191.0115966796875,91.33173370361328,-120.87943267822266
5,Pressed,0.9077785015106201,1.7643588781356812,1.1021089553833008,334.6696472167969,261.515869140625,198.06100463867188,0,154.97564697265625,-14.838516235351562,-12.07634449005127,-47.590755462646484,-189.521484375,89.72250366210938,-123.89605712890625
5,Pressed,0.9074715375900269,1.7652580738067627,1.1002311706542969,334.4027099609375,267.960693359375,198.07876586914062,0,152.07318115234375,-13.497686386108398,-10.684069633483887,-49.26838684082031,-186.33154296875,87.72322082519531,-131.19412231445312
5,Pressed,0.9103713035583496,1.7655377388000488,1.1025136709213257,334.4598693847656,272.39312744140625,198.2492218017578,0,150.5963592529297,-12.976716041564941,-10.187915802001953,-49.90861129760742,-183.61868286132812,86.8380355834961,-136.06375122070312
5,Pressed,0.9078971743583679,1.7659510374069214,1.0997459888458252,334.38116455078125,276.96038818359375,198.29954528808594,0,148.0258331298828,-12.603670120239258,-9.79019832611084,-50.35086441040039,-180.2941131591797,86.19184875488281,-142.158935546875
5,Pressed,0.9033488035202026,1.766309380531311,1.0951412916183472,334.29217529296875,281.6036376953125,198.3114013671875,0,144.9499969482422,-12.529899597167969,-9.473272323608398,-50.40767288208008,-176.56015014648438,86.03205108642578,-148.8264923095703
5,Pressed,0.8986255526542664,1.7665393352508545,1.090430736541748,334.2126770019531,285.8666076660156,198.31378173828125,0,142.05104064941406,-12.745233535766602,-9.342568397521973,-50.11214065551758,-172.95346069335938,86.3622817993164,-155.09091186523438
5,Pressed,0.8951590061187744,1.7667144536972046,1.0871829986572266,334.1795654296875,290.18212890625,198.30458068847656,0,139.3965606689453,-13.270354270935059,-9.225079536437988,-49.39189529418945,-169.44032287597656,87.21073913574219,-161.0847930908203
5,Pressed,0.8928675651550293,1.7667458057403564,1.0853294134140015,334.1534729003906,295.2456359863281,198.2490692138672,0,136.54493713378906,-14.163412094116211,-8.746363639831543,-48.16400146484375,-165.80401611328125,88.65913391113281,-167.4835968017578
5,Pressed,0.8897114992141724,1.7665908336639404,1.0826998949050903,334.14141845703125,299.7925109863281,198.19236755371094,0,133.90875244140625,-15.260348320007324,-8.412540435791016,-46.66839599609375,-162.54547119140625,90.42249298095703,-173.20118713378906
5,Pressed,0.8857020139694214,1.7664082050323486,1.079491376876831,334.17327880859375,304.1896667480469,198.0951690673828,0,131.31875610351562,-16.66693878173828,-8.091114044189453,-44.67226028442383,-159.5272216796875,92.64402770996094,-178.53868103027344
5,Pressed,0.8812285661697388,1.765818476676941,1.0761855840682983,334.24676513671875,309.19775390625,197.86851501464844,0,128.54434204101562,-18.564273834228516,-7.465278148651123,-41.90935516357422,-156.62783813476562,95.53685760498047,-184.05731201171875
-5,Pressed,0.8908042311668396,1.7656961679458618,1.0859283208847046,334.201171875,309.3133544921875,197.82125854492188,0,130.2469940185547,-18.01746368408203,-6.906417369842529,-42.7212028503418,-157.7808074951172,94.63916778564453,-182.57730102539062
-5,Pressed,0.8858903050422668,1.7659361362457275,1.0800721645355225,334.1261901855469,304.16668701171875,197.677490234375,0,131.76446533203125,-16.602128982543945,-8.16507625579834,-44.76201248168945,-160.1112518310547,92.48336029052734,-178.24368286132812
-5,Pressed,0.8899538516998291,1.766446828842163,1.083077311515808,334.11566162109375,298.4285888671875,197.9965057373047,0,135.1192169189453,-14.949981689453125,-9.171552658081055,-47.11273956298828,-163.4689483642578,89.89923095703125,-171.6123504638672
-5,Pressed,0.8916076421737671,1.766564130783081,1.08414626121521,334.07537841796875,293.93951416015625,197.98130798339844,0,137.5803680419922,-13.954184532165527,-9.621406555175781,-48.4760627746582,-166.6517333984375,88.30172729492188,-166.14955139160156
-5,Pressed,0.8970791697502136,1.7666113376617432,1.0892053842544556,334.0880432128906,289.7829284667969,198.0523681640625,0,140.56028747558594,-13.187807083129883,-9.775959968566895,-49.510337829589844,-170.1280517578125,87.0641860961914,-160.1521453857422
-5,Pressed,0.9017776250839233,1.7665642499923706,1.0936013460159302,334.1085205078125,285.6898193359375,198.08277893066406,0,143.36166381835938,-12.716988563537598,-9.874545097351074,-50.14221954345703,-173.60794067382812,86.31749725341797,-154.19622802734375
-5,Pressed,0.9044812917709351,1.7663569450378418,1.0962092876434326,334.1713562011719,280.6934509277344,198.116455078125,0,146.29159545898438,-12.518062591552734,-10.300895690917969,-50.441829681396484,-177.3854522705078,86.02679443359375,-147.48233032226562
-5,Pressed,0.9065843820571899,1.7661054134368896,1.0984001159667969,334.2126770019531,276.2055969238281,198.09463500976562,0,148.74880981445312,-12.625253677368164,-10.558422088623047,-50.33584213256836,-180.7850341796875,86.25029754638672,-141.46937561035156
-5,Pressed,0.9088541865348816,1.7657359838485718,1.1009774208068848,334.28399658203125,271.5401611328125,198.0586395263672,0,151.3008270263672,-13.048986434936523,-10.987021446228027,-49.82826232910156,-184.10325622558594,86.97769165039062,-135.33053588867188
-5,Pressed,0.9109063148498535,1.7652602195739746,1.1035335063934326,334.3596496582031,266.89910888671875,197.9958953857422,0,153.68873596191406,-13.769916534423828,-11.494200706481934,-48.93745040893555,-187.1451416015625,88.15438079833984,-129.4434356689453
-5,Pressed,0.9124734401702881,1.7645847797393799,1.105886697769165,334.4591369628906,261.92626953125,197.91217041015625,0,156.00827026367188,-14.852816581726074,-12.246685981750488,-47.5814208984375,-189.94573974609375,89.83560943603516,-123.5456771850586
-5,Pressed,0.9147542715072632,1.7638643980026245,1.1090576648712158,334.5508728027344,257.5652160644531,197.7937774658203,0,157.93849182128906,-16.139514923095703,-12.840364456176758,-45.90885925292969,-192.21231079101562,91.76844024658203,-118.4676513671875
-5,Pressed,0.9157609939575195,1.7628731727600098,1.1113903522491455,334.677734375,252.61331176757812,197.6377716064453,0,159.6802978515625,-17.86293601989746,-13.816102981567383,-43.62435531616211,-194.13909912109375,94.2374038696289,-113.350830078125
-5,Pressed,0.9168123006820679,1.761612892150879,1.1140141487121582,334.82574462890625,247.8296356201172,197.45262145996094,0,161.01515197753906,-19.859756469726562,-14.754728317260742,-40.89565658569336,-195.59815979003906,96.99581146240234,-108.73067474365234
-5,Pressed,0.9171507358551025,1.760365605354309,1.1160993576049805,334.93780517578125,243.40487670898438,197.2058563232422,0,161.7908935546875,-22.01825714111328,-15.55675983428955,-37.79533767700195,-196.64276123046875,99.92784118652344,-104.84683227539062
-5,Pressed,0.9182684421539307,1.758374810218811,1.119633674621582,335.22509765625,238.8606414794922,196.85855102539062,0,162.1952667236328,-24.75531578063965,-16.3140869140625,-33.66427993774414,-197.2386932373047,103.54736328125,-101.07685089111328
-5,Pressed,0.9196602702140808,1.7558761835098267,1.1235936880111694,335.5774230957031,234.795166015625,196.4405059814453,0,162.08804321289062,-27.680213928222656,-16.711688995361328,-29.00426483154297,-197.55043029785156,107.3914566040039,-97.88809204101562
5,Pressed,0.9188780188560486,1.7555912733078003,1.1224223375320435,335.6036071777344,236.44699096679688,196.50210571289062,0,162.0181427001953,-26.53682518005371,-16.426259994506836,-31.018604278564453,-197.31483459472656,105.77799987792969,-99.06378936767578
5,Pressed,0.916630208492279,1.7574200630187988,1.1182087659835815,335.4120178222656,239.5716552734375,196.85540771484375,0,161.87672424316406,-24.24817657470703,-16.285783767700195,-34.61597442626953,-196.79310607910156,102.74371337890625,-101.75555419921875
5,Pressed,0.9163190722465515,1.7596522569656372,1.1155645847320557,335.1269226074219,244.24822998046875,197.21151733398438,0,161.4334716796875,-21.631895065307617,-15.392984390258789,-38.45286178588867,-196.18983459472656,99.29750061035156,-105.62454986572266
5,Pressed,0.9159475564956665,1.7609515190124512,1.1135154962539673,335.04217529296875,248.5609130859375,197.47421264648438,0,160.5620880126953,-19.58332633972168,-14.562629699707031,-41.34491729736328,-195.0994873046875,96.51847839355469,-109.48966217041016
5,Pressed,0.9134700298309326,1.7625582218170166,1.1093915700912476,334.8067932128906,253.2996368408203,197.6852569580078,0,158.9994354248047,-17.546079635620117,-13.678619384765625,-44.094905853271484,-193.57252502441406,93.71367645263672,-114.36161041259766
5,Pressed,0.9128848314285278,1.7634018659591675,1.1076116561889648,334.76141357421875,257.7196350097656,197.8759307861328,0,157.48899841308594,-16.0570125579834,-12.96385383605957,-46.06061553955078,-191.65594482421875,91.5556640625,-118.99334716796875
5,Pressed,0.9114296436309814,1.7642240524291992,1.1051486730575562,334.65667724609375,262.35614013671875,198.02545166015625,0,155.5240936279297,-14.75088119506836,-12.22778034210205,-47.741905212402344,-189.3249969482422,89.60243225097656,-124.2634506225586
5,Pressed,0.9098096489906311,1.7649024724960327,1.102738618850708,334.5576171875,267.0608215332031,198.14190673828125,0,153.3103485107422,-13.735294342041016,-11.589664459228516,-49.019676208496094,-186.58200073242188,88.02240753173828,-129.9324188232422
5,Pressed,0.9081265330314636,1.765397071838379,1.1004352569580078,334.46466064453125,271.76202392578125,198.21287536621094,0,150.96788024902344,-13.028696060180664,-11.093619346618652,-49.89723587036133,-183.52174377441406,86.8812026977539,-135.85775756835938
5,Pressed,0.9052099585533142,1.7659225463867188,1.0972013473510742,334.35919189453125,276.77593994140625,198.259033203125,0,148.05258178710938,-12.60976791381836,-10.536820411682129,-50.378578186035156,-179.9326629638672,86.17372131347656,-142.55027770996094
5,Pressed,0.9032237529754639,1.7662780284881592,1.0950483083724976,334.3001708984375,281.4132385253906,198.315673828125,0,145.50814819335938,-12.538236618041992,-10.256957054138184,-50.43395233154297,-176.39857482910156,86.0258560180664,-148.76284790039062
5,Pressed,0.8999555110931396,1.7665112018585205,1.0918138027191162,334.2372741699219,285.8593444824219,198.32823181152344,0,142.79368591308594,-12.757102966308594,-10.062896728515625,-50.12610626220703,-172.8180694580078,86.36538696289062,-154.97061157226562
-5,Pressed,0.9118013978004456,1.7665742635726929,1.1030827760696411,334.1607971191406,286.3602294921875,198.22836303710938,0,144.96762084960938,-12.649261474609375,-9.660276412963867,-50.240081787109375,-174.09425354003906,86.19539642333984,-153.2051239013672
-5,Pressed,0.9109785556793213,1.766344666481018,1.1023857593536377,334.1939697265625,281.67120361328125,198.15225219726562,0,147.205078125,-12.526571273803711,-10.257569313049316,-50.43204879760742,-177.33908081054688,86.02564239501953,-147.50100708007812
-5,Pressed,0.9050241708755493,1.766076683998108,1.0969494581222534,334.21527099609375,275.72869873046875,198.0868377685547,0,148.9871368408203,-12.649652481079102,-11.13280963897705,-50.33232879638672,-180.75942993164062,86.26871490478516,-141.27188110351562
-5,Pressed,0.9045727252960205,1.7657368183135986,1.0969181060791016,334.2659912109375,270.6190185546875,198.03892517089844,0,151.2572021484375,-13.084227561950684,-11.733139991760254,-49.819644927978516,-184.056640625,87.00765228271484,-135.12294006347656
-5,Pressed,0.9096326231956482,1.7652907371520996,1.1023261547088623,334.32501220703125,266.8891906738281,197.9669189453125,0,153.72677612304688,-13.75088882446289,-11.905855178833008,-48.98462677001953,-186.93511962890625,88.09652709960938,-129.71815490722656
-5,Pressed,0.9158661365509033,1.7643322944641113,1.1091495752334595,334.5373840332031,262.1488037109375,197.9451904296875,0,156.70541381835938,-14.93313980102539,-12.53332805633545,-47.515750885009766,-189.88140869140625,89.89994812011719,-123.3083724975586
-5,Pressed,0.9156439304351807,1.7637810707092285,1.1098144054412842,334.5190734863281,257.90777587890625,197.7786865234375,0,158.1951446533203,-16.07976722717285,-13.106252670288086,-46.03630065917969,-192.0378875732422,91.63634490966797,-118.73263549804688
-5,Pressed,0.9155972599983215,1.7629612684249878,1.111097812652588,334.6221923828125,253.0226593017578,197.63070678710938,0,159.74124145507812,-17.713857650756836,-14.060160636901855,-43.861328125,-193.903564453125,93.98746490478516,-113.82781219482422
-5,Pressed,0.9163092970848083,1.7617186307907104,1.113491415977478,334.79632568359375,247.9607696533203,197.4407958984375,0,161.11354064941406,-19.803577423095703,-15.131603240966797,-40.99811553955078,-195.3692626953125,96.8723373413086,-109.00732421875
-5,Pressed,0.9167988896369934,1.760282039642334,1.1158974170684814,334.9608459472656,243.23416137695312,197.19241333007812,0,161.9569091796875,-22.11701011657715,-16.072166442871094,-37.69099426269531,-196.3762664794922,99.98648071289062,-104.85626983642578
2,Pressed,0.9135640859603882,1.7704741954803467,1.1162545680999756,335.35430908203125,241.3354034423828,196.9141387939453,0,160.44793701171875,-25.147964477539062,-16.3140869140625,-30.291278839111328,-195.70411682128906,104.95433044433594,-105.0831069946289
2,Pressed,0.9161138534545898,1.794053316116333,1.1237050294876099,337.25372314453125,243.38034057617188,196.8126220703125,0,154.92990112304688,-33.77771759033203,-13.880468368530273,-6.763628005981445,-192.74368286132812,118.76781463623047,-110.32454681396484
-1,Pressed,0.9396226406097412,1.7766666412353516,1.1644010543823242,345.3822326660156,254.11643981933594,197.90089416503906,0,151.51405334472656,-36.8048210144043,0.3288465142250061,-1.1301491260528564,-191.53677368164062,120.63954162597656,-112.4612045288086
-1,Pressed,0.9266553521156311,1.7711060047149658,1.170522689819336,346.67205810546875,255.330810546875,199.11056518554688,0,149.1200408935547,-37.5167236328125,3.1204822063446045,-1.1366239786148071,-190.8179168701172,118.93644714355469,-113.47943115234375
-1,Pressed,0.890754759311676,1.7685047388076782,1.1575958728790283,344.3155822753906,251.8913116455078,199.3664093017578,0,146.63963317871094,-38.285648345947266,-0.18165291845798492,-1.200862169265747,-190.09323120117188,117.05746459960938,-114.5308837890625
-1,Pressed,0.8498371839523315,1.7673027515411377,1.136291265487671,340.75994873046875,247.24505615234375,199.284912109375,0,144.22714233398438,-39.11183166503906,-5.312321186065674,-1.2897241115570068,-189.37197875976562,115.10559844970703,-115.56004333496094
-2,Pressed,0.8200333118438721,1.7611029148101807,1.117480993270874,337.56915283203125,242.8948974609375,198.09552001953125,0,143.03494262695312,-40.41246795654297,-10.583694458007812,-1.2753993272781372,-189.0135955810547,114.22950744628906,-115.59699249267578
-2,Pressed,0.8186769485473633,1.7466140985488892,1.1274399757385254,338.951171875,243.77496337890625,197.335693359375,0,142.8018035888672,-41.65886306762695,-9.107150077819824,-1.2859550714492798,-188.83741760253906,114.05625915527344,-115.09039306640625
-2,Pressed,0.8408204913139343,1.7234269380569458,1.1592304706573486,341.3212890625,247.69033813476562,197.25967407226562,0,145.74542236328125,-36.389801025390625,-4.931516170501709,-17.058780670166016,-189.88963317871094,104.45584869384766,-112.56842041015625
-2,Pressed,0.8459032773971558,1.707850456237793,1.1572184562683105,338.4651184082031,246.77755737304688,197.43907165527344,0,149.31390380859375,-30.703798294067383,-7.25390625,-32.276145935058594,-192.24530029296875,94.60796356201172,-109.75698852539062
-2,Pressed,0.8076888918876648,1.6941585540771484,1.1086721420288086,334.9524841308594,239.4044189453125,197.4234161376953,0,149.62338256835938,-27.81372833251953,-14.727781295776367,-41.95823287963867,-192.84947204589844,88.00318908691406,-107.56008911132812
4,Pressed,0.81202232837677,1.6849998235702515,1.1145308017730713,334.30975341796875,241.1534423828125,195.5740203857422,0,150.34901428222656,-28.562740325927734,-14.07080078125,-42.2237663269043,-194.00291442871094,88.41033935546875,-107.81204223632812
4,Pressed,0.819239616394043,1.6793650388717651,1.126631259918213,331.8319396972656,245.79962158203125,189.2459716796875,0,151.94908142089844,-33.23862075805664,-13.817890167236328,-35.09709167480469,-196.8560333251953,95.24440002441406,-110.79558563232422
4,Pressed,0.8169931173324585,1.677267074584961,1.1275427341461182,330.72088623046875,248.03341674804688,185.2117919921875,0,151.80247497558594,-36.762516021728516,-14.076674461364746,-29.151098251342773,-198.0962677001953,100.18927001953125,-113.46551513671875
-4,Pressed,0.8198375701904297,1.6730809211730957,1.130631685256958,331.1944580078125,248.227783203125,185.52952575683594,0,151.96624755859375,-36.22657775878906,-13.428266525268555,-30.723482131958008,-198.05694580078125,99.13597106933594,-112.81475067138672
-4,Pressed,0.822667121887207,1.6767818927764893,1.1309152841567993,332.6559753417969,245.97879028320312,190.1171417236328,0,151.81114196777344,-32.54936981201172,-12.802651405334473,-36.476890563964844,-196.5540008544922,94.04542541503906,-110.18794250488281
-4,Pressed,0.8166433572769165,1.681796669960022,1.1201872825622559,334.09423828125,242.14541625976562,195.03765869140625,0,150.9796142578125,-28.751583099365234,-13.630537986755371,-42.44943618774414,-194.54159545898438,88.41900634765625,-107.75556945800781
-4,Pressed,0.8112003803253174,1.6853305101394653,1.1104005575180054,336.4703674316406,238.5899658203125,200.31996154785156,0,149.595947265625,-24.891324996948242,-13.883970260620117,-48.564918518066406,-192.1372833251953,82.21562957763672,-105.64287567138672
-4,Pressed,0.8110707998275757,1.6865307092666626,1.107702612876892,338.9971923828125,236.59158325195312,204.7847900390625,0,148.5242156982422,-21.699705123901367,-13.56521987915039,-53.88624954223633,-189.91549682617188,76.5343246459961,-104.23624420166016
-4,Pressed,0.8112425804138184,1.6869345903396606,1.1056344509124756,341.38995361328125,235.07034301757812,208.70135498046875,0,147.534423828125,-18.970407485961914,-13.39844036102295,-58.683345794677734,-187.70974731445312,71.21121978759766,-103.3859634399414
6,Pressed,0.8068944215774536,1.6885502338409424,1.1007435321807861,345.9284973144531,234.34715270996094,208.44052124023438,0,143.7667236328125,-20.037837982177734,-12.85927677154541,-55.59674835205078,-182.30352783203125,74.04806518554688,-105.03855895996094
6,Pressed,0.8039152026176453,1.6893619298934937,1.0995458364486694,349.1728210449219,234.69493103027344,205.70938110351562,0,140.91981506347656,-23.297134399414062,-12.738153457641602,-48.741416931152344,-178.24549865722656,80.86857604980469,-106.60592651367188
-6,Pressed,0.8058913350105286,1.6873500347137451,1.1015348434448242,348.4365234375,234.83975219726562,206.48561096191406,0,141.69801330566406,-22.288448333740234,-12.517477035522461,-51.11006164550781,-179.27908325195312,78.5931167602539,-106.24592590332031
-6,Pressed,0.8080199956893921,1.6875022649765015,1.101886510848999,344.4732360839844,234.16845703125,209.48876953125,0,145.39633178710938,-18.944507598876953,-13.505586624145508,-58.212379455566406,-183.9683074951172,71.35899353027344,-104.24069213867188
-6,Pressed,0.8106354475021362,1.6870366334915161,1.1025527715682983,340.51727294921875,233.27590942382812,212.7949981689453,0,149.1277618408203,-15.867361068725586,-14.243952751159668,-65.15614318847656,-189.57627868652344,64.20264434814453,-100.98855590820312
3,Pressed,0.8113796710968018,1.6869091987609863,1.114059567451477,339.04913330078125,232.95016479492188,214.0582275390625,0,151.00601196289062,-16.101165771484375,-14.366922378540039,-65.9060287475586,-192.0328826904297,62.32572937011719,-98.83272552490234
3,Pressed,0.8092137575149536,1.686224102973938,1.1394541263580322,339.140625,232.55047607421875,214.0648956298828,0,152.18955993652344,-19.345746994018555,-14.496328353881836,-61.53916549682617,-192.16268920898438,64.02200317382812,-97.16246032714844
-3,Pressed,0.8221636414527893,1.6851274967193604,1.1474474668502808,339.2906188964844,234.4842071533203,213.9864044189453,0,153.06869506835938,-18.628442764282227,-13.743797302246094,-62.61044692993164,-192.1997833251953,63.570892333984375,-97.52081298828125
-3,Pressed,0.8213016390800476,1.686424732208252,1.1236026287078857,339.14410400390625,234.45867919921875,214.04193115234375,0,151.96632385253906,-15.899364471435547,-13.938720703125,-66.19976043701172,-192.01431274414062,62.186607360839844,-98.97490692138672
-3,Pressed,0.8135440945625305,1.687769889831543,1.0923997163772583,339.047119140625,233.29061889648438,214.20211791992188,0,150.01040649414062,-13.361353874206543,-14.544594764709473,-69.41983032226562,-191.5671844482422,60.901397705078125,-100.56722259521484
