cesarbds/cloth_dressing/GMM/demo7.csv
Button,Action,x,y,z,roll,pitch,yaw,gripper_state,joint0,joint1,joint2,joint3,joint4,joint5,joint6,joint7
3,Pressed,1.8987081050872803,1.6809574365615845,0.320182204246521,38.31748580932617,205.65367126464844,131.81520080566406,0,-16.82491683959961,-60.38792419433594,69.26679229736328,50.66960906982422,61.844520568847656,66.81314086914062,58.19071960449219
3,Pressed,1.899075984954834,1.6860142946243286,0.35138097405433655,38.71604919433594,205.0114288330078,131.428955078125,0,-15.695826530456543,-59.42771530151367,68.76142120361328,56.466915130615234,62.44839859008789,64.62956237792969,53.0424919128418
3,Pressed,1.8986278772354126,1.6900612115859985,0.3774247169494629,38.77750778198242,204.7242889404297,131.06536865234375,0,-14.91761302947998,-58.295570373535156,68.52515411376953,61.08427429199219,63.259178161621094,62.81414794921875,48.520965576171875
3,Pressed,1.898255705833435,1.6925384998321533,0.40311965346336365,38.84402084350586,204.5791015625,130.8860321044922,0,-14.4118070602417,-57.0471076965332,68.49999237060547,65.21110534667969,64.02119445800781,61.13896942138672,44.12351989746094
3,Pressed,1.8978933095932007,1.6948013305664062,0.43072786927223206,38.90507507324219,204.4405975341797,130.7242431640625,0,-14.140445709228516,-55.5538444519043,68.55855560302734,69.17609405517578,64.8593978881836,59.48271179199219,39.50769805908203
3,Pressed,1.8974922895431519,1.696237564086914,0.4539041817188263,38.881126403808594,204.40933227539062,130.57069396972656,0,-14.067020416259766,-54.11906051635742,68.73343658447266,72.3074951171875,65.6686019897461,58.11349868774414,35.539207458496094
3,Pressed,1.8972349166870117,1.6977312564849854,0.47776979207992554,38.846195220947266,204.37088012695312,130.43519592285156,0,-14.230788230895996,-52.5330924987793,68.96043395996094,75.1425552368164,66.49598693847656,56.87373733520508,31.566652297973633
3,Pressed,1.8970249891281128,1.6992554664611816,0.503248929977417,38.8148078918457,204.2729949951172,130.30624389648438,0,-14.64429759979248,-50.7861213684082,69.21405029296875,77.78934478759766,67.35662078857422,55.73567199707031,27.493398666381836
3,Pressed,1.8968870639801025,1.7004314661026,0.529320478439331,38.76837158203125,204.2246856689453,130.24024963378906,0,-15.3212308883667,-48.896705627441406,69.584716796875,80.16081237792969,68.21102142333984,54.73078155517578,23.393478393554688
3,Pressed,1.8968380689620972,1.7014586925506592,0.5535510182380676,38.68354415893555,204.22769165039062,130.1631622314453,0,-16.18209457397461,-47.01676940917969,70.04914093017578,82.0986099243164,69.04058074951172,53.917762756347656,19.579761505126953
3,Pressed,1.8967984914779663,1.7026100158691406,0.5804648399353027,38.64466857910156,204.12960815429688,130.04457092285156,0,-17.377851486206055,-44.95393753051758,70.59194946289062,83.94261932373047,69.9344711303711,53.1508903503418,15.51414680480957
3,Pressed,1.8967053890228271,1.7034162282943726,0.6065118908882141,38.60689163208008,204.09144592285156,129.96058654785156,0,-18.800434112548828,-42.88867950439453,71.27754974365234,85.46356964111328,70.77388763427734,52.54606246948242,11.615325927734375
3,Pressed,1.8967139720916748,1.7038707733154297,0.6303935050964355,38.53150939941406,204.0988006591797,129.8952178955078,0,-20.39921760559082,-40.94516372680664,72.0999984741211,86.60594940185547,71.53033447265625,52.13772964477539,8.109397888183594
-3,Pressed,1.8966410160064697,1.7061054706573486,0.6259788870811462,38.49031448364258,203.58523559570312,129.40597534179688,0,-19.9764461517334,-41.417728424072266,71.58490753173828,86.39359283447266,71.64572143554688,52.19517517089844,8.980141639709473
-1,Pressed,1.882237195968628,1.7052218914031982,0.6145220994949341,38.61071014404297,203.94224548339844,129.6756591796875,0,-16.45655632019043,-41.78467559814453,69.2598876953125,88.11688232421875,70.65087127685547,52.26319122314453,9.565142631530762
-1,Pressed,1.8565815687179565,1.706817388534546,0.6150444149971008,38.52738952636719,203.7943572998047,129.49169921875,0,-11.49674129486084,-41.17366409301758,65.10279083251953,91.78260040283203,69.67402648925781,52.33186340332031,8.408134460449219
-1,Pressed,1.8316709995269775,1.708104133605957,0.6155824065208435,38.44242858886719,203.66107177734375,129.27175903320312,0,-6.699934959411621,-40.920650482177734,60.744956970214844,95.14036560058594,68.79354858398438,52.64581298828125,7.36590576171875
-1,Pressed,1.8067126274108887,1.7091670036315918,0.616188108921051,38.3110466003418,203.56063842773438,129.10833740234375,0,-2.069415330886841,-41.03470993041992,56.13947296142578,98.20662689208984,67.86368560791016,53.362606048583984,6.523224353790283
-1,Pressed,1.7808094024658203,1.7098517417907715,0.6167798042297363,38.20334243774414,203.49017333984375,128.99859619140625,0,2.4910738468170166,-41.56386947631836,51.223731994628906,101.13760375976562,66.8387451171875,54.449771881103516,5.781393527984619
-1,Pressed,1.7555625438690186,1.7103288173675537,0.6172592639923096,38.097843170166016,203.415283203125,128.89202880859375,0,6.654820442199707,-42.4217414855957,46.39201736450195,103.74847412109375,65.7501220703125,55.80202865600586,5.2082133293151855
-1,Pressed,1.729413628578186,1.7107150554656982,0.6176300644874573,38.013790130615234,203.3637237548828,128.81265258789062,0,10.622665405273438,-43.62062454223633,41.41969680786133,106.16978454589844,64.47628021240234,57.505550384521484,4.751950263977051
-1,Pressed,1.7039778232574463,1.7109336853027344,0.6178715229034424,37.9556770324707,203.31822204589844,128.74557495117188,0,14.155338287353516,-45.03620147705078,36.66983413696289,108.27008056640625,63.07347106933594,59.386775970458984,4.435763835906982
-1,Pressed,1.6805429458618164,1.711201786994934,0.6180517673492432,37.90089416503906,203.27880859375,128.68434143066406,0,17.129858016967773,-46.49139404296875,32.3768196105957,109.9461898803711,61.61543273925781,61.31850814819336,4.265230178833008
-1,Pressed,1.6552026271820068,1.7113406658172607,0.618087112903595,37.88827133178711,203.2707977294922,128.65541076660156,0,20.103496551513672,-48.199485778808594,27.87143898010254,111.49868774414062,59.82939910888672,63.53126525878906,4.19002628326416
-1,Pressed,1.6308690309524536,1.711587905883789,0.6181274056434631,37.88044738769531,203.23692321777344,128.5922393798828,0,22.748247146606445,-49.92131042480469,23.647972106933594,112.72599792480469,57.94794845581055,65.76376342773438,4.229934215545654
-1,Pressed,1.6081011295318604,1.711817741394043,0.6181622743606567,37.88117980957031,203.18650817871094,128.5321807861328,0,25.0294189453125,-51.59782409667969,19.804964065551758,113.6286392211914,56.04482650756836,67.95567321777344,4.367907524108887
-1,Pressed,1.5816874504089355,1.7119423151016235,0.6180598735809326,37.8662109375,203.2062225341797,128.52671813964844,0,27.533971786499023,-53.53836441040039,15.511996269226074,114.35504913330078,53.64657211303711,70.60382080078125,4.640842437744141
-1,Pressed,1.5567528009414673,1.7121500968933105,0.6180053353309631,37.86630630493164,203.2055206298828,128.5120086669922,0,29.753660202026367,-55.38441848754883,11.605215072631836,114.73432159423828,51.2586555480957,73.17327880859375,4.997099876403809
-1,Pressed,1.5308719873428345,1.7123260498046875,0.6179648637771606,37.863502502441406,203.1933135986328,128.49151611328125,0,31.960559844970703,-57.29154586791992,7.7262067794799805,114.82733917236328,48.678550720214844,75.88113403320312,5.474772930145264
-1,Pressed,1.5068658590316772,1.7125519514083862,0.6179158687591553,37.88082504272461,203.18263244628906,128.4822235107422,0,33.91521072387695,-59.043907165527344,4.30584716796875,114.61649322509766,46.2291374206543,78.4483413696289,5.994627475738525
-1,Pressed,1.4828323125839233,1.7127883434295654,0.6179128885269165,37.88408660888672,203.18577575683594,128.470703125,0,35.817691802978516,-60.746849060058594,1.0510401725769043,114.13661193847656,43.7645263671875,81.0678939819336,6.568784236907959
2,Pressed,1.4722548723220825,1.7246577739715576,0.6179635524749756,37.85108947753906,203.2200164794922,128.543212890625,0,36.63181686401367,-60.36614227294922,-0.2896330654621124,111.5816650390625,42.5496940612793,83.10883331298828,7.65407133102417
2,Pressed,1.4721628427505493,1.7520273923873901,0.6181652545928955,37.84444808959961,203.13247680664062,128.46702575683594,0,36.62735366821289,-57.85287094116211,-0.32642999291419983,106.3734359741211,42.38314437866211,85.07305908203125,9.498345375061035
2,Pressed,1.4721848964691162,1.7778972387313843,0.6184742450714111,37.82670974731445,203.11544799804688,128.45298767089844,0,36.662818908691406,-55.358848571777344,-0.3391103744506836,101.25194549560547,42.250732421875,87.00891876220703,11.300924301147461
2,Pressed,1.47218656539917,1.8028935194015503,0.6187865138053894,37.79364776611328,203.06068420410156,128.45806884765625,0,36.68050003051758,-52.88157653808594,-0.3330390751361847,96.08524322509766,42.149173736572266,88.98567199707031,13.174688339233398
2,Pressed,1.4721403121948242,1.8297653198242188,0.6190752983093262,37.799259185791016,202.99298095703125,128.429443359375,0,36.73993682861328,-50.15084457397461,-0.3300285339355469,90.31648254394531,42.09992980957031,91.17021942138672,15.271900177001953
2,Pressed,1.4721922874450684,1.8533574342727661,0.6195053458213806,37.78060531616211,202.97146606445312,128.4658660888672,0,36.821014404296875,-47.597591400146484,-0.3055579662322998,84.95710754394531,42.07582473754883,93.21412658691406,17.233444213867188
-6,Pressed,1.4728723764419556,1.8637640476226807,0.6197434067726135,36.23294448852539,205.5190887451172,132.7672882080078,0,36.51048278808594,-44.01253890991211,1.184380292892456,78.73714447021484,40.51858139038086,97.63975524902344,19.62936019897461
-6,Pressed,1.4736924171447754,1.8652780055999756,0.619446873664856,34.306148529052734,208.28758239746094,137.45016479492188,0,36.010040283203125,-41.017459869384766,3.125959873199463,74.01429748535156,38.887115478515625,101.80511474609375,21.418743133544922
-6,Pressed,1.4747214317321777,1.866919755935669,0.6192895174026489,31.92714500427246,210.97706604003906,142.4001922607422,0,35.15481185913086,-37.60687255859375,5.660148620605469,68.64813995361328,37.193145751953125,106.52511596679688,23.466760635375977
-6,Pressed,1.4760202169418335,1.8682785034179688,0.6192525625228882,29.230613708496094,213.48126220703125,147.33079528808594,0,33.9678840637207,-33.9530029296875,8.88785457611084,62.982513427734375,35.468360900878906,111.47550964355469,25.667312622070312
-6,Pressed,1.4774518013000488,1.869705080986023,0.6189985871315002,26.295360565185547,215.7259063720703,152.06655883789062,0,32.35478591918945,-30.11397361755371,12.994945526123047,57.03112030029297,33.74813461303711,116.5832290649414,28.124160766601562
-6,Pressed,1.4789658784866333,1.871098279953003,0.6186124682426453,23.320547103881836,217.56394958496094,156.41110229492188,0,30.243743896484375,-26.269004821777344,18.172470092773438,51.042457580566406,31.947202682495117,121.5689697265625,30.909605026245117
-6,Pressed,1.4806283712387085,1.871440052986145,0.6183052659034729,20.16811180114746,219.23333740234375,160.7459259033203,0,28.654956817626953,-21.96802520751953,25.785215377807617,44.9765625,28.494173049926758,126.14557647705078,34.973506927490234
-6,Pressed,1.4763462543487549,1.87000572681427,0.6210206747055054,16.405305862426758,220.76791381835938,164.79331970214844,0,48.72588348388672,-12.706387519836426,37.00185012817383,39.854740142822266,8.72193431854248,127.6337661743164,50.289573669433594
-6,Pressed,1.4844024181365967,1.8601229190826416,0.618387758731842,14.306018829345703,221.7769317626953,167.23159790039062,0,68.94879913330078,-6.776228427886963,36.962032318115234,39.884761810302734,-3.773482322692871,127.73069763183594,60.19057083129883
-6,Pressed,1.4885482788085938,1.8423724174499512,0.6183336973190308,11.248538970947266,222.8347930908203,170.17947387695312,0,77.99768829345703,-4.860200881958008,31.025543212890625,42.78846740722656,-4.663983345031738,127.73638153076172,62.128570556640625
-6,Pressed,1.490525484085083,1.8289122581481934,0.6203920841217041,8.809858322143555,222.86895751953125,172.3137664794922,0,87.9083023071289,-3.650872230529785,22.090227127075195,45.03164291381836,-4.660402774810791,127.73470306396484,63.42680358886719
-6,Pressed,1.4927729368209839,1.8123681545257568,0.6226854920387268,5.752330780029297,222.63906860351562,174.9594268798828,0,110.10399627685547,-2.0365378856658936,0.641823947429657,47.392059326171875,-4.313104629516602,127.73292541503906,65.00798797607422
5,Pressed,1.498368263244629,1.8063358068466187,0.6381653547286987,4.894402027130127,221.06585693359375,176.17385864257812,0,118.89704895019531,-1.5031081438064575,-11.73956298828125,48.17671203613281,-4.0669355392456055,127.73579406738281,63.27149200439453
5,Pressed,1.500678300857544,1.8075172901153564,0.646981418132782,5.345676422119141,224.82606506347656,176.4314422607422,0,117.39505004882812,-1.6055667400360107,-12.342927932739258,48.004737854003906,-4.04262638092041,127.73475646972656,57.40934753417969
5,Pressed,1.499135971069336,1.808029294013977,0.641369104385376,5.637877941131592,230.73968505859375,176.74313354492188,0,120.2003173828125,-1.5723540782928467,-13.73737907409668,47.850341796875,-4.026213645935059,127.7342529296875,52.918739318847656
5,Pressed,1.4960278272628784,1.8084564208984375,0.6313287019729614,5.913975238800049,238.14218139648438,177.12623596191406,0,124.23182678222656,-1.512926459312439,-15.282979011535645,47.68864059448242,-3.986790418624878,127.73136901855469,48.035789489746094
5,Pressed,1.494072437286377,1.8089213371276855,0.6257455348968506,6.1389851570129395,244.0206298828125,177.4703826904297,0,127.1650390625,-1.4771240949630737,-16.82171058654785,47.53876876831055,-3.929847478866577,127.73314666748047,43.59729766845703
5,Pressed,1.4983279705047607,1.8100641965866089,0.6392757892608643,6.455149173736572,246.16307067871094,177.77894592285156,0,125.6039047241211,-1.5855793952941895,-18.540979385375977,47.36594772338867,-3.8427810668945312,127.73394012451172,38.23099899291992
5,Pressed,1.4966455698013306,1.8105545043945312,0.634058952331543,6.645888328552246,252.39218139648438,178.18133544921875,0,129.25518798828125,-1.5506105422973633,-20.87570571899414,47.20132064819336,-3.7606329917907715,127.73411560058594,33.38631820678711
5,Pressed,1.4959638118743896,1.8111101388931274,0.6323149800300598,6.820271968841553,257.78643798828125,178.57504272460938,0,132.74420166015625,-1.5345271825790405,-23.848453521728516,47.0310173034668,-3.6829264163970947,127.73214721679688,28.572999954223633
5,Pressed,1.4916446208953857,1.8113939762115479,0.6206279993057251,6.929366111755371,266.02069091796875,179.0600128173828,0,138.53501892089844,-1.4681240320205688,-26.709442138671875,46.8758544921875,-3.5649025440216064,127.72731018066406,23.370145797729492
-1,Pressed,1.48388671875,1.811112880706787,0.6258953809738159,6.848541259765625,266.32550048828125,178.86647033691406,0,135.98764038085938,-2.870384693145752,-23.628135681152344,48.17914581298828,-3.9522838592529297,127.72526550292969,23.3231258392334
-1,Pressed,1.4630905389785767,1.8097509145736694,0.6292632222175598,6.838647365570068,264.8133544921875,178.51210021972656,0,126.09637451171875,-5.859386444091797,-12.354269981384277,51.20771026611328,-4.107396125793457,127.73249053955078,26.122224807739258
-1,Pressed,1.4374922513961792,1.8073724508285522,0.6210207939147949,6.862072944641113,266.3421630859375,178.25808715820312,0,125.32624053955078,-8.588434219360352,-6.895112037658691,53.97871398925781,-4.033390045166016,127.73387145996094,29.3416690826416
-1,Pressed,1.4097809791564941,1.804069995880127,0.6120848655700684,6.815830230712891,268.5789794921875,177.8936767578125,0,129.15908813476562,-11.203116416931152,-4.314759731292725,56.62515640258789,-4.00106954574585,127.73190307617188,33.53493881225586
-1,Pressed,1.3909331560134888,1.801181435585022,0.6103488802909851,6.765825271606445,268.0694580078125,177.48988342285156,0,131.17123413085938,-13.161359786987305,-2.6667118072509766,58.56637191772461,-3.889889717102051,127.73397827148438,37.75544738769531
-1,Pressed,1.3666648864746094,1.7972456216812134,0.6062464714050293,6.528143882751465,267.88116455078125,176.8690643310547,0,136.38092041015625,-15.243000030517578,-1.4117296934127808,60.696983337402344,-3.8049588203430176,127.73696899414062,44.42900848388672
-1,Pressed,1.3390456438064575,1.7929872274398804,0.600450873374939,5.982271671295166,268.06048583984375,176.08856201171875,0,144.97747802734375,-16.95989990234375,-0.5528988242149353,62.58539962768555,-3.7428925037384033,127.73826599121094,53.71146774291992
-1,Pressed,1.3165684938430786,1.7900161743164062,0.5958385467529297,5.275786399841309,267.91412353515625,175.44822692871094,0,153.5681915283203,-17.81800079345703,-0.12936608493328094,63.68497848510742,-3.7151618003845215,127.73933410644531,62.880332946777344
-1,Pressed,1.2827214002609253,1.7867298126220703,0.5905786156654358,3.8267505168914795,268.11236572265625,174.75393676757812,0,168.598876953125,-18.235322952270508,-0.09315439313650131,64.6200180053711,-3.6819193363189697,127.73983764648438,77.8176498413086
-1,Pressed,1.2533637285232544,1.7851552963256836,0.5888118743896484,2.3406853675842285,268.0615539550781,174.5288848876953,0,182.81689453125,-17.889951705932617,-0.618988573551178,64.79814910888672,-3.6813478469848633,127.74002838134766,91.65582275390625
-1,Pressed,1.2197970151901245,1.7847864627838135,0.5904595851898193,0.64604651927948,268.1164855957031,174.78640747070312,0,199.63070678710938,-16.835119247436523,-1.928573489189148,64.33219909667969,-3.687532424926758,127.73909759521484,107.23734283447266
-1,Pressed,1.1918600797653198,1.785654067993164,0.5942497849464417,359.4234313964844,268.10400390625,175.35653686523438,0,213.58804321289062,-15.429678916931152,-3.6792914867401123,63.35304641723633,-3.721068859100342,127.73822784423828,119.53543090820312
-1,Pressed,1.1602455377578735,1.7877386808395386,0.60030198097229,358.38824462890625,268.1912841796875,176.2131805419922,0,228.6544647216797,-13.290756225585938,-6.493545055389404,61.569190979003906,-3.7539117336273193,127.73655700683594,131.74627685546875
-1,Pressed,1.1377742290496826,1.7897469997406006,0.604350745677948,357.89752197265625,268.09527587890625,176.84205627441406,0,238.8293914794922,-11.365507125854492,-9.393725395202637,59.806114196777344,-3.8001575469970703,127.73577117919922,139.09857177734375
-1,Pressed,1.1146323680877686,1.7919316291809082,0.6078768968582153,357.5607604980469,267.99169921875,177.42816162109375,0,249.2801055908203,-9.098106384277344,-13.753907203674316,57.60578155517578,-3.822240114212036,127.73445892333984,145.25904846191406
-1,Pressed,1.093319058418274,1.7937127351760864,0.6104039549827576,357.3642272949219,267.90399169921875,177.89422607421875,0,260.5618591308594,-6.8083415031433105,-20.531076431274414,55.26797866821289,-3.8151192665100098,127.73358154296875,149.81478881835938
-1,Pressed,1.0667145252227783,1.7954654693603516,0.6118520498275757,357.2273254394531,267.2997131347656,178.23638916015625,0,280.8837585449219,-3.6258721351623535,-37.34727096557617,51.85260772705078,-3.409076690673828,127.73165893554688,154.10818481445312
-1,Pressed,1.051322102546692,1.7964122295379639,0.6121862530708313,357.17333984375,266.64837646484375,178.07688903808594,0,285.5614013671875,-1.3206698894500732,-43.3532829284668,49.84746170043945,-1.8806443214416504,127.72892761230469,154.39329528808594
-1,Pressed,1.0241034030914307,1.7947795391082764,0.610389232635498,357.5313415527344,265.4158935546875,178.0613250732422,0,221.06117248535156,0.9059426188468933,22.012372970581055,48.409767150878906,-1.5094435214996338,127.72080993652344,156.7328643798828
-1,Pressed,1.009680986404419,1.796753168106079,0.6048176288604736,356.56103515625,265.35137939453125,179.175048828125,0,198.67445373535156,3.525646924972534,49.53984832763672,46.40639114379883,-3.0968992710113525,127.73161315917969,160.77960205078125
-1,Pressed,0.9844793081283569,1.795101284980774,0.6087913513183594,356.5386657714844,265.9134216308594,179.1375274658203,0,221.4918975830078,6.562605381011963,30.324678421020508,42.956974029541016,-4.154858112335205,127.72653198242188,163.01466369628906
-1,Pressed,0.9604437947273254,1.7932764291763306,0.6156754493713379,356.345947265625,267.0338439941406,179.06961059570312,0,232.10897827148438,9.332222938537598,22.92791175842285,39.79758071899414,-4.739312171936035,127.72515106201172,164.6133575439453
-1,Pressed,0.9395395517349243,1.791003942489624,0.6195223331451416,356.0808410644531,267.5874328613281,179.07867431640625,0,237.73965454101562,11.903950691223145,19.544321060180664,36.89286422729492,-5.21852445602417,127.72390747070312,165.85589599609375
-1,Pressed,0.9184509515762329,1.7877686023712158,0.6189156770706177,355.7555236816406,267.2937316894531,179.0640869140625,0,241.55972290039062,14.703030586242676,17.05559539794922,33.70531463623047,-5.695207118988037,127.7223129272461,167.00399780273438
-1,Pressed,0.8994863629341125,1.7840968370437622,0.6180371046066284,355.4356689453125,266.989990234375,179.01473999023438,0,244.16726684570312,17.264795303344727,15.55250358581543,30.774377822875977,-6.192716598510742,127.72186279296875,167.9164276123047
3,Pressed,0.8909042477607727,1.7828009128570557,0.6340944766998291,355.35064697265625,266.4494323730469,179.33335876464844,0,247.1605682373047,17.912010192871094,15.23099422454834,30.088411331176758,-6.195812702178955,127.72260284423828,171.07164001464844
3,Pressed,0.8895244598388672,1.7835614681243896,0.655977725982666,355.3203430175781,266.8526611328125,179.7639923095703,0,249.64218139648438,17.555143356323242,16.260007858276367,30.51993179321289,-6.234185695648193,127.72022247314453,174.1150665283203
3,Pressed,0.8886476159095764,1.7840940952301025,0.6784518957138062,355.3258361816406,266.7878723144531,180.22601318359375,0,252.469482421875,17.288137435913086,16.858943939208984,30.837627410888672,-6.135439872741699,127.72077941894531,177.64637756347656
3,Pressed,0.887967586517334,1.7844653129577637,0.7026933431625366,355.3377990722656,266.83160400390625,180.72178649902344,0,255.60499572753906,17.171043395996094,17.51963233947754,30.977291107177734,-6.089753150939941,127.7209701538086,181.38441467285156
3,Pressed,0.8876217603683472,1.7846195697784424,0.7273406982421875,355.361328125,266.941650390625,181.212890625,0,258.904296875,17.22565269470215,18.15878677368164,30.91560173034668,-6.114422798156738,127.72075653076172,185.1350860595703
1,Pressed,0.8969751596450806,1.7866833209991455,0.7363138198852539,355.5260314941406,266.91461181640625,181.47756958007812,0,258.948486328125,15.997638702392578,19.4410400390625,32.32239532470703,-5.855813026428223,127.71846008300781,186.72329711914062
1,Pressed,0.9180743098258972,1.790217399597168,0.7362673282623291,355.9202880859375,266.86077880859375,181.543212890625,0,255.94546508789062,13.127861976623535,21.98855972290039,35.65967559814453,-5.177613258361816,127.72122192382812,186.98658752441406
1,Pressed,0.9398525953292847,1.7931978702545166,0.7362819910049438,356.2374572753906,266.834716796875,181.67868041992188,0,250.6525115966797,10.22655200958252,27.124427795410156,39.05015563964844,-4.642468452453613,127.72333526611328,187.38107299804688
-1,Pressed,0.9373441934585571,1.792893409729004,0.7369766235351562,356.2000427246094,266.9227600097656,181.616943359375,0,251.56712341308594,10.566577911376953,26.409774780273438,38.651302337646484,-4.781239986419678,127.72595977783203,187.3841552734375
-1,Pressed,0.9169751405715942,1.790184736251831,0.7370545864105225,355.87225341796875,266.9830322265625,181.53028869628906,0,256.1368103027344,13.288949012756348,22.088729858398438,35.46113204956055,-5.320854663848877,127.72376251220703,187.04153442382812
-1,Pressed,0.8953054547309875,1.7864446640014648,0.7367855310440063,355.4753723144531,266.9872131347656,181.45547485351562,0,259.2613220214844,16.226131439208984,19.22706413269043,32.033409118652344,-5.917494773864746,127.72160339355469,186.69151306152344
-1,Pressed,0.8765097260475159,1.7823545932769775,0.7365376949310303,355.110595703125,266.99053955078125,181.39439392089844,0,261.1563720703125,18.819416046142578,17.674846649169922,29.024280548095703,-6.524513244628906,127.72098541259766,186.41026306152344
-1,Pressed,0.8565868139266968,1.777379035949707,0.7363961935043335,354.6504821777344,267.0189208984375,181.34303283691406,0,262.6651306152344,21.609451293945312,16.712312698364258,25.742055892944336,-7.307794570922852,127.71955108642578,186.1221160888672
-1,Pressed,0.8381385207176208,1.7719264030456543,0.7360426783561707,354.2003479003906,267.00946044921875,181.28363037109375,0,263.7297668457031,24.246721267700195,16.3459529876709,22.641132354736328,-8.249094009399414,127.7191162109375,185.87306213378906
5,Pressed,0.8305944204330444,1.7687218189239502,0.7275426387786865,354.0925598144531,268.989013671875,180.28724670410156,0,263.9876403808594,25.27430534362793,14.383490562438965,21.472705841064453,-8.352148056030273,127.72589111328125,182.25112915039062
5,Pressed,0.8306196331977844,1.7685350179672241,0.7272895574569702,354.13873291015625,273.7789001464844,179.54270935058594,0,264.2660827636719,25.26442527770996,13.902164459228516,21.495849609375,-8.39124584197998,127.72560119628906,177.33026123046875
5,Pressed,0.831153929233551,1.7688071727752686,0.7345272302627563,354.1405029296875,280.047607421875,179.275634765625,0,264.7550964355469,25.238231658935547,14.796351432800293,21.546499252319336,-8.54875659942627,127.72187805175781,172.25650024414062
5,Pressed,0.831424355506897,1.7688634395599365,0.7373063564300537,354.2628479003906,285.796630859375,178.60536193847656,0,265.2097473144531,25.21426010131836,14.78809928894043,21.57407569885254,-8.709685325622559,127.71794128417969,166.8859405517578
5,Pressed,0.831274688243866,1.768744945526123,0.7349957823753357,354.5646057128906,290.59844970703125,177.69021606445312,0,265.486572265625,25.199954986572266,13.852327346801758,21.55690574645996,-8.732487678527832,127.71800994873047,161.55772399902344
5,Pressed,0.8311224579811096,1.7687305212020874,0.7329058647155762,354.8834533691406,294.99957275390625,176.9875030517578,0,265.6906433105469,25.190078735351562,12.905591011047363,21.51207160949707,-8.551168441772461,127.72321319580078,156.66323852539062
5,Pressed,0.8311045169830322,1.7688318490982056,0.733094334602356,355.34979248046875,300.67547607421875,176.18765258789062,0,266.1263427734375,25.17783546447754,12.336174964904785,21.477516174316406,-8.6700439453125,127.72065734863281,150.8592987060547
5,Pressed,0.8308088183403015,1.7688721418380737,0.7283435463905334,355.9519348144531,304.6491394042969,175.37271118164062,0,266.25762939453125,25.175966262817383,11.048192024230957,21.4019775390625,-8.613970756530762,127.72329711914062,145.91766357421875
5,Pressed,0.8309045433998108,1.7691643238067627,0.7323312759399414,356.251220703125,310.1455078125,175.08828735351562,0,266.62286376953125,25.173009872436523,11.341785430908203,21.35674476623535,-8.648852348327637,127.72303771972656,141.0154571533203
5,Pressed,0.8310045003890991,1.7694921493530273,0.7362595796585083,356.7033996582031,316.0810546875,174.68296813964844,0,267.08355712890625,25.172513961791992,11.647209167480469,21.305749893188477,-8.887991905212402,127.71754455566406,135.64089965820312
5,Pressed,0.8308624029159546,1.769794225692749,0.7365983724594116,357.30548095703125,321.2464599609375,174.2168426513672,0,267.3868103027344,25.177738189697266,11.305042266845703,21.214567184448242,-8.977377891540527,127.71654510498047,130.39208984375
5,Pressed,0.8305845856666565,1.770092487335205,0.7349311113357544,357.9156494140625,325.63385009765625,173.83079528808594,0,267.5437927246094,25.186298370361328,10.56655502319336,21.095293045043945,-8.836180686950684,127.72195434570312,125.56715393066406
5,Pressed,0.8303103446960449,1.7704811096191406,0.7332525253295898,358.7822570800781,330.6260070800781,173.3848876953125,0,267.8008728027344,25.194988250732422,9.928145408630371,20.973615646362305,-8.996950149536133,127.71915435791016,120.1103286743164
5,Pressed,0.8301506042480469,1.7709171772003174,0.7343675494194031,359.36090087890625,335.6753845214844,173.1884307861328,0,268.0331726074219,25.20565414428711,9.805337905883789,20.853919982910156,-9.012835502624512,127.72034454345703,115.13069152832031
5,Pressed,0.8300110697746277,1.7713918685913086,0.7361677885055542,359.8628845214844,340.69927978515625,173.06680297851562,0,268.2528076171875,25.217300415039062,9.818682670593262,20.727462768554688,-8.991676330566406,127.72261047363281,110.31004333496094
5,Pressed,0.8297748565673828,1.7719265222549438,0.7365208268165588,0.5945906043052673,345.8805236816406,172.92124938964844,0,268.46478271484375,25.23111343383789,9.653661727905273,20.58329963684082,-9.107688903808594,127.72096252441406,105.06031036376953
5,Pressed,0.8294785022735596,1.7724528312683105,0.7355718612670898,1.3235645294189453,350.519775390625,172.84349060058594,0,268.5921936035156,25.244426727294922,9.221307754516602,20.42784881591797,-9.082662582397461,127.72343444824219,100.12386322021484
5,Pressed,0.829205334186554,1.7730791568756104,0.7356042861938477,2.1572043895721436,355.873779296875,172.8351593017578,0,268.7650451660156,25.260372161865234,9.147590637207031,20.26861000061035,-9.307342529296875,127.71965026855469,94.66236114501953
5,Pressed,0.8289893865585327,1.7737057209014893,0.7369311451911926,2.771733283996582,1.1311049461364746,172.9071502685547,0,268.90411376953125,25.27606773376465,9.294465065002441,20.110515594482422,-9.402176856994629,127.71930694580078,89.55836486816406
5,Pressed,0.8287120461463928,1.774308443069458,0.736881673336029,3.3787310123443604,5.845974445343018,173.02012634277344,0,268.9540100097656,25.291309356689453,9.191436767578125,19.94617462158203,-9.384845733642578,127.72175598144531,84.76415252685547
5,Pressed,0.8284131288528442,1.7749660015106201,0.7363724708557129,4.121817111968994,10.813192367553711,173.21295166015625,0,269.01837158203125,25.3062801361084,9.081933975219727,19.77637481689453,-9.499466896057129,127.72096252441406,79.63448333740234
5,Pressed,0.8281701803207397,1.7755986452102661,0.7370733022689819,4.615426540374756,15.649240493774414,173.41015625,0,269.0284729003906,25.321184158325195,9.186070442199707,19.61073112487793,-9.458037376403809,127.7245101928711,74.8896484375
5,Pressed,0.8278796672821045,1.7762798070907593,0.7369226813316345,5.278766632080078,20.707761764526367,173.7100067138672,0,269.029296875,25.33736228942871,9.3030366897583,19.44234275817871,-9.621033668518066,127.72247314453125,69.78506469726562
5,Pressed,0.8276212811470032,1.77694833278656,0.7372273206710815,5.826943397521973,25.729381561279297,174.03062438964844,0,269.00543212890625,25.352190017700195,9.478560447692871,19.27634048461914,-9.692466735839844,127.72307586669922,64.81510162353516
5,Pressed,0.8273677825927734,1.7776142358779907,0.7374887466430664,6.343330383300781,30.731914520263672,174.39170837402344,0,268.96258544921875,25.36606216430664,9.66327953338623,19.112409591674805,-9.748875617980957,127.72355651855469,59.86991500854492
5,Pressed,0.8271157741546631,1.778328537940979,0.7378568649291992,6.925271987915039,36.184226989746094,174.8685302734375,0,268.9227294921875,25.38097381591797,10.035902976989746,18.95052146911621,-9.995144844055176,127.71914672851562,54.522239685058594
5,Pressed,0.8269245028495789,1.778915286064148,0.7387744784355164,7.147822380065918,40.69538116455078,175.1175079345703,0,268.7835388183594,25.392744064331055,10.235547065734863,18.79458236694336,-9.727143287658691,127.72872161865234,50.21432876586914
-5,Pressed,0.8278748393058777,1.779126763343811,0.7507300972938538,6.716399192810059,41.84334945678711,174.6995849609375,0,269.28680419921875,25.383249282836914,12.817339897155762,18.903404235839844,-10.64721393585205,127.70301055908203,51.21136474609375
-5,Pressed,0.8282804489135742,1.7785698175430298,0.7528560757637024,6.148931980133057,37.84230422973633,174.26632690429688,0,269.44696044921875,25.37196922302246,12.926639556884766,19.049001693725586,-10.557366371154785,127.70387268066406,55.548484802246094
-5,Pressed,0.8276280164718628,1.7774693965911865,0.7408510446548462,6.062516212463379,29.94342613220215,174.2106170654297,0,269.1734924316406,25.360441207885742,10.064305305480957,19.167837142944336,-9.775517463684082,127.72207641601562,61.21163558959961
5,Pressed,0.8269848823547363,1.7775722742080688,0.7186267375946045,7.325756072998047,27.28154182434082,174.9215850830078,0,268.4527893066406,25.364299774169922,5.67163610458374,19.010602951049805,-8.909485816955566,127.74771881103516,59.859840393066406
5,Pressed,0.8269205093383789,1.7782564163208008,0.7330427765846252,7.081925392150879,35.18528747558594,174.98045349121094,0,268.7467956542969,25.37849998474121,8.97254467010498,18.92464256286621,-9.646477699279785,127.72893524169922,54.64741516113281
5,Pressed,0.8271661400794983,1.7790067195892334,0.7428183555603027,6.995513916015625,41.5952262878418,174.98648071289062,0,268.9027099609375,25.39287757873535,11.10373306274414,18.813949584960938,-9.936963081359863,127.72303771972656,50.050846099853516
5,Pressed,0.8269398808479309,1.7796874046325684,0.7431309223175049,7.5130133628845215,46.9858283996582,175.51841735839844,0,268.8083190917969,25.408084869384766,11.594261169433594,18.66693878173828,-10.225225448608398,127.7176513671875,44.79629898071289
5,Pressed,0.8264239430427551,1.7801282405853271,0.7381106019020081,7.991750240325928,50.540199279785156,176.12181091308594,0,268.5068359375,25.4188175201416,10.674497604370117,18.500629425048828,-9.847196578979492,127.7295150756836,40.39792251586914
5,Pressed,0.8259758949279785,1.7806081771850586,0.7327906489372253,8.586292266845703,54.76203918457031,177.0329132080078,0,268.2346496582031,25.431554794311523,10.08327865600586,18.357162475585938,-9.96504020690918,127.72859954833984,35.343257904052734
5,Pressed,0.8258858919143677,1.7811942100524902,0.7355341911315918,8.745746612548828,60.40662384033203,177.4414825439453,0,268.0967102050781,25.44413948059082,11.012615203857422,18.24172592163086,-10.069805145263672,127.72734069824219,30.313350677490234
5,Pressed,0.8258111476898193,1.7817217111587524,0.7376279830932617,8.90809154510498,65.7000503540039,177.8818359375,0,267.9522705078125,25.45660400390625,11.82415771484375,18.14007568359375,-10.188260078430176,127.72540283203125,25.52050018310547
5,Pressed,0.825658917427063,1.782179594039917,0.7380054593086243,9.094156265258789,70.87195587158203,178.47178649902344,0,267.736328125,25.470918655395508,12.401091575622559,18.04425048828125,-10.328137397766113,127.72295379638672,20.57208251953125
5,Pressed,0.8254914283752441,1.7825608253479004,0.737635612487793,9.201309204101562,75.3892822265625,178.94410705566406,0,267.4847106933594,25.48154640197754,12.555434226989746,17.942218780517578,-10.110690116882324,127.73036193847656,16.108440399169922
5,Pressed,0.8252236843109131,1.7828483581542969,0.7355817556381226,9.350495338439941,80.73014831542969,179.916259765625,0,267.2189636230469,25.498464584350586,12.870965003967285,17.875228881835938,-10.458553314208984,127.72090911865234,10.611163139343262
5,Pressed,0.8251519203186035,1.7831670045852661,0.7364076375961304,9.351968765258789,85.2936782836914,180.22630310058594,0,266.94586181640625,25.509601593017578,13.224146842956543,17.79463005065918,-10.130928039550781,127.7310562133789,6.317958831787109
5,Pressed,0.8249372243881226,1.7833125591278076,0.7346076965332031,9.33833122253418,90.16499328613281,181.0556182861328,0,266.6665954589844,25.525959014892578,13.458521842956543,17.75127601623535,-10.301377296447754,127.72650909423828,1.3179399967193604
5,Pressed,0.8248538970947266,1.7834956645965576,0.7348029017448425,9.281418800354004,94.87581634521484,181.5052032470703,0,266.3795166015625,25.540151596069336,13.828788757324219,17.703388214111328,-10.121246337890625,127.7320785522461,-3.206995964050293
5,Pressed,0.8247635364532471,1.7835854291915894,0.7346568703651428,9.170488357543945,99.86483001708984,182.10812377929688,0,266.0933532714844,25.557838439941406,14.333959579467773,17.68465805053711,-10.177628517150879,127.73068237304688,-8.037857055664062
5,Pressed,0.8246999382972717,1.7835661172866821,0.7346947193145752,8.95921802520752,105.51893615722656,182.86383056640625,0,265.827392578125,25.57798194885254,15.047417640686035,17.70488739013672,-10.461387634277344,127.72084045410156,-13.47378921508789
5,Pressed,0.8247418403625488,1.7836172580718994,0.7359073162078857,8.8233642578125,110.45667266845703,183.22451782226562,0,265.5630187988281,25.593223571777344,15.587444305419922,17.701908111572266,-10.2666654586792,127.7264633178711,-18.052248001098633
5,Pressed,0.8246214985847473,1.7834678888320923,0.7346288561820984,8.536506652832031,115.32829284667969,183.86184692382812,0,265.23248291015625,25.613582611083984,15.898187637329102,17.72327995300293,-10.301300048828125,127.72429656982422,-22.9664363861084
-1,Pressed,0.8170512914657593,1.7806590795516968,0.7415831089019775,8.770581245422363,118.52104949951172,183.83950805664062,0,265.6597595214844,26.84457015991211,18.059993743896484,16.401657104492188,-11.553244590759277,127.71754455566406,-24.91155433654785
-1,Pressed,0.796930193901062,1.773144006729126,0.7384449243545532,9.19284439086914,118.10205841064453,184.34877014160156,0,266.2221984863281,29.884273529052734,19.651525497436523,12.782217979431152,-14.454512596130371,127.71797943115234,-25.151933670043945
-1,Pressed,0.7804218530654907,1.7656201124191284,0.7334656715393066,9.31016731262207,117.35187530517578,185.0726776123047,0,266.6770324707031,32.48353576660156,21.858678817749023,9.77680778503418,-18.31287956237793,127.72682189941406,-25.369436264038086
-1,Pressed,0.7667875289916992,1.7590889930725098,0.7359844446182251,9.760130882263184,117.9351577758789,185.1919403076172,0,267.2415771484375,34.821231842041016,27.809669494628906,7.116750717163086,-24.451284408569336,127.73333740234375,-25.64020347595215
-1,Pressed,0.7520178556442261,1.753133773803711,0.7378886938095093,10.623184204101562,118.40941619873047,185.41796875,0,268.2957763671875,37.40155792236328,36.3022575378418,3.6122050285339355,-33.83803176879883,127.72879028320312,-26.38211441040039
-1,Pressed,0.7382959127426147,1.7461788654327393,0.7371911406517029,11.397772789001465,118.2169189453125,185.48257446289062,0,268.9775390625,38.87455749511719,21.65587043762207,1.4269490242004395,-20.33525276184082,127.1744384765625,-27.397356033325195
1,Pressed,0.7424461245536804,1.746324062347412,0.7332426309585571,10.517512321472168,117.607666015625,185.84864807128906,0,268.883056640625,38.790306091308594,29.800451278686523,1.805590033531189,-29.24732780456543,127.62230682373047,-27.15758514404297
1,Pressed,0.7551106214523315,1.755243182182312,0.731471598148346,10.265753746032715,117.2779541015625,186.01727294921875,0,267.91009521484375,36.780025482177734,32.84852600097656,4.250467300415039,-31.313337326049805,127.7439193725586,-26.135875701904297
1,Pressed,0.768160343170166,1.7605628967285156,0.7324230670928955,9.697413444519043,117.30511474609375,185.5283966064453,0,267.1258850097656,34.52857971191406,26.311893463134766,7.2513628005981445,-23.570100784301758,127.74191284179688,-25.602128982543945
1,Pressed,0.782342791557312,1.7662192583084106,0.7346062660217285,9.29622745513916,117.5452880859375,184.8431396484375,0,266.5785217285156,32.19369888305664,21.602102279663086,10.17380142211914,-17.643829345703125,127.7327651977539,-25.337005615234375
1,Pressed,0.79873126745224,1.773113489151001,0.7363340854644775,8.952448844909668,117.73188781738281,184.3580322265625,0,266.0701904296875,29.601749420166016,18.82172203063965,13.237845420837402,-13.848941802978516,127.72457885742188,-25.12955093383789
1,Pressed,0.8163295984268188,1.7800543308258057,0.7361860275268555,8.562860488891602,117.60127258300781,184.1064453125,0,265.4763488769531,26.89634132385254,17.02337646484375,16.362489700317383,-11.364994049072266,127.72093200683594,-24.926982879638672
1,Pressed,0.8353142142295837,1.786771297454834,0.7347320318222046,8.158350944519043,117.23941802978516,183.9385986328125,0,264.7002258300781,24.048282623291016,15.803661346435547,19.61008071899414,-9.525924682617188,127.7204818725586,-24.724267959594727
1,Pressed,0.8543336391448975,1.792688250541687,0.7341880798339844,7.840392112731934,117.05554962158203,183.711669921875,0,263.7535400390625,21.27350425720215,15.480043411254883,22.75893211364746,-8.211158752441406,127.72030639648438,-24.5328311920166
1,Pressed,0.8736724853515625,1.798018217086792,0.7351449728012085,7.617096424102783,117.1614990234375,183.4434814453125,0,262.54376220703125,18.521461486816406,16.10541343688965,25.851591110229492,-7.267694473266602,127.71944427490234,-24.32674789428711
1,Pressed,0.8938617706298828,1.8026113510131836,0.7360423803329468,7.386214256286621,117.26518249511719,183.19924926757812,0,260.85186767578125,15.698836326599121,17.373634338378906,29.026777267456055,-6.48615026473999,127.71973419189453,-24.109893798828125
1,Pressed,0.91792893409729,1.806894302368164,0.7360066771507263,7.123079776763916,117.18762969970703,182.95030212402344,0,257.69183349609375,12.37812614440918,20.03208351135254,32.76569366455078,-5.732043266296387,127.72240447998047,-23.81371307373047
1,Pressed,0.9353759288787842,1.80973219871521,0.734965980052948,7.057906627655029,116.98174285888672,182.80999755859375,0,253.87086486816406,9.970734596252441,23.387258529663086,35.38692855834961,-5.230551719665527,127.72108459472656,-23.608732223510742
1,Pressed,0.963036298751831,1.8124014139175415,0.7338237762451172,6.908658504486084,116.71784973144531,182.5223846435547,0,242.68878173828125,6.2035627365112305,33.725135803222656,39.66626739501953,-4.2580246925354,127.72635650634766,-23.353111267089844
5,Pressed,0.9675570726394653,1.8124300241470337,0.7250655889511108,6.732997417449951,117.8739013671875,182.73301696777344,0,237.69419860839844,5.540801048278809,36.79627990722656,40.49686050415039,-3.941464900970459,127.72303771972656,-26.17375373840332
-3,Pressed,0.968674898147583,1.8125442266464233,0.7179792523384094,6.6052374839782715,121.2358169555664,183.07046508789062,0,233.7147674560547,5.447791576385498,39.627925872802734,40.72794723510742,-3.8706963062286377,127.72661590576172,-30.62935447692871
-5,Pressed,0.9697704315185547,1.8131300210952759,0.727745532989502,6.7317705154418945,121.37549591064453,183.0162811279297,0,234.74253845214844,5.325200080871582,40.6439323425293,40.769447326660156,-4.03733491897583,127.73526000976562,-28.83666229248047
-3,Pressed,0.9691354036331177,1.8129761219024658,0.7102165222167969,6.681876182556152,119.5339126586914,183.10073852539062,0,231.66519165039062,5.38689661026001,40.24504089355469,40.7252082824707,-3.909918785095215,127.72834777832031,-30.385101318359375
-5,Pressed,0.9692339301109314,1.8129503726959229,0.6996753215789795,6.708080291748047,115.9752197265625,183.0085906982422,0,229.9584503173828,5.434780597686768,40.08454132080078,40.67420196533203,-4.08897590637207,127.73513793945312,-28.820526123046875
3,Pressed,0.9697914123535156,1.8124637603759766,0.6898660063743591,6.748413562774658,109.6296157836914,182.63043212890625,0,230.3199920654297,5.364907741546631,37.380619049072266,40.68998718261719,-3.97092866897583,127.72492218017578,-24.732227325439453
3,Pressed,0.9685671329498291,1.8122079372406006,0.6972796320915222,6.812286376953125,106.40325164794922,182.3084716796875,0,234.3954315185547,5.379470348358154,34.414127349853516,40.56981658935547,-3.9778130054473877,127.72086334228516,-20.39907455444336
3,Pressed,0.9663179516792297,1.8122912645339966,0.7270503044128418,6.950979709625244,107.531005859375,182.0388946533203,0,242.92857360839844,5.584201335906982,31.50623893737793,40.19578170776367,-4.162398815155029,127.72293853759766,-16.03582000732422
3,Pressed,0.9672960042953491,1.8123644590377808,0.7695016264915466,7.1283369064331055,110.96267700195312,181.7477569580078,0,254.15199279785156,6.0418195724487305,28.39423179626465,39.55016326904297,-4.447850704193115,127.72599029541016,-11.574191093444824
3,Pressed,0.9718121290206909,1.8121405839920044,0.8096306920051575,7.286915302276611,114.08055114746094,181.43064880371094,0,264.903076171875,6.749488830566406,25.302942276000977,38.685302734375,-4.770630359649658,127.72772216796875,-7.289394855499268
3,Pressed,0.973344087600708,1.8114086389541626,0.834037184715271,7.384881019592285,114.29296875,181.1294403076172,0,272.6385192871094,7.679658889770508,21.972545623779297,37.639530181884766,-5.045849323272705,127.72661590576172,-3.3230514526367188
5,Pressed,0.9688527584075928,1.810969591140747,0.8312841057777405,7.356245994567871,115.04325103759766,181.2981414794922,0,273.215576171875,8.108807563781738,20.480009078979492,37.16598129272461,-4.940297603607178,127.72455596923828,-4.915201187133789
-3,Pressed,0.9696900844573975,1.811500906944275,0.822217583656311,7.289887428283691,117.4227294921875,181.52635192871094,0,269.06207275390625,7.5909929275512695,23.346776962280273,37.78706741333008,-4.853079319000244,127.72452545166016,-8.516141891479492
-5,Pressed,0.9738801717758179,1.8118760585784912,0.8248836994171143,7.311614990234375,116.632568359375,181.42420959472656,0,268.5588073730469,7.179234027862549,24.69065284729004,38.237632751464844,-4.979369163513184,127.72721862792969,-6.9624223709106445
-3,Pressed,0.9716668725013733,1.8122752904891968,0.8049748539924622,7.274084091186523,114.26343536376953,181.46424865722656,0,263.2420349121094,6.579317569732666,26.063398361206055,38.87895965576172,-4.646749496459961,127.72545623779297,-8.284546852111816
-5,Pressed,0.9710217714309692,1.8122859001159668,0.7957625389099121,7.251424789428711,110.9299545288086,181.38784790039062,0,261.1018981933594,6.315410614013672,26.518978118896484,39.18522262573242,-4.733356952667236,127.7288818359375,-6.6809563636779785
-3,Pressed,0.9675543308258057,1.8124374151229858,0.7631572484970093,7.1903228759765625,106.11502075195312,181.45068359375,0,253.55938720703125,5.826748371124268,27.552959442138672,39.72075653076172,-4.393471717834473,127.72505950927734,-8.117897033691406
-5,Pressed,0.9675133228302002,1.812391996383667,0.7538081407546997,7.18591833114624,102.2732162475586,181.31825256347656,0,251.7533721923828,5.643366813659668,27.54945945739746,39.9239501953125,-4.447335243225098,127.72705078125,-6.1145548820495605
-3,Pressed,0.9675822257995605,1.8125836849212646,0.7360292673110962,7.178446292877197,100.01814270019531,181.36439514160156,0,247.44808959960938,5.379552364349365,28.245100021362305,40.18684387207031,-4.210600852966309,127.72303771972656,-7.296885013580322
-5,Pressed,0.9686670303344727,1.8126827478408813,0.7356113195419312,7.192554473876953,98.67571258544922,181.28489685058594,0,246.3653564453125,5.240170955657959,29.464719772338867,40.3625602722168,-4.386510848999023,127.72979736328125,-5.938333511352539
-3,Pressed,0.9690874814987183,1.8128777742385864,0.7206279635429382,7.193103790283203,97.41280364990234,181.37661743164062,0,242.569580078125,5.087449073791504,30.24867820739746,40.50896072387695,-4.204404354095459,127.726318359375,-7.556694507598877
-5,Pressed,0.9694174528121948,1.8128948211669922,0.7194588780403137,7.215319633483887,95.37055206298828,181.2545928955078,0,242.3485565185547,5.041800022125244,30.329418182373047,40.55496597290039,-4.332828521728516,127.73180389404297,-5.74445104598999
-3,Pressed,0.9694129228591919,1.8128628730773926,0.7004208564758301,7.207866191864014,92.64286041259766,181.30931091308594,0,239.38272094726562,5.076505184173584,29.40320587158203,40.486419677734375,-4.148168087005615,127.7240982055664,-6.779050350189209
-5,Pressed,0.969792902469635,1.812791109085083,0.6911890506744385,7.2184600830078125,89.2421875,181.2021026611328,0,237.65118408203125,5.126373291015625,29.566707611083984,40.45913314819336,-4.352177143096924,127.7294692993164,-5.092318534851074
-3,Pressed,0.971434473991394,1.8126232624053955,0.6647310256958008,7.192351341247559,85.78401184082031,181.3339385986328,0,233.6909942626953,5.366490364074707,28.401081085205078,40.19878387451172,-4.280780792236328,127.72407531738281,-6.712728023529053
-5,Pressed,0.9714939594268799,1.8125195503234863,0.6599702835083008,7.217555522918701,82.82212829589844,181.1920166015625,0,233.7024383544922,5.4769182205200195,27.560365676879883,40.0706901550293,-4.417411804199219,127.72713470458984,-4.679975986480713
-3,Pressed,0.9723543524742126,1.8123810291290283,0.6443381309509277,7.220583438873291,81.17414855957031,181.29478454589844,0,232.05682373046875,5.817972660064697,26.26736831665039,39.68461608886719,-4.389166831970215,127.72357177734375,-5.959023952484131
-5,Pressed,0.9712990522384644,1.8123003244400024,0.6421002149581909,7.257544994354248,79.38300323486328,181.20664978027344,0,232.24656677246094,6.049757957458496,25.992252349853516,39.44343566894531,-4.64398193359375,127.72784423828125,-4.44177770614624
-3,Pressed,0.9722580909729004,1.8120055198669434,0.622520923614502,7.272766590118408,77.37345886230469,181.3401641845703,0,230.47877502441406,6.664131164550781,24.28186798095703,38.76053237915039,-4.682687282562256,127.72515106201172,-5.954987049102783
-5,Pressed,0.9715834856033325,1.8118327856063843,0.619992733001709,7.311169624328613,74.64698028564453,181.1681671142578,0,230.9898223876953,6.860084533691406,23.448841094970703,38.54348373413086,-4.837363243103027,127.72628784179688,-3.667384624481201
-3,Pressed,0.9740616083145142,1.811373233795166,0.598909854888916,7.323068618774414,72.00123596191406,181.27716064453125,0,229.05783081054688,7.527472972869873,21.592620849609375,37.802833557128906,-4.835783004760742,127.7246322631836,-4.825413703918457
-5,Pressed,0.9739590883255005,1.811064600944519,0.5924763083457947,7.3648881912231445,68.88912963867188,181.140625,0,228.93907165527344,7.883569240570068,20.82142448425293,37.42552185058594,-5.060114860534668,127.724853515625,-2.773737668991089
-3,Pressed,0.977189302444458,1.8104263544082642,0.571095883846283,7.39395809173584,66.24124145507812,181.26229858398438,0,227.0471649169922,8.708486557006836,18.999204635620117,36.50680160522461,-5.075433731079102,127.72466278076172,-3.8705453872680664
-5,Pressed,0.9751884937286377,1.8100969791412354,0.568908154964447,7.454812526702881,63.94912338256836,181.08644104003906,0,227.46299743652344,9.097949028015137,18.639080047607422,36.09623718261719,-5.324200630187988,127.72362518310547,-1.7196093797683716
-3,Pressed,0.9766625165939331,1.8093738555908203,0.5532541275024414,7.5030131340026855,62.0937614440918,181.13681030273438,0,226.31114196777344,9.929605484008789,17.258384704589844,35.1693000793457,-5.318853378295898,127.72502899169922,-2.420767307281494
-5,Pressed,0.9747315645217896,1.8089017868041992,0.5489645600318909,7.579035758972168,59.86399841308594,180.9949951171875,0,226.29666137695312,10.463541984558105,17.178686141967773,34.60639572143555,-5.669764518737793,127.72188568115234,-0.5649486184120178
-3,Pressed,0.9777923822402954,1.807892918586731,0.5307533144950867,7.634892463684082,57.273155212402344,181.03268432617188,0,224.8939666748047,11.396110534667969,15.528901100158691,33.55789566040039,-5.587197303771973,127.72502899169922,-0.9927159547805786
-5,Pressed,0.9765477180480957,1.8072400093078613,0.5248326659202576,7.718113899230957,54.546566009521484,180.8636474609375,0,224.6725616455078,11.99400806427002,15.387103080749512,32.92217254638672,-5.932394027709961,127.72103881835938,1.0899244546890259
-3,Pressed,0.9808468818664551,1.805868148803711,0.504358172416687,7.8020782470703125,51.86579132080078,180.9675750732422,0,222.9176788330078,13.122392654418945,13.90948486328125,31.653196334838867,-5.933410167694092,127.72464752197266,0.5117597579956055
-6,Pressed,0.978766918182373,1.8146058320999146,0.4953429102897644,9.905318260192871,51.59396743774414,178.5509796142578,0,216.022216796875,14.035977363586426,22.52560806274414,29.071420669555664,-6.197886943817139,127.72279357910156,1.5214638710021973
-6,Pressed,0.9760038256645203,1.8251408338546753,0.4943220019340515,12.07608413696289,51.18083572387695,175.88194274902344,0,210.57418823242188,14.602198600769043,30.884279251098633,26.87291145324707,-6.530808925628662,127.72172546386719,3.6224989891052246
-6,Pressed,0.9771166443824768,1.836724042892456,0.48705026507377625,14.383772850036621,49.542755126953125,173.0365753173828,0,205.37278747558594,15.429475784301758,37.64752197265625,24.21097755432129,-6.6763787269592285,127.72359466552734,5.496089935302734
-2,Pressed,0.9757403135299683,1.8353271484375,0.4816884696483612,14.229901313781738,49.11854934692383,172.0002899169922,0,204.05364990234375,16.327922821044922,39.572906494140625,23.678058624267578,-6.826169490814209,127.72530364990234,6.00756311416626
-2,Pressed,0.9747694134712219,1.8254258632659912,0.4794210195541382,13.485027313232422,49.33671188354492,172.0509033203125,0,201.80776977539062,15.39591121673584,39.60057830810547,27.763784408569336,-5.128297805786133,125.44376373291016,5.332895278930664
-2,Pressed,0.9757779836654663,1.8052390813827515,0.47935980558395386,13.518749237060547,49.64630889892578,171.85800170898438,0,194.9286346435547,11.395659446716309,39.664493560791016,38.44937515258789,0.07456523925065994,118.75257873535156,2.5751466751098633
-2,Pressed,0.9759708046913147,1.7829056978225708,0.48170459270477295,13.752059936523438,49.904232025146484,171.6493682861328,0,189.8318328857422,7.5424933433532715,38.919002532958984,47.98451614379883,4.4222283363342285,112.64790344238281,-0.7762324810028076
-2,Pressed,0.9764949679374695,1.7582368850708008,0.48289304971694946,13.926677703857422,49.94864273071289,171.56716918945312,0,186.7991943359375,4.2222089767456055,37.19949722290039,56.476539611816406,7.692224025726318,107.1148910522461,-4.236271381378174
-2,Pressed,0.9780544638633728,1.7338900566101074,0.4823160469532013,14.092175483703613,49.6943473815918,171.4516143798828,0,184.7653045654297,1.6451765298843384,35.64656448364258,63.72722244262695,9.988226890563965,102.23542022705078,-7.246253490447998
-2,Pressed,0.9794795513153076,1.7090433835983276,0.4811166822910309,14.180191993713379,49.40068054199219,171.36843872070312,0,182.85592651367188,-0.30373895168304443,35.07651138305664,70.23684692382812,11.532995223999023,97.63349914550781,-9.745312690734863
-1,Pressed,0.9653776288032532,1.6984807252883911,0.48334991931915283,14.056211471557617,49.97352981567383,171.45172119140625,0,184.12841796875,0.6542562246322632,37.11302947998047,71.48007202148438,10.226385116577148,95.30662536621094,-7.74943733215332
1,Pressed,0.9644074440002441,1.6989158391952515,0.48768150806427,14.12865161895752,50.705142974853516,171.4171600341797,0,185.31947326660156,0.32404422760009766,36.025535583496094,71.67450714111328,10.610940933227539,95.40420532226562,-8.269867897033691
1,Pressed,0.9846387505531311,1.69877028465271,0.49355608224868774,14.109217643737793,51.99782943725586,171.2947998046875,0,182.3741912841797,-2.58042311668396,33.43473815917969,73.97791290283203,13.767849922180176,96.7554702758789,-14.15707778930664
1,Pressed,1.0065710544586182,1.6985183954238892,0.49659377336502075,14.05250358581543,52.787296295166016,171.29258728027344,0,179.4745635986328,-5.114100933074951,30.607868194580078,75.9610824584961,16.190452575683594,98.36587524414062,-19.871795654296875
1,Pressed,1.0320169925689697,1.6987190246582031,0.4947618246078491,14.080432891845703,52.352622985839844,171.3606719970703,0,176.59996032714844,-7.238561153411865,27.13387107849121,77.59960174560547,17.871475219726562,100.00595092773438,-25.139381408691406
1,Pressed,1.0567535161972046,1.6987724304199219,0.4953070878982544,14.107662200927734,52.5888671875,171.390869140625,0,175.3772735595703,-8.928755760192871,22.7130126953125,79.04356384277344,18.912273406982422,101.72792053222656,-30.51822853088379
1,Pressed,1.084666132926941,1.6991746425628662,0.4944049119949341,14.156193733215332,52.34611892700195,171.4242401123047,0,173.75669860839844,-10.288427352905273,18.184650421142578,80.20459747314453,19.45259666442871,103.56466674804688,-35.99839401245117
1,Pressed,1.1068612337112427,1.6994774341583252,0.4940336346626282,14.20685863494873,52.20804977416992,171.4077606201172,0,172.49154663085938,-11.067034721374512,14.673843383789062,80.91079711914062,19.59180450439453,105.01856994628906,-40.3646240234375
1,Pressed,1.1366580724716187,1.699568271636963,0.4949404001235962,14.274174690246582,52.666954040527344,171.39764404296875,0,171.7561492919922,-11.691901206970215,9.447068214416504,81.6102294921875,19.270301818847656,106.93555450439453,-46.55536651611328
1,Pressed,1.158980131149292,1.6997148990631104,0.4939662218093872,14.305466651916504,52.30281066894531,171.4189910888672,0,170.33262634277344,-11.838316917419434,6.276308536529541,81.80889892578125,18.87472915649414,108.17064666748047,-50.6796875
-1,Pressed,1.157853364944458,1.6999430656433105,0.4915089011192322,14.332279205322266,50.807735443115234,171.50762939453125,0,168.811767578125,-11.945502281188965,7.571349143981934,81.78730010986328,19.07313346862793,107.79661560058594,-49.39984130859375
-1,Pressed,1.1311734914779663,1.6997599601745605,0.49262648820877075,14.298527717590332,51.58154296875,171.4781036376953,0,170.7356414794922,-11.652144432067871,11.226128578186035,81.45655822753906,19.463502883911133,106.36801147460938,-44.73846435546875
-1,Pressed,1.1018213033676147,1.6994813680648804,0.49413254857063293,14.23246955871582,52.22701644897461,171.437744140625,0,172.67831420898438,-10.957584381103516,15.50975513458252,80.7870101928711,19.61368751525879,104.67656707763672,-39.4074821472168
-1,Pressed,1.0794780254364014,1.699292540550232,0.4935806691646576,14.22357177734375,52.018001556396484,171.4595184326172,0,173.46893310546875,-10.12061595916748,19.397796630859375,79.99789428710938,19.465164184570312,103.1294937133789,-34.803043365478516
-1,Pressed,1.0566397905349731,1.699091911315918,0.4930732548236847,14.199326515197754,51.89997482299805,171.4867401123047,0,174.50265502929688,-8.921387672424316,23.392210006713867,78.93787384033203,18.90435791015625,101.52503967285156,-30.03618812561035
-1,Pressed,1.0301132202148438,1.698871374130249,0.49286335706710815,14.160568237304688,51.85762405395508,171.4605712890625,0,175.87503051757812,-7.096360206604004,28.13933563232422,77.41276550292969,17.73200225830078,99.70807647705078,-24.421646118164062
-1,Pressed,1.0041197538375854,1.6985342502593994,0.4943488538265228,14.101959228515625,52.238197326660156,171.4150390625,0,178.1417694091797,-4.881916046142578,32.36253356933594,75.70164489746094,15.920445442199707,98.0468978881836,-18.984455108642578
-1,Pressed,0.9794588088989258,1.6983940601348877,0.49421238899230957,14.051815032958984,52.18770217895508,171.3710479736328,0,180.82110595703125,-2.1508941650390625,36.2613639831543,73.63825225830078,13.308626174926758,96.5083999633789,-13.202219009399414
-1,Pressed,0.9557818174362183,1.698252558708191,0.4923921823501587,14.055941581726074,51.72700119018555,171.393798828125,0,185.09107971191406,1.0068563222885132,38.58772659301758,71.26881408691406,9.9029541015625,95.15457916259766,-7.185027599334717
-1,Pressed,0.9342344999313354,1.697688341140747,0.4870654344558716,13.98479175567627,50.76441192626953,171.61595153808594,0,189.3317108154297,4.4867424964904785,40.48970031738281,68.5379409790039,5.82038688659668,94.27777099609375,-1.2746726274490356
2,Pressed,0.9271854162216187,1.7085843086242676,0.47988349199295044,13.860755920410156,49.64818572998047,171.67678833007812,0,190.89993286132812,7.046303749084473,42.116573333740234,64.23606872558594,3.000709295272827,96.33670806884766,2.2538609504699707
2,Pressed,0.9266513586044312,1.735398769378662,0.47933778166770935,13.809974670410156,49.64989471435547,171.72128295898438,0,193.1748046875,9.389501571655273,43.201839447021484,56.738319396972656,0.5247984528541565,101.87034606933594,4.692526340484619
2,Pressed,0.9239007234573364,1.7607388496398926,0.48222649097442627,13.723722457885742,50.24266052246094,171.7957000732422,0,197.1434783935547,12.203166007995605,44.16008758544922,48.5277099609375,-2.6910033226013184,107.74406433105469,7.1558613777160645
2,Pressed,0.9215988516807556,1.784197449684143,0.48398080468177795,13.638023376464844,50.66278076171875,171.93092346191406,0,202.49563598632812,15.473567962646484,44.559200286865234,39.28416442871094,-6.781696319580078,114.11199951171875,9.314516067504883
2,Pressed,0.9209609627723694,1.8058445453643799,0.4797241687774658,13.383513450622559,50.41650390625,172.39356994628906,0,210.34417724609375,20.003173828125,43.48619079589844,26.809402465820312,-12.956583023071289,122.2444839477539,10.43505859375
-1,Pressed,0.9114894866943359,1.8121397495269775,0.47636353969573975,12.995794296264648,49.02400588989258,172.98977661132812,0,219.0690155029297,24.022300720214844,38.282569885253906,16.608901977539062,-17.033885955810547,127.71790313720703,10.733348846435547
-1,Pressed,0.8851920366287231,1.8054344654083252,0.47612327337265015,13.554190635681152,48.687461853027344,173.38308715820312,0,225.89407348632812,26.70557975769043,29.23817253112793,12.284353256225586,-14.696111679077148,127.72918701171875,10.62299919128418
-1,Pressed,0.8634452223777771,1.7988083362579346,0.4776068329811096,14.047453880310059,48.71241760253906,173.7151336669922,0,229.8401336669922,29.30314826965332,28.9654598236084,8.948892593383789,-17.644662857055664,127.73307800292969,11.309486389160156
1,Pressed,0.8627316951751709,1.799127459526062,0.4792349934577942,14.015040397644043,49.11262130737305,173.31216430664062,0,229.5247344970703,29.355224609375,30.847436904907227,8.977824211120605,-18.550867080688477,127.7406005859375,11.4282865524292
1,Pressed,0.8871861696243286,1.8062243461608887,0.4784558415412903,13.407307624816895,49.32048416137695,173.08709716796875,0,225.38804626464844,26.301599502563477,29.09830093383789,12.851746559143066,-13.593300819396973,127.73050689697266,10.270984649658203
1,Pressed,0.9122495651245117,1.8124356269836426,0.4759918749332428,13.009718894958496,49.05381774902344,172.94833374023438,0,220.86753845214844,23.432462692260742,28.52471923828125,16.38364601135254,-10.052131652832031,127.6789779663086,8.910497665405273
1,Pressed,0.9396404027938843,1.815919041633606,0.47430533170700073,13.005392074584961,48.8628044128418,172.58090209960938,0,213.74559020996094,19.254688262939453,29.53951644897461,22.93303108215332,-5.8375115394592285,125.69990539550781,7.000216960906982
1,Pressed,0.9653326272964478,1.8183526992797852,0.4770517349243164,13.248984336853027,49.170162200927734,172.0931854248047,0,206.39439392089844,15.132892608642578,30.474836349487305,28.915790557861328,-1.3120818138122559,123.96570587158203,4.102200984954834
1,Pressed,0.9895309209823608,1.8202143907546997,0.48125123977661133,13.491401672363281,49.78166198730469,171.82276916503906,0,199.72323608398438,11.526734352111816,30.473562240600586,33.46725845336914,3.0364058017730713,123.17579650878906,0.216911181807518
-2,Pressed,1.0029798746109009,1.8098549842834473,0.479675829410553,13.73830795288086,49.21710205078125,171.7808074951172,0,194.4232177734375,7.947533130645752,29.00715446472168,40.41655731201172,6.746243000030518,119.74750518798828,-3.4289872646331787
-2,Pressed,1.0030937194824219,1.781254768371582,0.48167771100997925,13.938968658447266,49.49473190307617,171.57867431640625,0,191.1772918701172,3.6518990993499756,27.01168441772461,51.64358901977539,10.161518096923828,112.79734802246094,-7.600106239318848
-2,Pressed,1.0035874843597412,1.7594817876815796,0.4822402894496918,14.083873748779297,49.50199508666992,171.45321655273438,0,189.59075927734375,1.1703412532806396,25.91408920288086,58.74588394165039,11.776223182678223,108.22067260742188,-10.240967750549316
-2,Pressed,1.0040299892425537,1.7341769933700562,0.4822694957256317,14.149124145507812,49.48036575317383,171.35189819335938,0,187.99070739746094,-1.0105892419815063,25.4321231842041,65.91258239746094,12.98677921295166,103.39615631103516,-12.785102844238281
-2,Pressed,1.0028581619262695,1.7094095945358276,0.4836829602718353,14.160259246826172,49.77741241455078,171.33811950683594,0,186.76095581054688,-2.6652369499206543,25.65762710571289,72.1871566772461,13.77588939666748,98.93466186523438,-14.851991653442383
-2,Pressed,0.9993553161621094,1.685004711151123,0.48759791254997253,14.15489673614502,50.625877380371094,171.3577117919922,0,186.72084045410156,-3.9030253887176514,25.741878509521484,77.84817504882812,14.321955680847168,94.6548843383789,-16.580522537231445
-2,Pressed,0.9921001195907593,1.654959797859192,0.496301531791687,14.090841293334961,52.509517669677734,171.330322265625,0,188.3213348388672,-4.893215656280518,25.489900588989258,84.23883056640625,14.788585662841797,89.50791931152344,-18.39873504638672
-2,Pressed,0.9950847029685974,1.6367943286895752,0.4928343892097473,14.154809951782227,51.732120513916016,171.40487670898438,0,187.26815795898438,-5.42019510269165,25.61970329284668,87.99019622802734,15.033145904541016,86.28075408935547,-19.37609100341797
1,Pressed,1.004089117050171,1.6235241889953613,0.49672576785087585,14.083239555358887,52.59965515136719,171.34600830078125,0,187.26937866210938,-6.669909954071045,23.832298278808594,91.43876647949219,15.929642677307129,84.8082275390625,-22.554636001586914
1,Pressed,1.0293627977371216,1.6234551668167114,0.4987737834453583,14.079837799072266,53.27292251586914,171.3825225830078,0,186.30715942382812,-8.842733383178711,19.652572631835938,93.2691879272461,17.087268829345703,86.55915832519531,-28.131938934326172
1,Pressed,1.0633541345596313,1.6241546869277954,0.4945506453514099,14.182138442993164,52.118873596191406,171.48182678222656,0,183.34107971191406,-10.917240142822266,15.324755668640137,94.87962341308594,17.787006378173828,88.5336685180664,-33.94682693481445
1,Pressed,1.0826385021209717,1.6242671012878418,0.4956609606742859,14.185884475708008,52.53216552734375,171.45352172851562,0,182.8377227783203,-11.91610050201416,12.015328407287598,95.74075317382812,17.887897491455078,89.90681457519531,-37.95213317871094
1,Pressed,1.1038354635238647,1.6244887113571167,0.4957113564014435,14.236669540405273,52.59886169433594,171.43373107910156,0,181.9149627685547,-12.768622398376465,8.652673721313477,96.4603271484375,17.791364669799805,91.28987121582031,-42.068458557128906
1,Pressed,1.1289687156677246,1.624653935432434,0.4953356981277466,14.283162117004395,52.55178451538086,171.4509735107422,0,180.77947998046875,-13.459239959716797,4.75457239151001,97.04933166503906,17.382949829101562,92.81046295166016,-46.786865234375
-2,Pressed,1.1440932750701904,1.6060700416564941,0.49414095282554626,14.30639934539795,51.98163986206055,171.47586059570312,0,179.57687377929688,-13.940461158752441,2.8274502754211426,100.82536315917969,17.07321548461914,90.3710708618164,-50.195556640625
-2,Pressed,1.144081473350525,1.5797789096832275,0.4943127930164337,14.331319808959961,51.99601745605469,171.48085021972656,0,179.6045684814453,-14.019867897033691,2.8508386611938477,105.67745971679688,17.144315719604492,85.77965545654297,-51.57061004638672
-2,Pressed,1.144043207168579,1.5628559589385986,0.49427223205566406,14.350029945373535,51.99683380126953,171.50169372558594,0,179.63734436035156,-13.895134925842285,2.8794660568237305,108.68443298339844,17.237577438354492,82.74246978759766,-52.444881439208984
-1,Pressed,1.1343754529953003,1.549966812133789,0.49295157194137573,14.289128303527832,51.442291259765625,171.57347106933594,0,179.5775909423828,-13.498817443847656,4.963242530822754,110.70296478271484,17.621662139892578,79.69046020507812,-50.773075103759766
-1,Pressed,1.105133056640625,1.5497370958328247,0.49384745955467224,14.28948974609375,51.834259033203125,171.52777099609375,0,181.4237060546875,-12.676101684570312,9.303486824035645,110.03466796875,18.216873168945312,77.9139404296875,-45.434120178222656
-1,Pressed,1.0848196744918823,1.5496103763580322,0.49247002601623535,14.282015800476074,51.41276931762695,171.58372497558594,0,182.0638427734375,-11.775364875793457,12.863304138183594,109.25894165039062,18.384258270263672,76.41692352294922,-41.09892272949219
-2,Pressed,1.0692379474639893,1.5374500751495361,0.4945160448551178,14.308218955993652,51.96907043457031,171.4763641357422,0,183.4745635986328,-10.772469520568848,14.96289348602295,110.71466064453125,18.5723934173584,73.2815933227539,-39.06603240966797
-3,Pressed,1.067002534866333,1.5243415832519531,0.48492690920829773,14.23398494720459,52.54618835449219,171.3862762451172,0,183.97662353515625,-8.65636920928955,14.950169563293457,111.61141204833984,18.336685180664062,70.56708526611328,-39.931121826171875
-3,Pressed,1.066446304321289,1.5241811275482178,0.45577648282051086,14.25198745727539,52.607906341552734,171.35939025878906,0,183.75233459472656,-4.5968546867370605,14.514005661010742,108.41532135009766,17.37974739074707,69.97042083740234,-40.523834228515625
2,Pressed,1.0731549263000488,1.5361480712890625,0.441974937915802,14.290327072143555,51.13034439086914,171.30978393554688,0,182.8054962158203,-3.769259214401245,13.679328918457031,105.49794006347656,16.98512077331543,72.06863403320312,-40.112144470214844
2,Pressed,1.0728414058685303,1.5646167993545532,0.441899836063385,14.305339813232422,51.187477111816406,171.350830078125,0,182.3328857421875,-4.445131301879883,13.911728858947754,100.81710052490234,16.75048828125,77.22696685791016,-38.83637619018555
2,Pressed,1.0711002349853516,1.5927647352218628,0.4430363178253174,14.276052474975586,51.56720733642578,171.341796875,0,182.41432189941406,-4.698692798614502,13.99801254272461,95.88114166259766,16.562156677246094,82.27798461914062,-37.53799819946289
-1,Pressed,1.0569227933883667,1.5990228652954102,0.4397384226322174,14.254228591918945,50.681400299072266,171.39271545410156,0,182.9984130859375,-3.7135183811187744,16.199901580810547,93.83514404296875,15.93745231628418,82.31204986572266,-33.64033126831055
-1,Pressed,1.0386650562286377,1.5989704132080078,0.43668806552886963,14.247504234313965,50.02711868286133,171.40858459472656,0,184.56027221679688,-2.3075292110443115,18.272876739501953,92.57660675048828,15.02952766418457,81.10999298095703,-29.454334259033203
-1,Pressed,1.0096755027770996,1.59869384765625,0.43668800592422485,14.218891143798828,50.170875549316406,171.40370178222656,0,188.48858642578125,-0.11849430203437805,20.09276580810547,90.6298599243164,13.462726593017578,79.65979766845703,-23.94457244873047
-3,Pressed,0.9996410608291626,1.5984234809875488,0.4201189875602722,14.149398803710938,50.89149475097656,171.54481506347656,0,190.4332275390625,2.8971896171569824,19.59199333190918,87.74595642089844,12.169195175170898,79.54541015625,-23.194318771362305
3,Pressed,1.0137008428573608,1.5992200374603271,0.42148253321647644,14.231706619262695,48.06889724731445,171.517333984375,0,188.0182647705078,1.106638789176941,19.61739158630371,89.36996459960938,12.74686050415039,79.44111633300781,-22.75930404663086
3,Pressed,1.0144139528274536,1.5997085571289062,0.43997472524642944,14.305350303649902,47.656288146972656,171.41810607910156,0,187.318603515625,-1.417616605758667,20.58624267578125,91.63655853271484,13.615439414978027,79.35895538330078,-22.100971221923828
3,Pressed,1.0088844299316406,1.5998337268829346,0.469072163105011,14.2946138381958,48.516273498535156,171.44879150390625,0,186.9642333984375,-4.584741592407227,22.73883056640625,94.23593139648438,14.683632850646973,79.45455169677734,-21.15047836303711
3,Pressed,1.012218713760376,1.6008232831954956,0.4885197579860687,14.433369636535645,47.3623161315918,171.77830505371094,0,185.04281616210938,-7.892184734344482,24.448612213134766,96.46338653564453,15.72068977355957,79.7404556274414,-20.121417999267578
3,Pressed,1.0132975578308105,1.6022131443023682,0.5071984529495239,14.669310569763184,46.62442398071289,172.1147003173828,0,184.38719177246094,-10.875750541687012,25.3112735748291,98.17176818847656,16.649490356445312,80.15508270263672,-19.069618225097656
3,Pressed,1.0154428482055664,1.6034433841705322,0.5302824974060059,14.937217712402344,45.152305603027344,172.55116271972656,0,183.02784729003906,-14.853694915771484,26.558164596557617,100.1692123413086,17.977436065673828,80.968017578125,-17.539453506469727
-1,Pressed,1.0083138942718506,1.6053075790405273,0.54151451587677,14.721199035644531,45.347049713134766,174.1739044189453,0,185.4476776123047,-15.370405197143555,28.162155151367188,99.66419219970703,16.07527732849121,80.8239974975586,-13.26365852355957
-1,Pressed,0.9936927556991577,1.6092842817306519,0.5398299694061279,15.176207542419434,44.94184112548828,176.52801513671875,0,186.30592346191406,-14.152592658996582,32.39072799682617,97.66317749023438,12.773913383483887,79.65682983398438,-7.2066264152526855
-3,Pressed,0.9729647636413574,1.6087329387664795,0.5217529535293579,15.720495223999023,44.8757209777832,173.54676818847656,0,184.6053009033203,-10.10963249206543,34.615234375,95.7036361694336,13.910343170166016,77.7436752319336,-7.39456844329834
-3,Pressed,0.9556375741958618,1.60393226146698,0.5142953395843506,14.851835250854492,49.283729553222656,172.1197509765625,0,188.94686889648438,-5.2275214195251465,33.588375091552734,93.53772735595703,12.708306312561035,77.16729736328125,-8.883078575134277
-3,Pressed,0.9446252584457397,1.5988256931304932,0.501339316368103,14.173918724060059,51.94184112548828,171.3433380126953,0,191.73497009277344,-1.1855332851409912,32.42457962036133,91.45004272460938,11.403118133544922,76.88322448730469,-10.154372215270996
3,Pressed,0.9556480050086975,1.601790189743042,0.49476152658462524,14.587931632995605,48.72907638549805,171.58621215820312,0,187.9027099609375,-2.7639918327331543,33.6219596862793,92.16487884521484,11.971498489379883,76.91151428222656,-9.499075889587402
3,Pressed,0.9600037336349487,1.6047109365463257,0.5060809850692749,15.055386543273926,46.77627944946289,171.8085479736328,0,185.2948455810547,-5.586769104003906,35.34225845336914,93.62913513183594,13.244766235351562,77.0211410522461,-8.361098289489746
3,Pressed,0.9652525186538696,1.607441782951355,0.5180960297584534,15.579248428344727,44.192474365234375,171.99928283691406,0,183.18528747558594,-8.830782890319824,36.181053161621094,95.19012451171875,14.746047019958496,77.2739028930664,-6.975567817687988
-3,Pressed,0.9654519557952881,1.6076191663742065,0.5231116414070129,15.570311546325684,45.02997589111328,172.30775451660156,0,184.51234436035156,-9.203242301940918,35.4121208190918,95.40763854980469,14.617216110229492,77.44564819335938,-7.167791843414307
-3,Pressed,0.9529698491096497,1.6030197143554688,0.5174833536148071,14.735695838928223,49.676090240478516,171.86497497558594,0,189.2858428955078,-5.081785202026367,33.82905960083008,93.5958480834961,12.849833488464355,77.1000747680664,-8.769683837890625
-3,Pressed,0.9434304237365723,1.5988408327102661,0.5096727609634399,14.155263900756836,52.20249938964844,171.3333282470703,0,191.793701171875,-1.9314558506011963,32.99738693237305,92.01969146728516,11.744315147399902,76.88512420654297,-9.781261444091797
-1,Pressed,0.9405595064163208,1.5984188318252563,0.4837290346622467,14.100384712219238,49.98890686035156,171.52464294433594,0,192.38490295410156,1.0866817235946655,32.24869918823242,89.61400604248047,9.446881294250488,76.40452575683594,-7.648931503295898
-1,Pressed,0.9264101982116699,1.597921371459961,0.46708592772483826,14.052674293518066,47.420501708984375,171.73141479492188,0,193.4044647216797,4.405886173248291,34.01090621948242,86.79312896728516,6.0897650718688965,75.66404724121094,-2.195797920227051
1,Pressed,0.9069939851760864,1.5986628532409668,0.4944011867046356,14.159222602844238,51.915557861328125,171.6543426513672,0,196.86376953125,4.49293327331543,35.24607467651367,86.67132568359375,5.993997573852539,75.63627624511719,-2.020671844482422
1,Pressed,0.9351733922958374,1.599033236503601,0.4935103952884674,14.160276412963867,51.739784240722656,171.56224060058594,0,193.8807373046875,0.8692967295646667,32.152442932128906,89.69396209716797,9.610214233398438,76.50360107421875,-7.988245487213135
1,Pressed,0.9591747522354126,1.6025874614715576,0.49215948581695557,14.644608497619629,51.7116584777832,171.62779235839844,0,188.66259765625,-2.40747332572937,31.737468719482422,91.80626678466797,12.592273712158203,77.72457885742188,-13.60482120513916
1,Pressed,0.9717816114425659,1.6066864728927612,0.5031751394271851,15.29371452331543,54.05059814453125,171.7368927001953,0,187.62132263183594,-5.330117702484131,29.71700668334961,93.46675109863281,15.161944389343262,79.10375213623047,-18.948989868164062
1,Pressed,0.9950157999992371,1.6067066192626953,0.5070345997810364,15.323461532592773,54.78322219848633,171.45538330078125,0,188.08152770996094,-7.791819095611572,24.421951293945312,95.5781478881836,17.10183334350586,80.8147201538086,-24.48204231262207
1,Pressed,1.0275287628173828,1.6001217365264893,0.5025173425674438,14.303803443908691,54.136051177978516,171.3894805908203,0,186.04296875,-9.391841888427734,20.2611083984375,97.94217681884766,17.663618087768555,82.49688720703125,-29.95497703552246
1,Pressed,1.0623468160629272,1.5994256734848022,0.4929344356060028,14.195357322692871,51.62699508666992,171.51910400390625,0,181.65762329101562,-11.125458717346191,16.947193145751953,99.44717407226562,18.156946182250977,84.15907287597656,-34.92150115966797
1,Pressed,1.0851244926452637,1.5994482040405273,0.49375855922698975,14.207919120788574,51.8603401184082,171.5050811767578,0,180.80877685546875,-12.318279266357422,13.17510986328125,100.49171447753906,18.260225296020508,85.72216033935547,-39.53302764892578
1,Pressed,1.108842372894287,1.5994713306427002,0.4953263998031616,14.22346305847168,52.49966049194336,171.475341796875,0,180.43072509765625,-13.243576049804688,8.903593063354492,101.3388442993164,17.98679542541504,87.38070678710938,-44.52386474609375
-1,Pressed,1.1020042896270752,1.5997109413146973,0.49315357208251953,14.30109691619873,51.56553649902344,171.50563049316406,0,179.71665954589844,-13.036436080932617,10.685531616210938,101.0849380493164,18.225845336914062,86.74586486816406,-42.63957595825195
-1,Pressed,1.07992422580719,1.5995042324066162,0.4934948682785034,14.27552318572998,51.776180267333984,171.5351104736328,0,180.95095825195312,-12.124197959899902,14.036517143249512,100.31126403808594,18.303258895874023,85.31497955322266,-38.51350784301758
2,Pressed,1.0686802864074707,1.611331582069397,0.49456319212913513,14.244876861572266,52.11656188964844,171.4468536376953,0,181.7164306640625,-11.498929977416992,15.501744270324707,97.6400375366211,18.238574981689453,86.78154754638672,-36.051212310791016
-1,Pressed,1.059274435043335,1.624319076538086,0.49231988191604614,14.226542472839355,51.541107177734375,171.56297302246094,0,181.61630249023438,-10.729464530944824,17.393556594848633,94.59274291992188,17.949172973632812,88.21186828613281,-33.05604934692383
-1,Pressed,1.0293442010879517,1.624137043952942,0.4928542971611023,14.18575668334961,51.693603515625,171.48611450195312,0,183.18031311035156,-8.744745254516602,22.049238204956055,92.93916320800781,17.223285675048828,86.31315612792969,-27.279958724975586
-1,Pressed,0.9997742176055908,1.6236246824264526,0.49536967277526855,14.127165794372559,52.28047561645508,171.40582275390625,0,185.45040893554688,-6.39058256149292,26.208045959472656,91.09149169921875,15.866379737854004,84.5243148803711,-21.696985244750977
-1,Pressed,0.9810174107551575,1.6236449480056763,0.4918633699417114,14.11364459991455,51.565921783447266,171.4424285888672,0,186.34646606445312,-4.253954887390137,29.379526138305664,89.34751892089844,14.2221097946167,83.20841979980469,-17.06952476501465
-2,Pressed,0.9699286222457886,1.61179518699646,0.49344176054000854,14.14927864074707,51.810333251953125,171.32894897460938,0,187.88197326660156,-3.282630681991577,30.287166595458984,90.76636505126953,13.558695793151855,80.52476501464844,-15.476099014282227
-2,Pressed,0.9717909097671509,1.6037590503692627,0.49362093210220337,16.52887535095215,51.71980667114258,173.0353546142578,0,188.203857421875,-5.717145919799805,29.282684326171875,94.4625244140625,13.907357215881348,76.41847229003906,-16.61911392211914
2,Pressed,0.9713963866233826,1.6058390140533447,0.4935300350189209,16.6833438873291,51.37033462524414,172.87986755371094,0,188.4188232421875,-5.7840423583984375,28.985471725463867,94.2056884765625,14.027034759521484,76.58427429199219,-16.334827423095703
2,Pressed,0.9692710638046265,1.6170833110809326,0.4946150779724121,14.398175239562988,51.9653205871582,171.47349548339844,0,188.1507110595703,-3.502547025680542,30.130672454833984,90.01185607910156,13.55931282043457,81.18090057373047,-15.319267272949219
2,Pressed,0.9718921184539795,1.6435414552688599,0.4910069406032562,14.172072410583496,51.34933853149414,171.32180786132812,0,187.50515747070312,-2.8662538528442383,30.299707412719727,84.63873291015625,13.186829566955566,86.09867095947266,-14.051647186279297
-2,Pressed,0.9744489192962646,1.6369236707687378,0.4876656234264374,14.221055030822754,50.67598342895508,171.3644561767578,0,186.733154296875,-3.056487560272217,30.344676971435547,86.006103515625,13.287027359008789,84.8779067993164,-14.377737998962402
-2,Pressed,0.9729542136192322,1.6076288223266602,0.4897296726703644,14.159062385559082,51.057674407958984,171.33973693847656,0,187.14971923828125,-3.3395097255706787,30.267553329467773,91.57130432128906,13.609187126159668,79.77838897705078,-15.656024932861328
2,Pressed,0.9717261791229248,1.6181365251541138,0.4914853870868683,14.326767921447754,51.3751106262207,171.45851135253906,0,187.31385803222656,-3.4574222564697266,30.3590030670166,89.76301574707031,13.540724754333496,81.45380401611328,-15.277641296386719
2,Pressed,0.9684467911720276,1.6395435333251953,0.49518829584121704,14.12202262878418,52.18815612792969,171.2987060546875,0,188.454833984375,-2.8596456050872803,30.214008331298828,85.36288452148438,13.197477340698242,85.4388656616211,-14.187582015991211
2,Pressed,0.9743475317955017,1.6677123308181763,0.48766249418258667,14.18742561340332,50.691837310791016,171.3348846435547,0,187.18341064453125,-2.164684534072876,30.439783096313477,79.61288452148438,12.704133987426758,90.30220794677734,-12.65124797821045
-3,Pressed,0.9722049236297607,1.6734975576400757,0.47869032621383667,14.154046058654785,51.23514175415039,171.301025390625,0,188.09075927734375,-0.47144779562950134,30.03131103515625,77.16178894042969,11.896636962890625,91.35755920410156,-12.646108627319336
-3,Pressed,0.9672996997833252,1.673201560974121,0.4573287069797516,14.119661331176758,52.31330490112305,171.47669982910156,0,190.34471130371094,2.8430235385894775,28.500263214111328,74.24559783935547,10.237983703613281,91.50553894042969,-13.368119239807129
-3,Pressed,0.9686168432235718,1.6728686094284058,0.4301956593990326,14.071304321289062,51.97611618041992,171.6807861328125,0,190.09584045410156,5.983743667602539,28.18631362915039,71.20458221435547,8.659507751464844,91.88124084472656,-13.970239639282227
-3,Pressed,0.983923614025116,1.6716129779815674,0.38730254769325256,13.892711639404297,49.13481521606445,171.73626708984375,0,187.27264404296875,9.745872497558594,28.145769119262695,67.39276123046875,6.888631343841553,92.61567687988281,-14.524042129516602
-3,Pressed,0.9785586595535278,1.6711065769195557,0.36586427688598633,13.837469100952148,50.21946334838867,171.76744079589844,0,188.12501525878906,13.32356071472168,28.482772827148438,63.36137771606445,5.190615653991699,93.6247329711914,-15.045393943786621
-3,Pressed,0.9752719402313232,1.6706593036651611,0.34767264127731323,13.820046424865723,50.83230209350586,171.7621612548828,0,188.80250549316406,16.229839324951172,28.56119155883789,59.835533142089844,3.883613109588623,94.6458511352539,-15.495247840881348
-3,Pressed,0.9783445596694946,1.6695400476455688,0.32034873962402344,13.640103340148926,50.36801528930664,171.79092407226562,0,189.0988006591797,19.866628646850586,28.110383987426758,55.07517623901367,2.3318536281585693,96.2863540649414,-15.986879348754883
-3,Pressed,0.9788919687271118,1.6684749126434326,0.29484182596206665,13.502552032470703,50.318931579589844,171.85289001464844,0,189.90333557128906,23.68045425415039,27.701013565063477,49.65142822265625,0.7350633144378662,98.32036590576172,-16.548383712768555
-3,Pressed,0.9787887930870056,1.6672037839889526,0.2700250744819641,13.372485160827637,50.37799835205078,171.96405029296875,0,191.01205444335938,27.688352584838867,27.224321365356445,43.48456573486328,-0.8931645154953003,100.81089782714844,-17.218753814697266
-3,Pressed,0.9800800681114197,1.665079951286316,0.24010717868804932,13.02072525024414,50.216766357421875,172.25506591796875,0,192.783203125,32.989158630371094,26.273090362548828,34.50043869018555,-2.991199016571045,104.83882904052734,-18.13271713256836
-3,Pressed,0.9828102588653564,1.6621904373168945,0.2195909023284912,12.584259033203125,49.81880187988281,172.55445861816406,0,194.2894287109375,37.044246673583984,24.989288330078125,27.117130279541016,-4.278370380401611,108.36930084228516,-18.955812454223633
-3,Pressed,0.9851955771446228,1.6557917594909668,0.18718355894088745,11.810256004333496,49.5030517578125,173.86109924316406,0,199.0859832763672,47.435081481933594,22.402904510498047,5.4824981689453125,-8.167350769042969,119.252685546875,-21.489057540893555
-3,Pressed,1.017852544784546,1.639242172241211,0.15942537784576416,9.020112991333008,45.43335723876953,179.2728271484375,0,199.4311065673828,50.32646179199219,14.399788856506348,1.1133744716644287,-8.887150764465332,120.65607452392578,-22.691438674926758
-3,Pressed,1.0094597339630127,1.6301013231277466,0.14679718017578125,11.344398498535156,47.29302978515625,177.3346710205078,0,198.24757385253906,51.591552734375,17.36728286743164,0.9945069551467896,-8.299337387084961,118.45867919921875,-24.106502532958984
-3,Pressed,1.0113310813903809,1.6222214698791504,0.13444668054580688,12.253645896911621,47.5777587890625,177.39808654785156,0,197.46253967285156,52.42974090576172,17.606693267822266,1.0873355865478516,-8.041777610778809,116.82273864746094,-25.06639862060547
-3,Pressed,1.0232051610946655,1.612673282623291,0.1169770359992981,12.377001762390137,46.79391098022461,179.17857360839844,0,196.67677307128906,53.307716369628906,15.38209342956543,1.0818284749984741,-7.63433313369751,115.07549285888672,-26.021883010864258
-3,Pressed,1.0287381410598755,1.6074707508087158,0.10966610908508301,12.392210006713867,47.093143463134766,179.82891845703125,0,195.96221923828125,53.09722900390625,15.900378227233887,2.804309844970703,-8.443476676940918,113.38227081298828,-26.87156867980957
-3,Pressed,1.0286790132522583,1.6050053834915161,0.11007100343704224,12.385124206542969,48.16973876953125,179.57164001464844,0,195.26585388183594,51.983062744140625,16.808046340942383,6.03070592880249,-8.430863380432129,111.61077117919922,-27.61916160583496
-3,Pressed,1.028946876525879,1.6035290956497192,0.11030405759811401,12.604593276977539,48.978431701660156,179.36610412597656,0,194.55165100097656,50.806400299072266,16.94704246520996,9.127934455871582,-7.677380084991455,109.7777328491211,-28.219982147216797
-3,Pressed,1.0294424295425415,1.6025927066802979,0.110451340675354,13.316678047180176,49.30378341674805,178.59059143066406,0,193.7046661376953,49.40108108520508,14.571378707885742,12.472005844116211,-3.9153130054473877,107.67790985107422,-28.81519889831543
-3,Pressed,1.0298972129821777,1.6022565364837646,0.11050593852996826,14.057785987854004,49.7816276550293,178.10537719726562,0,192.75717163085938,48.24468231201172,15.221526145935059,15.328916549682617,-3.2030394077301025,105.75647735595703,-29.32645606994629
-3,Pressed,1.0304661989212036,1.602081298828125,0.11049824953079224,14.920632362365723,50.21575164794922,177.6153106689453,0,191.61236572265625,47.15146255493164,16.7071475982666,18.11353302001953,-3.11873722076416,103.80086517333984,-29.74094581604004
-3,Pressed,1.0313256978988647,1.601962685585022,0.11045056581497192,16.371488571166992,50.01999282836914,176.02093505859375,0,189.95767211914062,46.12409210205078,17.399627685546875,20.899076461791992,-1.070715069770813,101.82023620605469,-30.08151626586914
-3,Pressed,1.0324256420135498,1.6014595031738281,0.1104888916015625,18.387937545776367,49.99037551879883,173.82371520996094,0,187.1221923828125,45.15943145751953,21.167295455932617,24.352094650268555,-0.5195984840393066,99.30237579345703,-30.463302612304688
-3,Pressed,1.032881259918213,1.6008868217468262,0.11060470342636108,19.862762451171875,50.07101821899414,172.34356689453125,0,184.83880615234375,44.67220687866211,24.870975494384766,26.775630950927734,-0.9376142024993896,97.46790313720703,-30.66831398010254
-3,Pressed,1.0335772037506104,1.6008269786834717,0.11033755540847778,21.813615798950195,49.39126968383789,170.73597717285156,0,181.76121520996094,43.855072021484375,29.641273498535156,30.408708572387695,-1.7191369533538818,94.489990234375,-30.172365188598633
-3,Pressed,1.034422516822815,1.6003800630569458,0.11042892932891846,24.170061111450195,48.53518295288086,167.61178588867188,0,178.02406311035156,43.946617126464844,34.899051666259766,33.18342971801758,-1.453543782234192,92.27850341796875,-30.13789176940918
