cesarbds/cloth_dressing/GMM/demo2.csv
Button,Action,x,y,z,roll,pitch,yaw,gripper_state,joint0,joint1,joint2,joint3,joint4,joint5,joint6,joint7
3,Pressed,1.8779301643371582,1.683498740196228,0.28834637999534607,35.53028869628906,208.91615295410156,131.36061096191406,0,-27.949905395507812,-35.959896087646484,-23.95128631591797,-50.09926223754883,-29.252113342285156,-55.573665618896484,-79.85601806640625
3,Pressed,1.8809287548065186,1.6883652210235596,0.3206879794597626,36.051170349121094,208.0937957763672,130.82443237304688,0,-28.167667388916016,-32.4917106628418,-25.193851470947266,-55.97554397583008,-30.375329971313477,-52.23418045043945,-79.71404266357422
3,Pressed,1.8849965333938599,1.6925588846206665,0.3526744246482849,36.32280731201172,207.0569610595703,130.33238220214844,0,-28.772701263427734,-29.603174209594727,-26.383867263793945,-60.59864807128906,-31.104507446289062,-49.48647689819336,-79.82698822021484
3,Pressed,1.885025978088379,1.6944386959075928,0.37668752670288086,36.479312896728516,207.010009765625,130.1024627685547,0,-29.291973114013672,-26.94525718688965,-26.903194427490234,-64.72847747802734,-31.84326171875,-46.9287223815918,-80.20489501953125
3,Pressed,1.8858469724655151,1.696263074874878,0.4001220762729645,36.574771881103516,206.80615234375,129.8783721923828,0,-30.05091094970703,-24.650753021240234,-27.39633560180664,-68.10810852050781,-32.32130432128906,-44.73954772949219,-80.78228759765625
3,Pressed,1.8870879411697388,1.6979963779449463,0.4282457232475281,36.67203903198242,206.4879913330078,129.63565063476562,0,-31.237388610839844,-22.129446029663086,-27.883840560913086,-71.6866455078125,-32.73929214477539,-42.319393157958984,-81.67578125
3,Pressed,1.8881316184997559,1.6994420289993286,0.4525592029094696,36.675594329833984,206.2863006591797,129.4793701171875,0,-32.579010009765625,-20.06566619873047,-28.164011001586914,-74.40470886230469,-32.72521209716797,-40.3438720703125,-82.89236450195312
3,Pressed,1.8886489868164062,1.700645923614502,0.4772926867008209,36.709556579589844,206.199951171875,129.3225860595703,0,-34.17439651489258,-17.987075805664062,-28.313129425048828,-77.06102752685547,-32.53799057006836,-38.287715911865234,-84.46509552001953
3,Pressed,1.8890635967254639,1.7015790939331055,0.5032424330711365,36.77402877807617,206.14242553710938,129.12355041503906,0,-36.13876724243164,-15.91956901550293,-28.3552303314209,-79.66084289550781,-32.06287384033203,-36.07487106323242,-86.4892349243164
3,Pressed,1.8900619745254517,1.702508807182312,0.5273741483688354,36.74433517456055,205.97666931152344,128.97393798828125,0,-38.34442901611328,-14.279239654541016,-28.28107452392578,-81.56329345703125,-30.978483200073242,-34.234779357910156,-88.90850830078125
3,Pressed,1.8908002376556396,1.7033584117889404,0.5517520904541016,36.75913619995117,205.92782592773438,128.8463897705078,0,-40.9473762512207,-12.721444129943848,-28.00142478942871,-83.29927825927734,-29.350528717041016,-32.368980407714844,-92.02037048339844
3,Pressed,1.8916361331939697,1.704322338104248,0.577897846698761,36.77366256713867,205.900146484375,128.74560546875,0,-44.222660064697266,-11.2629976272583,-27.44405174255371,-84.80567932128906,-26.807161331176758,-30.51118278503418,-96.18197631835938
3,Pressed,1.8928018808364868,1.7049814462661743,0.602971613407135,36.70349884033203,205.62750244140625,128.5902099609375,0,-47.641239166259766,-10.172924995422363,-26.842472076416016,-85.9203109741211,-23.72992706298828,-28.89618492126465,-100.56774139404297
3,Pressed,1.8936320543289185,1.7056372165679932,0.6273279786109924,36.74471664428711,205.62718200683594,128.49612426757812,0,-51.53834915161133,-9.241904258728027,-25.898666381835938,-86.82026672363281,-19.663911819458008,-27.3721981048584,-106.13729858398438
3,Pressed,1.8945460319519043,1.706298828125,0.6517388820648193,36.79623794555664,205.6451873779297,128.4214324951172,0,-55.91007614135742,-8.552881240844727,-24.680025100708008,-87.42375183105469,-14.585606575012207,-26.099987030029297,-112.70508575439453
3,Pressed,1.8956609964370728,1.706925868988037,0.6772128343582153,36.89662170410156,205.61196899414062,128.36094665527344,0,-60.855674743652344,-8.117460250854492,-23.152132034301758,-87.75139617919922,-8.548951148986816,-25.12744903564453,-120.25116729736328
3,Pressed,1.8967915773391724,1.707481026649475,0.7040101289749146,37.03877639770508,205.508056640625,128.3424530029297,0,-66.27481842041016,-7.9429731369018555,-21.402597427368164,-87.7927017211914,-1.7252907752990723,-24.583297729492188,-128.58810424804688
3,Pressed,1.8974463939666748,1.7079732418060303,0.7317720651626587,37.204307556152344,205.32467651367188,128.41256713867188,0,-71.8725357055664,-7.992982864379883,-19.60447120666504,-87.55899810791016,5.289444923400879,-24.600553512573242,-137.08033752441406
3,Pressed,1.8982586860656738,1.708243727684021,0.7626721858978271,37.4439582824707,205.0697784423828,128.4739227294922,0,-78.12908172607422,-8.368088722229004,-17.600143432617188,-87.02538299560547,12.954030990600586,-25.058605194091797,-146.32911682128906
3,Pressed,1.898378610610962,1.7083289623260498,0.7905416488647461,37.58876419067383,204.73992919921875,128.59471130371094,0,-83.31682586669922,-8.913142204284668,-16.22466278076172,-86.29008483886719,19.218746185302734,-26.000898361206055,-153.82997131347656
3,Pressed,1.8985711336135864,1.7082698345184326,0.819725513458252,37.78739929199219,204.67889404296875,128.75421142578125,0,-88.84931182861328,-9.781885147094727,-14.795707702636719,-85.18305206298828,25.780607223510742,-27.51235008239746,-161.79519653320312
3,Pressed,1.8979741334915161,1.7081785202026367,0.8482422828674316,37.8285026550293,204.2394256591797,128.8567657470703,0,-93.48725891113281,-10.753209114074707,-14.00588607788086,-83.9444351196289,30.79889678955078,-29.213211059570312,-167.7724151611328
3,Pressed,1.8972866535186768,1.7079761028289795,0.8790264129638672,37.8901252746582,203.9556121826172,128.96829223632812,0,-98.38377380371094,-12.086711883544922,-13.287188529968262,-82.25543212890625,35.78450393676758,-31.454288482666016,-173.79209899902344
3,Pressed,1.8963350057601929,1.7077054977416992,0.9060354828834534,37.902687072753906,203.63186645507812,129.0091552734375,0,-102.32888793945312,-13.42457103729248,-12.942649841308594,-80.5724105834961,39.52731704711914,-33.57680892944336,-178.25831604003906
3,Pressed,1.8957433700561523,1.7074031829833984,0.9329798221588135,37.91513442993164,203.47891235351562,129.09335327148438,0,-106.10198974609375,-15.044132232666016,-12.735525131225586,-78.46428680419922,42.786312103271484,-36.01687240600586,-182.17068481445312
3,Pressed,1.8946926593780518,1.7071630954742432,0.9626431465148926,37.92086410522461,203.2504425048828,129.20089721679688,0,-109.93987274169922,-16.9830379486084,-12.673925399780273,-75.8427734375,45.60127258300781,-38.77391815185547,-185.5140380859375
3,Pressed,1.8935561180114746,1.7066847085952759,0.9903125166893005,37.92558288574219,203.0430145263672,129.29042053222656,0,-113.32518768310547,-18.976802825927734,-12.696398735046387,-73.11809539794922,47.795692443847656,-41.38418960571289,-188.04833984375
3,Pressed,1.892107367515564,1.7062143087387085,1.016257643699646,37.91244125366211,202.78463745117188,129.36480712890625,0,-116.28535461425781,-20.960758209228516,-12.835865020751953,-70.32888793945312,49.48812484741211,-43.82865905761719,-189.85992431640625
3,Pressed,1.89158034324646,1.7055202722549438,1.0419548749923706,37.90239715576172,202.76690673828125,129.51080322265625,0,-119.1643295288086,-23.278499603271484,-12.951953887939453,-66.94987487792969,50.88815689086914,-46.49958801269531,-191.25775146484375
3,Pressed,1.8902294635772705,1.7046340703964233,1.0709941387176514,37.904808044433594,202.6619873046875,129.74327087402344,0,-122.1822509765625,-25.980972290039062,-13.190826416015625,-62.85405731201172,52.05531311035156,-49.42593002319336,-192.1986083984375
3,Pressed,1.8889843225479126,1.7035033702850342,1.0968106985092163,37.909427642822266,202.58236694335938,129.9828643798828,0,-124.72697448730469,-28.58228302001953,-13.474061012268066,-58.80946731567383,52.908138275146484,-52.04103088378906,-192.61915588378906
3,Pressed,1.8873252868652344,1.7020033597946167,1.1255855560302734,37.91377639770508,202.50428771972656,130.32725524902344,0,-127.44503021240234,-31.700428009033203,-13.852958679199219,-53.76507568359375,53.61628723144531,-55.00039291381836,-192.55419921875
3,Pressed,1.8850345611572266,1.699794054031372,1.153559923171997,37.92448425292969,202.4304656982422,130.86207580566406,0,-129.9027557373047,-34.927371978759766,-14.433873176574707,-48.366668701171875,54.09101104736328,-57.88991165161133,-191.95909118652344
3,Pressed,1.8833625316619873,1.6967628002166748,1.181108832359314,37.918399810791016,202.4942626953125,131.54571533203125,0,-132.2961883544922,-38.60367202758789,-15.081635475158691,-41.98125457763672,54.393062591552734,-60.97773742675781,-190.73638916015625
3,Pressed,1.880500316619873,1.692079782485962,1.2099026441574097,37.9375114440918,202.5610809326172,132.68653869628906,0,-134.6461181640625,-42.77157974243164,-16.179929733276367,-34.45598220825195,54.5264892578125,-64.29373168945312,-188.7323760986328
3,Pressed,1.8762516975402832,1.683185338973999,1.2431800365447998,37.98896789550781,202.78773498535156,134.84625244140625,0,-137.3433380126953,-48.459999084472656,-18.19034194946289,-23.72391128540039,54.48716354370117,-68.54487609863281,-185.1058807373047
3,Pressed,1.8674156665802002,1.6592397689819336,1.2842209339141846,38.4066162109375,203.5108642578125,140.15887451171875,0,-140.7562713623047,-57.02228546142578,-23.36073112487793,-7.2235107421875,54.652984619140625,-74.00802612304688,-178.586669921875
1,Pressed,1.8334635496139526,1.6223442554473877,1.3422129154205322,41.813777923583984,206.7642364501953,157.7334442138672,0,-140.6119384765625,-60.47227478027344,-41.237247467041016,-2.150519847869873,55.79131317138672,-73.94992065429688,-175.8622283935547
1,Pressed,1.8199446201324463,1.6203950643539429,1.36506187915802,44.43981170654297,208.8340301513672,166.09666442871094,0,-139.56826782226562,-60.745018005371094,-49.19498062133789,-2.1669554710388184,55.656227111816406,-72.2515869140625,-175.25868225097656
1,Pressed,1.8579351902008057,1.6214244365692139,1.3458173274993896,45.740966796875,208.2487335205078,161.95396423339844,0,-137.5331573486328,-61.410518646240234,-46.18820571899414,-2.0127949714660645,54.87668228149414,-69.63194274902344,-174.4630126953125
1,Pressed,1.920250654220581,1.6244932413101196,1.2947256565093994,43.853816986083984,204.02890014648438,147.23101806640625,0,-135.61451721191406,-62.40256118774414,-34.78399658203125,-1.9417551755905151,54.582157135009766,-67.14958190917969,-173.7551727294922
-1,Pressed,1.9417301416397095,1.6394305229187012,1.2604334354400635,40.601837158203125,201.68142700195312,136.89244079589844,0,-135.9630889892578,-62.3223762512207,-25.381906509399414,-1.7250484228134155,54.89514923095703,-67.78706359863281,-173.95272827148438
-1,Pressed,1.9214141368865967,1.6386650800704956,1.2718250751495361,40.1475944519043,202.5516815185547,139.02239990234375,0,-137.4318389892578,-61.80280303955078,-26.37442970275879,-1.755202054977417,55.30659484863281,-69.83226776123047,-174.56712341308594
-1,Pressed,1.8680205345153809,1.6281028985977173,1.317133903503418,41.75999069213867,205.48736572265625,151.1901092529297,0,-139.38177490234375,-60.91913986206055,-36.12529373168945,-1.8003143072128296,55.62784957885742,-72.4439697265625,-175.33200073242188
-1,Pressed,1.8148274421691895,1.6261017322540283,1.353503704071045,42.2828254699707,207.64956665039062,161.3729705810547,0,-141.27503967285156,-60.0041618347168,-44.198486328125,-1.8294576406478882,55.95366287231445,-74.81684112548828,-176.05052185058594
-1,Pressed,1.787365198135376,1.6303248405456543,1.3613674640655518,41.04783248901367,207.41842651367188,162.27926635742188,0,-143.23724365234375,-59.13829040527344,-44.45490646362305,-1.9036736488342285,56.514190673828125,-77.18800354003906,-176.86328125
-1,Pressed,1.7691423892974854,1.6537835597991943,1.350563406944275,39.668941497802734,202.62945556640625,151.04635620117188,0,-143.7685089111328,-52.59748840332031,-34.18770980834961,-15.864068984985352,56.69831466674805,-74.48987579345703,-184.53976440429688
-1,Pressed,1.7892119884490967,1.668627381324768,1.3025140762329102,37.435760498046875,201.98387145996094,138.8495330810547,0,-144.50634765625,-47.320220947265625,-20.577686309814453,-26.86021614074707,56.682395935058594,-72.29510498046875,-190.79307556152344
-1,Pressed,1.7947843074798584,1.6871042251586914,1.2624791860580444,36.91879653930664,203.37655639648438,132.6012420654297,0,-145.74928283691406,-43.112548828125,-12.869172096252441,-33.9445915222168,57.34033203125,-71.80672454833984,-195.3315887451172
-1,Pressed,1.756883978843689,1.6889963150024414,1.2736766338348389,37.18040466308594,202.1164093017578,133.26583862304688,0,-147.9951171875,-40.290687561035156,-14.086043357849121,-38.874385833740234,58.556522369384766,-72.0675048828125,-198.6457977294922
-1,Pressed,1.7242646217346191,1.6924387216567993,1.2782375812530518,37.23630142211914,201.03286743164062,132.82571411132812,0,-150.50811767578125,-37.920013427734375,-14.122247695922852,-42.91530990600586,59.75318145751953,-72.76395416259766,-201.58192443847656
-1,Pressed,1.707570195198059,1.6956446170806885,1.2681936025619507,37.109073638916016,201.65115356445312,131.71481323242188,0,-152.4635009765625,-35.911441802978516,-12.403121948242188,-46.32578659057617,60.36442184448242,-73.79084777832031,-204.27630615234375
-1,Pressed,1.6850740909576416,1.6976993083953857,1.2653698921203613,37.078670501708984,201.6238250732422,131.22433471679688,0,-154.61947631835938,-34.29665756225586,-11.873364448547363,-49.01320266723633,61.09148025512695,-75.0358657836914,-206.59176635742188
-1,Pressed,1.6587154865264893,1.699350118637085,1.2651129961013794,37.05290222167969,201.31561279296875,130.90432739257812,0,-157.0997314453125,-32.88493728637695,-11.729363441467285,-51.319278717041016,61.845157623291016,-76.58905029296875,-208.79446411132812
-1,Pressed,1.6363661289215088,1.7005767822265625,1.2635700702667236,37.02760314941406,201.223388671875,130.60374450683594,0,-159.28900146484375,-31.795204162597656,-11.608813285827637,-53.107513427734375,62.4820671081543,-78.17875671386719,-210.70187377929688
-1,Pressed,1.609741449356079,1.7015905380249023,1.261728286743164,36.99025344848633,201.1935577392578,130.35092163085938,0,-162.0169677734375,-30.731245040893555,-11.418937683105469,-54.827476501464844,63.044437408447266,-80.24530792236328,-212.80960083007812
-1,Pressed,1.5847729444503784,1.7024343013763428,1.2610759735107422,36.96993637084961,201.00796508789062,130.1698760986328,0,-164.5081024169922,-29.995397567749023,-11.568971633911133,-56.01189041137695,63.61038589477539,-82.27220153808594,-214.57696533203125
-1,Pressed,1.562093734741211,1.7031760215759277,1.2597401142120361,36.942955017089844,200.9780731201172,129.98033142089844,0,-166.87962341308594,-29.494836807250977,-11.647125244140625,-56.81143569946289,64.07554626464844,-84.35059356689453,-216.14866638183594
-1,Pressed,1.5352144241333008,1.7036460638046265,1.2584278583526611,36.89509582519531,200.95660400390625,129.86724853515625,0,-169.73208618164062,-29.119586944580078,-11.750389099121094,-57.40070724487305,64.47378540039062,-86.87184143066406,-217.85052490234375
-1,Pressed,1.510021448135376,1.7041152715682983,1.257585048675537,36.85944366455078,200.8621063232422,129.7615966796875,0,-172.38796997070312,-28.990585327148438,-12.001030921936035,-57.600486755371094,64.88016510009766,-89.31690979003906,-219.30796813964844
-1,Pressed,1.4853330850601196,1.704440951347351,1.2565040588378906,36.813961029052734,200.84356689453125,129.6739044189453,0,-175.02908325195312,-29.06781768798828,-12.25853443145752,-57.47649383544922,65.24750518798828,-91.85248565673828,-220.6561737060547
-1,Pressed,1.4607264995574951,1.7046669721603394,1.255756139755249,36.763763427734375,200.766357421875,129.62046813964844,0,-177.6485137939453,-29.334741592407227,-12.583974838256836,-57.04560470581055,65.60475158691406,-94.38568878173828,-221.85572814941406
-1,Pressed,1.4372478723526,1.7049306631088257,1.2550777196884155,36.72176742553711,200.66778564453125,129.54830932617188,0,-180.1644744873047,-29.768587112426758,-12.917375564575195,-56.347068786621094,65.98136901855469,-96.85073852539062,-222.8889617919922
-1,Pressed,1.411910891532898,1.704759120941162,1.2540740966796875,36.624324798583984,200.70811462402344,129.5629119873047,0,-182.92446899414062,-30.455629348754883,-13.180423736572266,-55.225135803222656,66.28218841552734,-99.59542083740234,-223.88330078125
-1,Pressed,1.3867944478988647,1.704750895500183,1.2536709308624268,36.5491943359375,200.55906677246094,129.57008361816406,0,-185.609375,-31.301733016967773,-13.551518440246582,-53.82126235961914,66.69185638427734,-102.20834350585938,-224.6668701171875
-1,Pressed,1.362290620803833,1.7044613361358643,1.2528396844863892,36.4331169128418,200.58477783203125,129.5905303955078,0,-188.29005432128906,-32.38209915161133,-13.79554557800293,-52.01680374145508,67.08937072753906,-104.90372467041016,-225.29360961914062
-1,Pressed,1.3367689847946167,1.7039854526519775,1.2522642612457275,36.287742614746094,200.51258850097656,129.66029357910156,0,-191.05337524414062,-33.675537109375,-14.060269355773926,-49.814327239990234,67.556396484375,-107.60052490234375,-225.71188354492188
-1,Pressed,1.3088557720184326,1.703147530555725,1.2516067028045654,36.06680679321289,200.44557189941406,129.78855895996094,0,-194.11073303222656,-35.33930969238281,-14.209074020385742,-46.908203125,68.08609771728516,-110.5079345703125,-225.85491943359375
-1,Pressed,1.283290982246399,1.7020139694213867,1.2512552738189697,35.79323959350586,200.3467254638672,129.9591064453125,0,-196.8588409423828,-37.1323127746582,-14.406471252441406,-43.72095489501953,68.74006652832031,-113.14483642578125,-225.63577270507812
-1,Pressed,1.2594741582870483,1.7005207538604736,1.251176118850708,35.44866180419922,200.24295043945312,130.17239379882812,0,-199.36187744140625,-39.09358596801758,-14.702751159667969,-40.17464828491211,69.59017181396484,-115.62089538574219,-225.0459747314453
-1,Pressed,1.2320525646209717,1.697873830795288,1.2512115240097046,34.865501403808594,200.0345001220703,130.59414672851562,0,-202.18455505371094,-41.6009407043457,-15.1289701461792,-35.51084518432617,70.73078918457031,-118.3391342163086,-223.84765625
-1,Pressed,1.203661322593689,1.693399429321289,1.2517421245574951,33.90330123901367,199.69932556152344,131.3134002685547,0,-205.00582885742188,-44.61887741088867,-15.850743293762207,-29.73870849609375,72.2464828491211,-121.038818359375,-221.7922821044922
-1,Pressed,1.1705241203308105,1.6839423179626465,1.25346040725708,31.904359817504883,199.18063354492188,132.80294799804688,0,-208.22483825683594,-49.061744689941406,-17.13813591003418,-20.90358543395996,74.54503631591797,-124.0926513671875,-217.66964721679688
-1,Pressed,1.1378111839294434,1.6626492738723755,1.2566120624542236,27.495819091796875,198.24658203125,136.18002319335938,0,-211.19810485839844,-54.45380783081055,-17.37388801574707,-9.53984260559082,74.31281280517578,-126.59504699707031,-211.06405639648438
6,Pressed,1.08322274684906,1.6173956394195557,1.2570383548736572,19.127309799194336,192.4301300048828,141.7088623046875,0,-213.71534729003906,-56.808685302734375,-16.48489761352539,-7.219372749328613,63.77161407470703,-126.20213317871094,-208.7830047607422
6,Pressed,1.0209702253341675,1.5850239992141724,1.2429373264312744,14.593500137329102,183.44638061523438,143.76785278320312,0,-215.98211669921875,-55.60650634765625,-28.31084632873535,-15.741267204284668,65.8138427734375,-123.28723907470703,-212.7834014892578
6,Pressed,1.0612236261367798,1.612889289855957,1.2525653839111328,24.697402954101562,183.8994140625,129.21255493164062,0,-218.14891052246094,-54.35590362548828,-13.919072151184082,-23.233169555664062,68.26763916015625,-120.88339233398438,-216.44985961914062
6,Pressed,1.1547019481658936,1.6818106174468994,1.2522224187850952,38.871490478515625,187.64199829101562,109.12864685058594,0,-218.62103271484375,-53.602176666259766,12.50522232055664,-28.74061393737793,67.4463119506836,-119.0013656616211,-219.200927734375
6,Pressed,1.1532551050186157,1.6775882244110107,1.2518486976623535,39.10589599609375,183.75613403320312,103.74320983886719,0,-219.8262939453125,-53.51536560058594,13.271123886108398,-33.68040084838867,69.17374420166016,-117.64434051513672,-221.5488739013672
-6,Pressed,1.1395565271377563,1.674656867980957,1.252195119857788,38.43465042114258,182.59466552734375,104.88825988769531,0,-220.39837646484375,-53.62807846069336,10.842256546020508,-32.90509033203125,70.19554901123047,-117.934326171875,-221.11280822753906
-6,Pressed,1.1407990455627441,1.6739927530288696,1.2528471946716309,37.17121124267578,187.2399139404297,111.92730712890625,0,-218.85780334472656,-53.57828903198242,9.14081859588623,-27.75955581665039,67.66532135009766,-119.4004135131836,-218.6219024658203
-6,Pressed,1.12945556640625,1.664614200592041,1.2545711994171143,34.08414077758789,189.9784698486328,119.43228149414062,0,-217.6329803466797,-54.03167724609375,4.470235824584961,-22.435409545898438,66.20893096923828,-121.11099243164062,-216.03759765625
-6,Pressed,1.1193466186523438,1.6529903411865234,1.2569732666015625,29.7080078125,192.88482666015625,127.87934875488281,0,-215.82943725585938,-55.31126022338867,-0.9333652257919312,-14.892743110656738,64.62454223632812,-123.5665283203125,-212.29693603515625
-6,Pressed,1.1006485223770142,1.6282157897949219,1.2588679790496826,21.567842483520508,194.39984130859375,139.31275939941406,0,-213.5423583984375,-57.3820915222168,-10.777697563171387,-5.528997421264648,62.90360641479492,-126.73772430419922,-207.69839477539062
-6,Pressed,1.0580424070358276,1.6026448011398315,1.248896598815918,12.190245628356934,191.1713104248047,150.9230499267578,0,-212.68557739257812,-56.579742431640625,-17.244409561157227,-3.7855405807495117,53.291717529296875,-127.62996673583984,-207.39610290527344
-6,Pressed,1.0230921506881714,1.5982407331466675,1.2313060760498047,6.435686111450195,188.02297973632812,159.43580627441406,0,-212.25067138671875,-54.26179122924805,-14.085311889648438,-5.0696702003479,38.07145309448242,-127.58927154541016,-208.7774658203125
-6,Pressed,1.0446062088012695,1.6158111095428467,1.2316761016845703,8.725955963134766,192.28506469726562,159.16354370117188,0,-211.3588409423828,-52.035335540771484,-4.102616786956787,-6.243372917175293,30.338029861450195,-127.60423278808594,-210.47640991210938
-4,Pressed,1.0889661312103271,1.6417804956436157,1.2441867589950562,16.84222984313965,200.66903686523438,155.7039337158203,0,-210.54989624023438,-51.56987762451172,4.50755500793457,-4.6433634757995605,31.717649459838867,-127.69182586669922,-212.94398498535156
-4,Pressed,1.1065006256103516,1.6607792377471924,1.2486295700073242,25.53949546813965,205.76402282714844,153.599365234375,0,-212.9913787841797,-48.26802444458008,11.649579048156738,-11.891977310180664,32.365238189697266,-122.4701156616211,-219.3257598876953
-4,Pressed,1.1002111434936523,1.6695098876953125,1.2440826892852783,31.88201904296875,207.8771514892578,155.6024169921875,0,-217.48458862304688,-42.378211975097656,14.152600288391113,-24.679508209228516,32.788726806640625,-113.90910339355469,-227.98654174804688
-4,Pressed,1.1236317157745361,1.6849017143249512,1.2427008152008057,39.54220199584961,213.18539428710938,157.1948699951172,0,-221.05429077148438,-38.3394889831543,20.895933151245117,-33.7931022644043,33.62434768676758,-107.36721801757812,-234.78518676757812
-4,Pressed,1.1458183526992798,1.6961443424224854,1.2414956092834473,45.70207977294922,219.4054718017578,161.16586303710938,0,-224.17910766601562,-34.993263244628906,26.13953399658203,-41.48146057128906,34.71049118041992,-101.42130279541016,-241.3968048095703
-4,Pressed,1.1426656246185303,1.696711540222168,1.2390010356903076,49.86763381958008,223.18621826171875,166.3632354736328,0,-228.03807067871094,-32.22600555419922,27.691696166992188,-48.564491271972656,36.87678146362305,-95.8517074584961,-248.20883178710938
-4,Pressed,1.142199158668518,1.6968072652816772,1.2371494770050049,53.3817024230957,227.78509521484375,172.0081329345703,0,-231.2882080078125,-30.1099910736084,29.184009552001953,-54.445858001708984,39.238773345947266,-91.25823211669922,-254.55987548828125
-4,Pressed,1.1448785066604614,1.6984319686889648,1.2357301712036133,56.955936431884766,234.73574829101562,179.82870483398438,0,-234.75892639160156,-28.1688289642334,31.354591369628906,-60.28327178955078,42.12567138671875,-86.65193176269531,-261.731689453125
-4,Pressed,1.1466902494430542,1.6980997323989868,1.2345771789550781,59.374977111816406,241.56927490234375,187.49020385742188,0,-237.4910888671875,-26.805665969848633,32.85041809082031,-65.04583740234375,44.968196868896484,-83.12039947509766,-268.1433410644531
-4,Pressed,1.146742582321167,1.6983933448791504,1.23337721824646,61.53807830810547,250.5201416015625,197.6731414794922,0,-240.77359008789062,-25.654905319213867,34.74640655517578,-70.00054931640625,48.50632858276367,-79.5072250366211,-275.6349792480469
-6,Pressed,1.1531052589416504,1.7017202377319336,1.2331469058990479,59.070899963378906,256.5966491699219,203.6924285888672,0,-240.91995239257812,-24.293691635131836,35.656333923339844,-70.6527328491211,47.5673713684082,-78.22987365722656,-278.0526123046875
-6,Pressed,1.1494275331497192,1.701886534690857,1.2322489023208618,54.38941955566406,257.52923583984375,205.24041748046875,0,-239.67727661132812,-22.863161087036133,34.59139633178711,-69.33561706542969,44.3029670715332,-78.09465789794922,-277.6735534667969
-6,Pressed,1.148954153060913,1.7031950950622559,1.231843113899231,49.440547943115234,258.5489501953125,206.5415802001953,0,-238.05455017089844,-21.408950805664062,33.84928512573242,-67.947509765625,40.57887649536133,-77.91910552978516,-277.0848083496094
-6,Pressed,1.1515249013900757,1.704916000366211,1.2317924499511719,44.46133041381836,259.6812744140625,207.61569213867188,0,-236.08106994628906,-19.979555130004883,33.31957244873047,-66.69853210449219,36.6483268737793,-77.71023559570312,-276.4648132324219
-6,Pressed,1.1528760194778442,1.7063136100769043,1.2314691543579102,40.013671875,260.43035888671875,208.44009399414062,0,-234.39059448242188,-18.73015594482422,32.991912841796875,-65.79952239990234,32.99538040161133,-77.41375732421875,-275.9241943359375
-6,Pressed,1.1551661491394043,1.7076292037963867,1.2314159870147705,34.620182037353516,261.1918640136719,209.301513671875,0,-231.96923828125,-17.207958221435547,32.409366607666016,-65.02946472167969,28.497753143310547,-76.89057159423828,-275.28558349609375
-6,Pressed,1.1575123071670532,1.708951473236084,1.2313058376312256,30.206907272338867,261.80755615234375,209.95155334472656,0,-230.08590698242188,-16.033721923828125,32.384727478027344,-64.56322479248047,24.518522262573242,-76.38353729248047,-274.6356506347656
-6,Pressed,1.1612584590911865,1.710207462310791,1.231583833694458,25.32942771911621,262.5015869140625,210.5672149658203,0,-227.64804077148438,-14.798803329467773,32.298824310302734,-64.23502349853516,19.955835342407227,-75.78234100341797,-273.81903076171875
-6,Pressed,1.166271686553955,1.711287021636963,1.2320446968078613,19.598480224609375,263.24859619140625,211.1875,0,-224.3142547607422,-13.395429611206055,31.940778732299805,-64.17747497558594,14.441787719726562,-75.013916015625,-272.7484130859375
-6,Pressed,1.1709507703781128,1.7122316360473633,1.232493281364441,15.067986488342285,263.8562927246094,211.64085388183594,0,-221.9276580810547,-12.433499336242676,32.40385055541992,-64.3015365600586,9.607056617736816,-74.39373016357422,-271.57293701171875
-6,Pressed,1.1766654253005981,1.7129509449005127,1.2330392599105835,10.164924621582031,264.539306640625,212.10470581054688,0,-219.04588317871094,-11.445710182189941,32.761207580566406,-64.71026611328125,4.269381523132324,-73.72113037109375,-270.2062683105469
-6,Pressed,1.1820766925811768,1.7133852243423462,1.2335646152496338,5.660829067230225,265.1484680175781,212.5095672607422,0,-216.46742248535156,-10.655108451843262,33.382354736328125,-65.29704284667969,-0.8903026580810547,-73.14329528808594,-268.73907470703125
-6,Pressed,1.1889151334762573,1.7134037017822266,1.2341673374176025,0.5223630666732788,265.8620300292969,212.9185791015625,0,-213.24586486816406,-9.862329483032227,33.97226333618164,-66.23382568359375,-6.9166975021362305,-72.58843231201172,-266.88092041015625
1,Pressed,1.2054122686386108,1.713443398475647,1.2341593503952026,358.5863037109375,265.57568359375,213.05218505859375,0,-210.2607421875,-9.337623596191406,34.83841323852539,-66.96692657470703,-10.849924087524414,-72.62153625488281,-263.1301574707031
1,Pressed,1.2261066436767578,1.7131755352020264,1.2343804836273193,358.5496826171875,265.4292297363281,212.99757385253906,0,-207.68955993652344,-9.20592975616455,35.73495101928711,-67.2095947265625,-12.940814971923828,-73.01473999023438,-259.510498046875
-1,Pressed,1.2424073219299316,1.7156224250793457,1.2350586652755737,358.6304931640625,268.02044677734375,213.2086181640625,0,-206.74142456054688,-9.117204666137695,36.24583435058594,-66.99471282958984,-12.270264625549316,-72.98802947998047,-260.68408203125
-1,Pressed,1.229977011680603,1.7170644998550415,1.236448049545288,358.5209045410156,269.4143371582031,213.3754425048828,0,-208.6440887451172,-9.307966232299805,35.64789962768555,-66.55409240722656,-10.190858840942383,-72.68773651123047,-264.6831970214844
-1,Pressed,1.1910207271575928,1.71554434299469,1.2364826202392578,358.6160583496094,267.7135009765625,213.2357177734375,0,-212.58917236328125,-9.955330848693848,34.316688537597656,-65.93668365478516,-8.190348625183105,-72.55887603759766,-268.3469543457031
-1,Pressed,1.1482999324798584,1.7136859893798828,1.2341485023498535,358.657470703125,265.692138671875,213.0731201171875,0,-216.60250854492188,-10.866048812866211,32.85844802856445,-65.03872680664062,-6.3830156326293945,-72.62042999267578,-271.9591064453125
-1,Pressed,1.1141732931137085,1.712878704071045,1.2323905229568481,358.6253967285156,264.9144287109375,213.02557373046875,0,-219.7886505126953,-12.060115814208984,31.81717300415039,-63.670135498046875,-4.778153419494629,-72.93656158447266,-275.6956481933594
-1,Pressed,1.0972316265106201,1.7132123708724976,1.2333028316497803,358.6766662597656,265.4164123535156,213.10671997070312,0,-221.35250854492188,-13.115152359008789,31.30282211303711,-62.32219696044922,-3.5827386379241943,-73.34871673583984,-278.5281982421875
-1,Pressed,1.0769953727722168,1.7138370275497437,1.235192894935608,358.5853271484375,266.193359375,213.22755432128906,0,-223.0888214111328,-14.650546073913574,30.951066970825195,-60.31497573852539,-2.5336384773254395,-74.0551986694336,-281.8203125
-1,Pressed,1.0490539073944092,1.713155746459961,1.2343146800994873,358.5716857910156,265.8795166015625,213.1910858154297,0,-225.13723754882812,-16.40899085998535,30.279541015625,-58.065467834472656,-1.7150691747665405,-74.96077728271484,-284.63421630859375
-1,Pressed,1.019755244255066,1.7121037244796753,1.2324628829956055,358.5621337890625,265.3698425292969,213.09765625,0,-227.07191467285156,-18.382965087890625,29.600872039794922,-55.45725631713867,-1.1263110637664795,-76.09762573242188,-287.1860046386719
-2,Pressed,1.0021891593933105,1.6955825090408325,1.2285587787628174,358.4579162597656,264.4287109375,212.91314697265625,0,-228.9901885986328,-18.578611373901367,29.11005401611328,-58.21220016479492,-0.43471866846084595,-73.4541244506836,-288.6026306152344
-2,Pressed,1.0036545991897583,1.6717357635498047,1.2289395332336426,358.5085144042969,264.6349792480469,213.01051330566406,0,-230.1839599609375,-17.82638168334961,29.486114501953125,-63.850643157958984,0.3807186186313629,-68.60711669921875,-289.4867858886719
2,Pressed,1.0096977949142456,1.6780062913894653,1.2316133975982666,358.51129150390625,265.3236999511719,213.09829711914062,0,-229.552001953125,-17.908294677734375,29.751819610595703,-62.64285659790039,0.2045883685350418,-69.66943359375,-289.31549072265625
2,Pressed,1.0098330974578857,1.702655553817749,1.232354760169983,358.4891662597656,265.39453125,213.0861053466797,0,-228.20481872558594,-18.800251007080078,29.530071258544922,-56.6927375793457,-0.6515241265296936,-74.65412139892578,-288.4924011230469
2,Pressed,1.006714105606079,1.7239177227020264,1.231900691986084,358.5114440917969,265.0865173339844,212.89222717285156,0,-226.7371063232422,-20.082725524902344,28.992815017700195,-50.53165817260742,-1.6325126886367798,-79.61351776123047,-287.6964111328125
2,Pressed,1.0052719116210938,1.7519115209579468,1.2321829795837402,358.3882141113281,264.9150695800781,212.7942657470703,0,-224.1295928955078,-22.157276153564453,28.293947219848633,-41.541282653808594,-3.28371262550354,-86.41468048095703,-286.74530029296875
2,Pressed,1.0044505596160889,1.7714905738830566,1.2336487770080566,358.3580627441406,264.9028625488281,212.45559692382812,0,-221.14137268066406,-24.720006942749023,27.32809066772461,-32.77789306640625,-4.919149398803711,-92.72592163085938,-286.2195129394531
2,Pressed,1.002132534980774,1.795630693435669,1.2361047267913818,358.0125732421875,264.7904968261719,211.98072814941406,0,-215.31239318847656,-30.195262908935547,24.81239128112793,-16.157445907592773,-7.834204196929932,-103.66730499267578,-286.4397888183594
2,Pressed,0.9994183778762817,1.80855131149292,1.229907512664795,356.7861633300781,263.23779296875,211.5738067626953,0,-210.66600036621094,-34.260562896728516,20.37884521484375,-3.073777437210083,-9.442514419555664,-111.97129821777344,-287.0472412109375
1,Pressed,1.000903844833374,1.8163753747940063,1.2228224277496338,354.9104309082031,260.495361328125,211.21923828125,0,-208.1988067626953,-34.143157958984375,16.412630081176758,-0.8138276934623718,-10.397282600402832,-113.76862335205078,-285.9646301269531
1,Pressed,1.0149164199829102,1.8202491998672485,1.221692442893982,353.6077880859375,258.494384765625,210.4729766845703,0,-204.80462646484375,-33.49296188354492,12.79848861694336,-0.7649750709533691,-11.25137996673584,-114.7023696899414,-283.87109375
1,Pressed,1.0409330129623413,1.824481725692749,1.2269001007080078,354.1606750488281,259.3133850097656,210.54730224609375,0,-201.86190795898438,-32.792022705078125,13.01048469543457,-0.9894421100616455,-12.109323501586914,-115.19877624511719,-281.98699951171875
-3,Pressed,1.1009160280227661,1.8332290649414062,1.2254254817962646,359.75360107421875,268.33905029296875,212.36630249023438,0,-206.4732666015625,-25.709455490112305,26.36808967590332,-14.978044509887695,-9.68652629852295,-108.59915924072266,-279.8744201660156
-3,Pressed,1.099898099899292,1.8360943794250488,1.2013559341430664,359.1171875,267.8190612792969,212.6676025390625,0,-211.7469482421875,-20.265182495117188,27.68031120300293,-24.59341812133789,-6.931636333465576,-104.28968811035156,-280.0431823730469
-3,Pressed,1.0788521766662598,1.8356261253356934,1.1716725826263428,358.46044921875,264.74188232421875,212.45066833496094,0,-217.2366180419922,-16.17714500427246,25.881366729736328,-30.998680114746094,-3.5195980072021484,-101.91902160644531,-281.20013427734375
-3,Pressed,1.0679036378860474,1.8365356922149658,1.1376733779907227,358.54864501953125,263.2076110839844,212.5651092529297,0,-224.08029174804688,-11.816327095031738,25.637449264526367,-37.0389289855957,1.0006155967712402,-100.2182388305664,-283.5511474609375
-3,Pressed,1.0738730430603027,1.8383543491363525,1.1162950992584229,358.6689453125,263.98358154296875,212.89222717285156,0,-228.24586486816406,-8.532463073730469,25.649063110351562,-41.008148193359375,4.905041694641113,-99.43032836914062,-286.0849914550781
-3,Pressed,1.0864413976669312,1.840667724609375,1.094299077987671,358.715576171875,265.8153991699219,213.159912109375,0,-232.1310272216797,-5.0986552238464355,25.295377731323242,-44.59000015258789,9.463407516479492,-99.43299865722656,-289.54644775390625
-3,Pressed,1.0962448120117188,1.8418171405792236,1.0751264095306396,358.72711181640625,267.34686279296875,213.31503295898438,0,-235.2598876953125,-2.2876157760620117,24.26145362854004,-47.357704162597656,13.552092552185059,-99.89524841308594,-292.9834899902344
-3,Pressed,1.104966163635254,1.842545509338379,1.0521600246429443,358.6854553222656,268.79754638671875,213.39271545410156,0,-239.23068237304688,0.7048884034156799,22.89912223815918,-50.112640380859375,18.105154037475586,-101.01676940917969,-297.259521484375
-3,Pressed,1.1117136478424072,1.8433432579040527,1.030788779258728,358.4833068847656,270.0540466308594,213.3805694580078,0,-241.1559295654297,3.2016971111297607,19.9164981842041,-52.16133499145508,21.80446434020996,-102.58980560302734,-301.31573486328125
1,Pressed,1.1170804500579834,1.843827247619629,1.0159744024276733,358.34381103515625,268.1883239746094,213.389892578125,0,-242.79367065429688,5.592024326324463,18.95928382873535,-54.032291412353516,22.777633666992188,-102.92510223388672,-301.37249755859375
1,Pressed,1.1301345825195312,1.843761682510376,1.0098378658294678,358.2904357910156,265.97528076171875,213.39675903320312,0,-243.9236602783203,7.927433490753174,20.226253509521484,-55.736358642578125,22.462053298950195,-102.51082611083984,-299.02325439453125
1,Pressed,1.1544458866119385,1.8439173698425293,1.0093611478805542,358.2384948730469,265.9493408203125,213.456787109375,0,-242.76943969726562,10.108449935913086,21.570581436157227,-57.100379943847656,22.12040901184082,-102.20193481445312,-296.46942138671875
-1,Pressed,1.1585584878921509,1.844238519668579,1.0129081010818481,358.2317199707031,268.01043701171875,213.49334716796875,0,-239.99826049804688,9.583788871765137,20.408700942993164,-56.78830337524414,22.010013580322266,-102.24957275390625,-297.0455017089844
-1,Pressed,1.1323751211166382,1.8440934419631958,1.0128099918365479,358.23712158203125,267.43084716796875,213.4822998046875,0,-241.6762237548828,7.532997131347656,19.058366775512695,-55.48788833618164,22.39017677307129,-102.50469207763672,-299.510009765625
-1,Pressed,1.106002926826477,1.8438078165054321,1.011599063873291,358.3387756347656,266.74761962890625,213.50863647460938,0,-243.95611572265625,5.382867813110352,18.184823989868164,-53.976112365722656,22.947673797607422,-102.87605285644531,-301.8465881347656
-1,Pressed,1.0822937488555908,1.8437600135803223,1.0139353275299072,358.4619445800781,267.44012451171875,213.59735107421875,0,-245.0572967529297,2.621497869491577,17.330230712890625,-51.74079513549805,23.51890754699707,-103.46343994140625,-304.3231201171875
-1,Pressed,1.0609419345855713,1.8436660766601562,1.01820969581604,358.6572570800781,268.6576843261719,213.7335205078125,0,-245.27513122558594,-0.3844062089920044,16.329910278320312,-49.039710998535156,24.0762882232666,-104.25178527832031,-306.5141296386719
-1,Pressed,1.0408587455749512,1.843526840209961,1.0217088460922241,358.7200012207031,269.3385009765625,213.777587890625,0,-244.29275512695312,-3.142883062362671,14.287924766540527,-46.23419952392578,24.380197525024414,-105.10449981689453,-308.0699768066406
-1,Pressed,1.0135749578475952,1.8430732488632202,1.0215530395507812,358.64794921875,268.8605041503906,213.64190673828125,0,-244.12374877929688,-6.301399230957031,12.108763694763184,-42.63520431518555,24.532657623291016,-106.28077697753906,-309.3939514160156
-1,Pressed,0.9727544784545898,1.8413655757904053,1.0113511085510254,358.5924987792969,266.2215576171875,213.34031677246094,0,-246.20535278320312,-10.09361743927002,10.113346099853516,-38.061737060546875,24.677431106567383,-107.839111328125,-310.4918518066406
-3,Pressed,0.9433852434158325,1.8392012119293213,0.9714616537094116,358.7069091796875,261.79913330078125,212.93292236328125,0,-251.80992126464844,-10.318467140197754,7.131350040435791,-37.970672607421875,26.739246368408203,-109.30661010742188,-313.14910888671875
-3,Pressed,0.9462952613830566,1.8402152061462402,0.9519184827804565,358.7718200683594,262.22088623046875,213.073974609375,0,-254.97451782226562,-9.21887493133545,6.30856466293335,-39.24690628051758,28.983591079711914,-110.58931732177734,-316.0260925292969
-3,Pressed,0.9553202390670776,1.8417314291000366,0.9348293542861938,358.7479553222656,264.192138671875,213.33837890625,0,-258.1429748535156,-8.071161270141602,5.821800708770752,-40.51438522338867,31.64763069152832,-112.41199493408203,-319.7635192871094
-3,Pressed,0.960883617401123,1.8428561687469482,0.9161792993545532,358.70672607421875,265.53668212890625,213.4926300048828,0,-261.16705322265625,-7.341009616851807,4.725625038146973,-41.249603271484375,34.09679412841797,-114.46725463867188,-323.3230285644531
-3,Pressed,0.9613507986068726,1.843325138092041,0.8916295766830444,358.6949768066406,265.5626525878906,213.5738525390625,0,-264.8510437011719,-6.936105728149414,3.012430191040039,-41.684871673583984,36.398990631103516,-116.66180419921875,-326.8268737792969
-3,Pressed,0.9588574767112732,1.8434504270553589,0.8610337972640991,358.6873474121094,264.59161376953125,213.64028930664062,0,-269.4075927734375,-6.885578632354736,0.9090251922607422,-41.76679229736328,38.68024826049805,-119.10093688964844,-330.4820251464844
-3,Pressed,0.9575096368789673,1.8435957431793213,0.8313560485839844,358.6493225097656,263.6948547363281,213.69076538085938,0,-273.76177978515625,-7.160889625549316,-1.2119479179382324,-41.445552825927734,40.8005256652832,-121.6429672241211,-334.0189208984375
-1,Pressed,0.9442882537841797,1.8436009883880615,0.817052960395813,358.6938781738281,262.83038330078125,213.61087036132812,0,-275.7763366699219,-9.300248146057129,-1.9501605033874512,-38.71053695678711,41.736026763916016,-123.00578308105469,-334.71417236328125
-1,Pressed,0.9167555570602417,1.8421814441680908,0.8209719657897949,358.7001037597656,263.41064453125,213.2247772216797,0,-274.27508544921875,-14.070286750793457,-2.4159984588623047,-32.276973724365234,42.19551086425781,-124.05530548095703,-333.1026611328125
-1,Pressed,0.889252781867981,1.8398125171661377,0.8188841342926025,358.8065185546875,262.7370300292969,212.65765380859375,0,-273.9211730957031,-19.1888484954834,-2.9374043941497803,-24.61357879638672,43.05038070678711,-125.82188415527344,-330.6278991699219
-3,Pressed,0.8724732398986816,1.8337039947509766,0.7967151403427124,359.26617431640625,260.25689697265625,211.43431091308594,0,-278.10205078125,-22.27172088623047,2.819485664367676,-19.992429733276367,39.22057342529297,-127.2564926147461,-328.80267333984375
-3,Pressed,0.872394323348999,1.8269727230072021,0.7678747177124023,0.01265463326126337,260.4281311035156,211.0760040283203,0,-290.9297790527344,-24.696218490600586,37.25226974487305,-18.69635772705078,17.822696685791016,-127.69841766357422,-325.65985107421875
-3,Pressed,0.8704081177711487,1.820594310760498,0.7346501350402832,0.19945473968982697,258.04730224609375,210.7016143798828,0,-298.51116943359375,-25.927127838134766,49.77241516113281,-19.607954025268555,9.48622989654541,-127.72262573242188,-325.5189208984375
-3,Pressed,0.872628927230835,1.8154969215393066,0.7104576230049133,0.3035290539264679,257.4396667480469,210.9547576904297,0,-303.6008605957031,-26.490745544433594,53.70036697387695,-20.998262405395508,8.082062721252441,-127.71797180175781,-327.2948913574219
-3,Pressed,0.8791426420211792,1.8131779432296753,0.6925764083862305,359.78533935546875,258.94677734375,212.06236267089844,0,-308.89599609375,-27.2094669342041,59.5181884765625,-22.485458374023438,6.735931396484375,-127.72500610351562,-329.6855773925781
-3,Pressed,0.8842332363128662,1.8103541135787964,0.6756859421730042,359.2024841308594,259.89080810546875,212.8505401611328,0,-313.1089782714844,-27.869728088378906,63.17205810546875,-23.657041549682617,6.031296253204346,-127.72801971435547,-332.0095520019531
3,Pressed,0.8821073174476624,1.8090301752090454,0.6741406321525574,359.5648193359375,258.9246826171875,212.50685119628906,0,-312.6269836425781,-27.86655616760254,62.03394317626953,-23.453447341918945,6.059175491333008,-127.7292251586914,-331.55572509765625
3,Pressed,0.8778455257415771,1.8137483596801758,0.6958774328231812,359.89642333984375,258.68951416015625,211.9293212890625,0,-308.0960388183594,-27.193086624145508,59.335235595703125,-22.16719627380371,6.447986125946045,-127.72435760498047,-329.02783203125
3,Pressed,0.8751391768455505,1.8195397853851318,0.7214138507843018,359.9137878417969,259.20355224609375,211.60667419433594,0,-303.0464782714844,-26.549713134765625,56.49571228027344,-20.72153663635254,7.0979390144348145,-127.72710418701172,-326.75396728515625
3,Pressed,0.8710718154907227,1.823319435119629,0.7449818849563599,0.03137106075882912,258.9832763671875,210.9814453125,0,-297.65802001953125,-26.188356399536133,53.359256744384766,-19.049732208251953,7.0537428855896,-127.72689056396484,-324.22906494140625
3,Pressed,0.8662320375442505,1.824637532234192,0.765630304813385,0.10579200834035873,258.1626281738281,210.25546264648438,0,-293.0919494628906,-25.858346939086914,50.66349411010742,-18.205636978149414,6.5674943923950195,-127.131103515625,-321.8397216796875
-3,Pressed,0.8680144548416138,1.8251038789749146,0.762548565864563,0.06575766205787659,258.6597595214844,210.48023986816406,0,-293.7596740722656,-25.90953826904297,50.87822341918945,-18.170061111450195,7.022485733032227,-127.43156433105469,-322.434814453125
-3,Pressed,0.8722038269042969,1.8223609924316406,0.7393514513969421,0.015267180278897285,259.034423828125,211.0734405517578,0,-298.765869140625,-26.100549697875977,52.89433670043945,-19.555673599243164,7.924162864685059,-127.7120132446289,-325.095947265625
-3,Pressed,0.8750666379928589,1.8174411058425903,0.7142449021339417,0.015096426010131836,258.69549560546875,211.45559692382812,0,-304.03863525390625,-26.579378128051758,55.999820709228516,-21.10331916809082,7.43320369720459,-127.7242660522461,-327.38330078125
-3,Pressed,0.87907475233078,1.8130149841308594,0.6921244859695435,359.79998779296875,258.88238525390625,212.03948974609375,0,-308.9295654296875,-27.21076774597168,59.44475555419922,-22.496692657470703,6.752294063568115,-127.72482299804688,-329.7069091796875
-3,Pressed,0.88347327709198,1.809177041053772,0.6730692982673645,359.3748779296875,259.3668212890625,212.68350219726562,0,-313.17156982421875,-27.88510513305664,62.53301239013672,-23.669464111328125,6.147515296936035,-127.72583770751953,-332.0251770019531
-3,Pressed,0.8874256610870361,1.8041644096374512,0.6523257493972778,358.8974304199219,259.5694885253906,213.20779418945312,0,-317.14739990234375,-28.657394409179688,64.71204376220703,-24.713035583496094,5.692965984344482,-127.72794342041016,-334.586669921875
-3,Pressed,0.890700101852417,1.798405408859253,0.6316571235656738,358.4996337890625,259.36474609375,213.5455322265625,0,-320.4938659667969,-29.398231506347656,65.66559600830078,-25.53436279296875,5.495626926422119,-127.72713470458984,-337.0941162109375
-3,Pressed,0.8940533399581909,1.7920535802841187,0.6104355454444885,357.98626708984375,259.1602783203125,213.8462371826172,0,-323.5993957519531,-30.21168327331543,66.21464538574219,-26.20237922668457,5.2810187339782715,-127.728271484375,-339.8341369628906
-3,Pressed,0.896973192691803,1.7863537073135376,0.592387855052948,357.48046875,258.97125244140625,214.0631103515625,0,-325.9637756347656,-30.89318084716797,66.11803436279297,-26.63981819152832,5.264175891876221,-127.72718811035156,-342.3385314941406
-3,Pressed,0.9002567529678345,1.7793021202087402,0.5713409185409546,356.8670349121094,258.631591796875,214.18959045410156,0,-328.374755859375,-31.694129943847656,65.57025146484375,-26.958528518676758,5.192805767059326,-127.72865295410156,-345.2914123535156
-3,Pressed,0.9033576250076294,1.7718513011932373,0.5504636764526367,356.2839660644531,258.14483642578125,214.19264221191406,0,-330.37725830078125,-32.47180938720703,64.38856506347656,-27.073467254638672,5.218587875366211,-127.7291030883789,-348.2522888183594
-3,Pressed,0.9061278700828552,1.765209674835205,0.532539427280426,355.7447204589844,257.72027587890625,214.13568115234375,0,-331.8545227050781,-33.12490463256836,62.90586471557617,-27.03507423400879,5.386772155761719,-127.72744750976562,-350.9261474609375
-3,Pressed,0.9093491435050964,1.7576583623886108,0.5124637484550476,355.0477600097656,257.2763671875,213.94981384277344,0,-333.2989501953125,-33.88394546508789,61.14270782470703,-26.80439567565918,5.435483932495117,-127.72903442382812,-353.9976806640625
-3,Pressed,0.9123678207397461,1.7503316402435303,0.494071900844574,354.54937744140625,256.67169189453125,213.6699981689453,0,-334.3346252441406,-34.5433464050293,58.8996467590332,-26.468460083007812,5.696056365966797,-127.72720336914062,-356.7354431152344
-3,Pressed,0.9156758189201355,1.7428016662597656,0.47529393434524536,353.96539306640625,256.1116943359375,213.28111267089844,0,-335.22979736328125,-35.2421875,56.471473693847656,-25.965017318725586,5.928959369659424,-127.7269058227539,-359.61712646484375
-3,Pressed,0.9192746877670288,1.7350834608078003,0.45624059438705444,353.344482421875,255.56085205078125,212.760986328125,0,-335.9693298339844,-35.97505187988281,53.832977294921875,-25.29317283630371,6.151959419250488,-127.72765350341797,-362.57586669921875
-3,Pressed,0.9235101938247681,1.7267248630523682,0.43636035919189453,352.872314453125,254.79434204101562,212.07785034179688,0,-336.55218505859375,-36.730220794677734,50.659420013427734,-24.4918270111084,6.51945686340332,-127.72666931152344,-365.50421142578125
-3,Pressed,0.9277877807617188,1.7188403606414795,0.41741544008255005,352.3075256347656,254.204833984375,211.32672119140625,0,-336.9893493652344,-37.51955032348633,47.572425842285156,-23.53213119506836,6.870612144470215,-127.7271728515625,-368.4087219238281
-3,Pressed,0.931873083114624,1.7116172313690186,0.40024247765541077,351.7623596191406,253.7513885498047,210.55165100097656,0,-337.268798828125,-38.287906646728516,44.5745964050293,-22.51848793029785,7.291014671325684,-127.72747802734375,-371.1130676269531
-3,Pressed,0.9368249773979187,1.7038304805755615,0.3823321759700775,351.39483642578125,253.10220336914062,209.6056671142578,0,-337.47564697265625,-39.09196853637695,41.15269470214844,-21.418275833129883,7.839174747467041,-127.72637176513672,-373.7480773925781
-3,Pressed,0.9422814846038818,1.6960270404815674,0.3645334839820862,351.08953857421875,252.436767578125,208.55624389648438,0,-337.6246032714844,-39.9412956237793,37.588356018066406,-20.218090057373047,8.474520683288574,-127.72530364990234,-376.3082275390625
-3,Pressed,0.9479225873947144,1.688428282737732,0.34727632999420166,350.783203125,251.86643981933594,207.4446563720703,0,-337.72332763671875,-40.84486389160156,34.01163101196289,-18.914688110351562,9.196005821228027,-127.72482299804688,-378.8094177246094
-3,Pressed,0.9530423879623413,1.6815872192382812,0.3322156071662903,350.5203857421875,251.4505615234375,206.4188690185547,0,-337.75885009765625,-41.71696853637695,30.647851943969727,-17.671905517578125,10.047216415405273,-127.7227783203125,-381.0395202636719
-3,Pressed,0.9589680433273315,1.6743603944778442,0.31629809737205505,350.3117980957031,250.9969482421875,205.20860290527344,0,-337.78851318359375,-42.687110900878906,26.96928596496582,-16.263916015625,11.028545379638672,-127.72262573242188,-383.3247985839844
3,Pressed,0.9646779298782349,1.6720272302627563,0.311396062374115,351.4114990234375,249.51995849609375,204.35379028320312,0,-337.8746032714844,-42.534786224365234,25.5873966217041,-16.42401695251465,10.66327953338623,-127.72701263427734,-382.9188232421875
3,Pressed,0.9608795642852783,1.6773481369018555,0.3239036798477173,351.9352722167969,249.38571166992188,205.33067321777344,0,-337.90618896484375,-41.6412239074707,28.20632553100586,-17.7903995513916,10.006194114685059,-127.71881866455078,-380.73052978515625
3,Pressed,0.9484732747077942,1.688903570175171,0.34855592250823975,351.19866943359375,251.43360900878906,207.3852996826172,0,-337.7309875488281,-40.63501739501953,34.17484664916992,-19.189807891845703,8.972028732299805,-127.7251968383789,-378.1957092285156
3,Pressed,0.9401482343673706,1.6985620260238647,0.3694406747817993,350.9447021484375,252.8638458251953,208.79727172851562,0,-337.5639953613281,-39.75442123413086,38.92380905151367,-20.403011322021484,8.042121887207031,-127.73259735107422,-375.7746276855469
3,Pressed,0.9370902180671692,1.7043248414993286,0.3836567997932434,351.73614501953125,252.7793426513672,209.52615356445312,0,-337.46441650390625,-38.919952392578125,41.36825942993164,-21.620866775512695,7.616744518280029,-127.7291259765625,-373.1942138671875
3,Pressed,0.9336912631988525,1.7103867530822754,0.3980201482772827,352.3571472167969,252.8965301513672,210.1964569091797,0,-337.3023376464844,-38.171958923339844,43.919525146484375,-22.63452911376953,7.181879043579102,-127.72830963134766,-370.70843505859375
3,Pressed,0.9283612370491028,1.7188259363174438,0.4178645610809326,352.754638671875,253.68728637695312,211.17413330078125,0,-336.9655456542969,-37.36171340942383,47.46666717529297,-23.702592849731445,6.760075569152832,-127.72740936279297,-367.8288269042969
3,Pressed,0.9231258034706116,1.7278331518173218,0.4388572573661804,353.0782165527344,254.67825317382812,212.0460662841797,0,-336.4627990722656,-36.56843185424805,51.05701446533203,-24.62151336669922,6.343072414398193,-127.72874450683594,-364.92352294921875
3,Pressed,0.9197148084640503,1.734658122062683,0.4553409218788147,353.60162353515625,255.14552307128906,212.5577392578125,0,-335.9649353027344,-35.91529846191406,53.6583366394043,-25.30978012084961,5.991544723510742,-127.73030090332031,-362.3162536621094
3,Pressed,0.9162331223487854,1.7418104410171509,0.4733858108520508,354.29852294921875,255.5339813232422,213.04681396484375,0,-335.2469787597656,-35.2091178894043,56.07534408569336,-25.973388671875,5.814507007598877,-127.72843170166016,-359.379638671875
3,Pressed,0.9122982621192932,1.750368595123291,0.49449557065963745,354.8207702636719,256.31610107421875,213.5308074951172,0,-334.23614501953125,-34.4523811340332,58.814781188964844,-26.4980525970459,5.601994037628174,-127.7282943725586,-356.3075256347656
3,Pressed,0.9089498519897461,1.7582660913467407,0.5143646001815796,355.30889892578125,257.032958984375,213.86245727539062,0,-333.09979248046875,-33.76105880737305,61.21083068847656,-26.83521842956543,5.362470626831055,-127.72994995117188,-353.4212646484375
3,Pressed,0.906006932258606,1.7649832963943481,0.5321083068847656,355.8882751464844,257.4402770996094,214.00086975097656,0,-331.8091735839844,-33.10530471801758,62.865875244140625,-27.004121780395508,5.220601558685303,-127.73065948486328,-350.7044677734375
3,Pressed,0.9026572108268738,1.7725586891174316,0.5529250502586365,356.5638427734375,257.8745422363281,214.0883331298828,0,-330.01385498046875,-32.324256896972656,64.26202392578125,-27.04121208190918,5.234987735748291,-127.72884368896484,-347.61279296875
3,Pressed,0.8994835615158081,1.7800395488739014,0.5738623142242432,357.0950927734375,258.40576171875,214.0913543701172,0,-327.96270751953125,-31.55746841430664,65.4041748046875,-26.88233757019043,5.217773914337158,-127.7288818359375,-344.7083740234375
3,Pressed,0.8966538310050964,1.7862566709518433,0.5922016501426697,357.5594482421875,258.7745056152344,213.98936462402344,0,-325.8846130371094,-30.891395568847656,66.05793762207031,-26.58074188232422,5.1658616065979,-127.73062133789062,-342.17510986328125
3,Pressed,0.8934030532836914,1.7926313877105713,0.6123517751693726,358.09765625,259.0234375,213.78054809570312,0,-323.2278747558594,-30.12737464904785,66.04202270507812,-26.085481643676758,5.293394088745117,-127.7298355102539,-339.4524230957031
3,Pressed,0.8900963068008423,1.7989239692687988,0.6333683729171753,358.56195068359375,259.2832336425781,213.50650024414062,0,-320.15850830078125,-29.358800888061523,65.61931610107422,-25.40178680419922,5.427321910858154,-127.7295913696289,-336.76806640625
3,Pressed,0.8865703344345093,1.8048419952392578,0.654927670955658,359.00018310546875,259.4269104003906,213.13912963867188,0,-316.5849609375,-28.576601028442383,64.41874694824219,-24.51650619506836,5.707790851593018,-127.72870635986328,-334.1388854980469
3,Pressed,0.8830111622810364,1.8100398778915405,0.6758483052253723,359.37359619140625,259.4458312988281,212.70538330078125,0,-312.715087890625,-27.85917854309082,62.601409912109375,-23.483076095581055,6.045193195343018,-127.72877502441406,-331.6833190917969
3,Pressed,0.8788158893585205,1.815095067024231,0.6989611387252808,359.72674560546875,259.2738037109375,212.12939453125,0,-307.8857727050781,-27.093517303466797,59.41057205200195,-22.146759033203125,6.753411293029785,-127.72599029541016,-329.1339416503906
3,Pressed,0.875190019607544,1.8190139532089233,0.7192630767822266,359.928955078125,259.10809326171875,211.60885620117188,0,-303.380615234375,-26.56826400756836,56.38481903076172,-20.8321475982666,7.2412028312683105,-127.72808837890625,-326.9758605957031
3,Pressed,0.870883584022522,1.8224399089813232,0.7410691976547241,0.0779256522655487,258.7037658691406,210.94374084472656,0,-298.19757080078125,-26.187541961669922,52.94209671020508,-19.231515884399414,7.414736270904541,-127.72750091552734,-324.5733947753906
3,Pressed,0.8660359382629395,1.824831247329712,0.7657789587974548,0.1253545582294464,258.15521240234375,210.16690063476562,0,-292.6998596191406,-25.98099708557129,50.50839614868164,-17.763317108154297,6.382899284362793,-127.41836547851562,-321.74444580078125
3,Pressed,0.8624676465988159,1.825018286705017,0.7883266806602478,0.04263916611671448,257.7519836425781,209.8550567626953,0,-289.36895751953125,-25.444955825805664,49.549583435058594,-18.451160430908203,5.637568950653076,-125.76148986816406,-319.5707702636719
3,Pressed,0.8610043525695801,1.8252315521240234,0.8138859272003174,359.85748291015625,258.04473876953125,210.05650329589844,0,-286.6617431640625,-24.792619705200195,49.68326187133789,-19.968585968017578,5.04083776473999,-123.46748352050781,-317.5946044921875
3,Pressed,0.8627023696899414,1.8265674114227295,0.8422544598579407,359.5888366699219,259.21014404296875,210.61441040039062,0,-283.8863525390625,-24.291492462158203,50.77973937988281,-21.245410919189453,4.198036193847656,-121.316650390625,-315.7517395019531
3,Pressed,0.8641604781150818,1.82810378074646,0.8742021322250366,359.3044738769531,260.2049560546875,210.93438720703125,0,-279.2676696777344,-24.238462448120117,50.93095397949219,-21.168466567993164,2.6281707286834717,-119.74539947509766,-313.4312438964844
3,Pressed,0.8629271984100342,1.8273099660873413,0.9000107049942017,359.1064758300781,260.17999267578125,210.79441833496094,0,-274.639404296875,-24.46262550354004,49.95787048339844,-20.67284393310547,0.8766025304794312,-118.54290771484375,-311.23907470703125
3,Pressed,0.8599092960357666,1.8258169889450073,0.9211153984069824,358.9020080566406,259.68157958984375,210.44956970214844,0,-269.98779296875,-25.043943405151367,48.41322326660156,-19.38945960998535,-1.0730088949203491,-117.9673843383789,-309.28179931640625
3,Pressed,0.8571360111236572,1.8246097564697266,0.9457867741584778,358.50732421875,259.2274475097656,209.9842529296875,0,-263.9100646972656,-26.093719482421875,46.17987060546875,-16.791393280029297,-3.643357038497925,-118.02796173095703,-307.2547302246094
3,Pressed,0.8549379110336304,1.8240582942962646,0.9716407656669617,357.8118896484375,258.7666015625,209.35789489746094,0,-256.41961669921875,-27.83078956604004,42.999019622802734,-12.08355712890625,-6.874574661254883,-119.31975555419922,-305.5784606933594
3,Pressed,0.8519355654716492,1.8233965635299683,0.9957154989242554,356.3856201171875,257.58721923828125,208.3306121826172,0,-247.1502685546875,-30.678707122802734,37.468544006347656,-3.909881591796875,-10.770063400268555,-122.5054931640625,-304.7902526855469
-3,Pressed,0.8496441841125488,1.8245302438735962,0.9873649477958679,355.60797119140625,256.30157470703125,207.3710479736328,0,-244.7826385498047,-32.00191879272461,34.544715881347656,1.1046481132507324,-12.169963836669922,-125.8157730102539,-305.68499755859375
-3,Pressed,0.8452762961387634,1.8259607553482056,0.9549251198768616,355.7068786621094,254.840576171875,206.31167602539062,0,-248.53244018554688,-31.415510177612305,34.007083892822266,1.0607701539993286,-10.987649917602539,-127.69265747070312,-307.09100341796875
-3,Pressed,0.8349919319152832,1.818975567817688,0.9181869626045227,357.2274169921875,253.65731811523438,206.74188232421875,0,-261.1983337402344,-27.62008285522461,38.604923248291016,-11.768424034118652,-5.471632480621338,-121.41810607910156,-307.7482604980469
2,Pressed,0.8490145206451416,1.8344573974609375,0.9197846055030823,356.7681884765625,254.88201904296875,207.7200927734375,0,-257.8790283203125,-28.297964096069336,37.375694274902344,-5.240455150604248,-5.756753921508789,-125.80184173583984,-307.8757019042969
2,Pressed,0.8603365421295166,1.8454549312591553,0.9268935918807983,357.0560607910156,255.7867889404297,209.4069366455078,0,-254.766357421875,-29.1558780670166,7.224157333374023,-0.994367241859436,23.69864845275879,-127.64033508300781,-307.31671142578125
-2,Pressed,0.8572982549667358,1.84397292137146,0.9245184659957886,356.60162353515625,255.14950561523438,208.83987426757812,0,-254.5038604736328,-29.388879776000977,3.7863781452178955,-0.6458762884140015,25.81216812133789,-127.75851440429688,-307.5753173828125
-2,Pressed,0.8430130481719971,1.8301610946655273,0.9124441742897034,357.306884765625,253.656494140625,207.70599365234375,0,-256.30694580078125,-27.059206008911133,1.9810293912887573,-9.353069305419922,25.480627059936523,-123.37469482421875,-311.0335693359375
-2,Pressed,0.8410101532936096,1.8115777969360352,0.900242030620575,358.3888244628906,254.1004180908203,209.4399871826172,0,-260.9862060546875,-20.56757164001465,4.169780254364014,-27.252758026123047,25.640911102294922,-113.62632751464844,-317.51690673828125
-2,Pressed,0.870777428150177,1.7972356081008911,0.9373964667320251,358.7705993652344,262.0339050292969,212.5859832763672,0,-263.17266845703125,-15.955862998962402,12.546609878540039,-39.77000427246094,26.02039337158203,-106.28491973876953,-322.47576904296875
-2,Pressed,0.8936659693717957,1.7774473428726196,0.9666484594345093,358.4639587402344,267.21142578125,213.39183044433594,0,-262.3923034667969,-13.098057746887207,15.622208595275879,-48.599998474121094,26.272743225097656,-100.88703918457031,-326.15472412109375
-2,Pressed,0.8880257606506348,1.7520300149917603,0.9578697085380554,358.51873779296875,265.8275146484375,213.41534423828125,0,-264.2804260253906,-11.199193954467773,14.855031967163086,-56.20759963989258,26.915971755981445,-96.11156463623047,-329.4024963378906
-2,Pressed,0.8769334554672241,1.7261302471160889,0.9398428797721863,358.6824951171875,263.10174560546875,213.4464569091797,0,-267.1513366699219,-9.879050254821777,14.059536933898926,-62.87720489501953,27.539466857910156,-91.72661590576172,-332.3580322265625
5,Pressed,0.8750821948051453,1.7164925336837769,0.9364725947380066,358.7699279785156,264.9400634765625,213.54010009765625,0,-268.0362243652344,-10.422574996948242,14.09129810333252,-64.09262084960938,28.215251922607422,-91.54696655273438,-335.3988952636719
5,Pressed,0.8757418394088745,1.7161751985549927,0.9399651885032654,358.702392578125,270.9170227050781,213.43634033203125,0,-267.8966979980469,-12.873814582824707,14.76005744934082,-61.017822265625,28.634353637695312,-94.92772674560547,-339.6257629394531
5,Pressed,0.8792667388916016,1.716644048690796,0.9475547671318054,358.6739501953125,276.75677490234375,213.42855834960938,0,-267.0428161621094,-15.086312294006348,15.586387634277344,-58.034603118896484,28.785091400146484,-98.0140609741211,-342.9120788574219
5,Pressed,0.8773609399795532,1.7159218788146973,0.9467318058013916,358.7149658203125,281.4797668457031,213.35052490234375,0,-266.97283935546875,-17.48910140991211,16.158384323120117,-54.8431396484375,28.739595413208008,-101.22340393066406,-346.121826171875
6,Pressed,0.8756380677223206,1.7156106233596802,0.947735607624054,0.8458540439605713,283.7233581542969,213.71302795410156,0,-266.3101806640625,-20.251426696777344,16.231468200683594,-51.10402297973633,29.145517349243164,-104.85191345214844,-345.85601806640625
6,Pressed,0.8711534738540649,1.7134565114974976,0.9442234039306641,6.081389904022217,282.9573974609375,214.924560546875,0,-266.29718017578125,-23.9014835357666,15.81942367553711,-46.86274719238281,30.89716339111328,-109.35954284667969,-342.05474853515625
6,Pressed,0.8685957193374634,1.7113040685653687,0.9438530206680298,11.476181030273438,282.73065185546875,216.1352081298828,0,-265.97027587890625,-27.640274047851562,15.654439926147461,-42.59035110473633,32.96963882446289,-113.7551498413086,-337.82037353515625
-6,Pressed,0.8687604665756226,1.710845708847046,0.9432966709136963,10.782549858093262,282.76153564453125,215.99559020996094,0,-266.0934753417969,-27.125526428222656,15.622797966003418,-43.341617584228516,32.69407653808594,-113.12199401855469,-338.57281494140625
-6,Pressed,0.8700369596481323,1.7129390239715576,0.9425090551376343,5.635391712188721,282.73577880859375,214.74365234375,0,-266.41778564453125,-23.60801887512207,15.577593803405762,-47.26678466796875,30.753196716308594,-108.96673583984375,-342.5059814453125
-6,Pressed,0.8732498288154602,1.714651346206665,0.9437870979309082,0.6907025575637817,283.19366455078125,213.70632934570312,0,-266.7986145019531,-20.109596252441406,15.969873428344727,-51.477596282958984,29.224109649658203,-104.58631896972656,-346.20068359375
-6,Pressed,0.8761507272720337,1.7155869007110596,0.944811224937439,356.3244323730469,283.626220703125,212.7547607421875,0,-267.24200439453125,-16.977407455444336,16.367170333862305,-55.40167999267578,28.137372970581055,-100.47652435302734,-349.37432861328125
-6,Pressed,0.8785320520401001,1.7167521715164185,0.945417046546936,351.0888366699219,284.06878662109375,211.4000701904297,0,-267.63037109375,-13.314992904663086,16.592029571533203,-59.91157913208008,27.04203224182129,-95.49142456054688,-352.9169616699219
-6,Pressed,0.8809494972229004,1.7172552347183228,0.9460644125938416,346.3448486328125,284.58648681640625,210.172607421875,0,-268.1346435546875,-9.970687866210938,16.922950744628906,-64.22657012939453,26.38373374938965,-90.71553802490234,-356.1166687011719
-6,Pressed,0.884213924407959,1.7178754806518555,0.9479628205299377,341.0365295410156,285.4388427734375,208.6721954345703,0,-268.5714416503906,-6.278532981872559,17.352888107299805,-69.02433776855469,25.917787551879883,-85.24253845214844,-359.5763244628906
-6,Pressed,0.88816899061203,1.7176493406295776,0.9515852928161621,337.0201416015625,286.484619140625,207.54551696777344,0,-269.4407653808594,-3.5043559074401855,18.530515670776367,-72.8577880859375,25.85182762145996,-80.85474395751953,-362.2617492675781
-4,Pressed,0.8946654796600342,1.7173857688903809,0.9584864377975464,333.92694091796875,286.55828857421875,210.28334045410156,0,-271.582763671875,-1.201757788658142,18.83258628845215,-77.50732421875,30.489755630493164,-77.0188217163086,-367.01995849609375
-4,Pressed,0.9021917581558228,1.7169592380523682,0.9679304361343384,332.4951171875,285.72900390625,215.56944274902344,0,-273.511474609375,-0.10227004438638687,18.3134765625,-81.63402557373047,37.441978454589844,-75.0145492553711,-372.2337646484375
-4,Pressed,0.9087687730789185,1.7161962985992432,0.9757757186889648,331.4745788574219,284.71392822265625,220.54983520507812,0,-274.48516845703125,0.5889274477958679,17.273048400878906,-85.37388610839844,43.74674606323242,-73.78709411621094,-377.11529541015625
-4,Pressed,0.9133021831512451,1.7151172161102295,0.9808160066604614,330.4360656738281,282.6898498535156,226.66067504882812,0,-275.72052001953125,1.0320765972137451,15.85799503326416,-89.82783508300781,51.165679931640625,-72.91790008544922,-383.1678161621094
4,Pressed,0.9129109382629395,1.7156974077224731,0.9806795120239258,330.5598449707031,283.38262939453125,225.0929718017578,0,-275.48382568359375,1.0017564296722412,16.407432556152344,-88.72488403320312,49.34305953979492,-73.01264190673828,-381.7005615234375
4,Pressed,0.9094773530960083,1.7166017293930054,0.9768280982971191,331.47637939453125,285.245849609375,219.7570343017578,0,-274.6135559082031,0.5689846873283386,18.01680564880371,-84.85187530517578,42.832096099853516,-73.86695861816406,-376.47320556640625
4,Pressed,0.9050260186195374,1.7173863649368286,0.9717130064964294,332.6178894042969,286.80859375,214.40460205078125,0,-273.3687744140625,-0.18028493225574493,19.55193519592285,-80.87068939208984,35.995574951171875,-75.25428771972656,-371.184326171875
4,Pressed,0.9008644819259644,1.718048095703125,0.9671546220779419,333.92822265625,288.27294921875,209.41481018066406,0,-271.6121826171875,-1.2551887035369873,20.88409996032715,-76.97015380859375,29.37047004699707,-77.20819854736328,-366.3097839355469
4,Pressed,0.8971977233886719,1.7185406684875488,0.9634811878204346,335.5350646972656,289.8451232910156,204.15940856933594,0,-268.9315490722656,-2.7093560695648193,22.096895217895508,-72.77552032470703,22.201112747192383,-79.92240142822266,-361.3065490722656
4,Pressed,0.8939748406410217,1.7187697887420654,0.9610320925712585,337.4598388671875,291.48553466796875,198.5279083251953,0,-265.1792297363281,-4.609403133392334,23.20125389099121,-68.2492904663086,14.388934135437012,-83.53837585449219,-356.2132568359375
4,Pressed,0.8914681077003479,1.7191452980041504,0.9599348902702332,339.3963623046875,292.9234619140625,193.4440155029297,0,-261.4879150390625,-6.721277236938477,24.47124671936035,-63.96513366699219,7.231924533843994,-87.58698272705078,-351.968017578125
-3,Pressed,0.8950222134590149,1.720267415046692,0.9503201842308044,339.99169921875,294.38031005859375,191.64793395996094,0,-261.2541809082031,-6.409640789031982,23.91762924194336,-63.49606704711914,6.346677780151367,-89.38664245605469,-353.2733154296875
-3,Pressed,0.898283839225769,1.7209724187850952,0.934008002281189,339.9762878417969,295.2984619140625,191.63552856445312,0,-263.59307861328125,-5.150834560394287,22.82779884338379,-64.69022369384766,8.425642013549805,-89.95355987548828,-357.041259765625
1,Pressed,0.9100908041000366,1.7210214138031006,0.9160512685775757,340.0190124511719,294.27227783203125,191.6343536376953,0,-266.7842712402344,-2.4913744926452637,22.651639938354492,-67.42316436767578,10.191811561584473,-90.06079864501953,-358.8177185058594
1,Pressed,0.928375244140625,1.7211252450942993,0.9082516431808472,340.0346984863281,293.00677490234375,191.60757446289062,0,-269.5395812988281,0.5087119936943054,23.88302993774414,-70.28446197509766,11.341693878173828,-89.95012664794922,-358.65777587890625
1,Pressed,0.9572951793670654,1.7218648195266724,0.9108169078826904,339.9201965332031,293.36663818359375,191.3597869873047,0,-269.84796142578125,4.2323079109191895,24.38355255126953,-73.36090087890625,12.613516807556152,-90.08109283447266,-358.2995300292969
1,Pressed,0.9893103241920471,1.722507357597351,0.9206691384315491,339.8197937011719,295.3653259277344,191.25865173339844,0,-266.61590576171875,7.529317855834961,23.21564292907715,-75.87090301513672,13.666747093200684,-90.44277954101562,-357.8233642578125
1,Pressed,1.014841914176941,1.7227336168289185,0.9204341173171997,339.78857421875,295.5554504394531,191.2672882080078,0,-265.34027099609375,10.686515808105469,22.33035659790039,-78.11624145507812,14.675715446472168,-91.0185317993164,-357.2414855957031
1,Pressed,1.0339164733886719,1.7229975461959839,0.9132003784179688,339.76177978515625,293.9100341796875,191.28160095214844,0,-266.61444091796875,13.754722595214844,22.21904182434082,-80.01262664794922,15.728338241577148,-91.81119537353516,-356.55322265625
1,Pressed,1.0565894842147827,1.7231848239898682,0.9125975370407104,339.71392822265625,293.7974548339844,191.29383850097656,0,-266.184814453125,16.566003799438477,22.04762077331543,-81.56581115722656,16.627702713012695,-92.68599700927734,-355.77764892578125
1,Pressed,1.0828670263290405,1.723291039466858,0.9125950932502747,339.6986999511719,293.8289794921875,191.31915283203125,0,-265.60321044921875,19.660409927368164,22.031347274780273,-83.02926635742188,17.63715362548828,-93.88545989990234,-354.7366943359375
6,Pressed,1.0931196212768555,1.7236796617507935,0.9128760099411011,341.81256103515625,293.645751953125,192.35995483398438,0,-265.2031555175781,19.3089599609375,21.855859756469727,-82.30923461914062,18.56869888305664,-96.18004608154297,-353.73138427734375
6,Pressed,1.091393232345581,1.7236706018447876,0.9130244851112366,347.55517578125,292.98651123046875,194.88558959960938,0,-265.3512268066406,15.199212074279785,21.65781593322754,-79.3430404663086,20.067750930786133,-100.6530990600586,-352.1507873535156
6,Pressed,1.0907166004180908,1.7238582372665405,0.9139101505279541,351.7298889160156,292.8861083984375,196.6811065673828,0,-265.3248596191406,12.241402626037598,21.59339141845703,-77.31522369384766,21.293437957763672,-103.75755310058594,-350.9210205078125
6,Pressed,1.0903128385543823,1.7241733074188232,0.9150893688201904,355.612060546875,292.99066162109375,198.279296875,0,-265.4158630371094,9.520376205444336,21.766338348388672,-75.50789642333984,22.495586395263672,-106.548828125,-349.68011474609375
6,Pressed,1.0896849632263184,1.72367262840271,0.9159532785415649,1.0720555782318115,293.2148742675781,200.50840759277344,0,-265.719482421875,5.888600826263428,22.044832229614258,-73.493896484375,24.313871383666992,-110.13224029541016,-347.94989013671875
5,Pressed,1.0857700109481812,1.723739504814148,0.9133129119873047,2.7220559120178223,294.7132263183594,201.15452575683594,0,-267.3009948730469,4.1141839027404785,23.14860725402832,-72.29402923583984,24.696508407592773,-111.85543060302734,-349.19769287109375
5,Pressed,1.0807039737701416,1.7238810062408447,0.9095498323440552,2.730778694152832,299.1372985839844,201.2125244140625,0,-267.7706298828125,2.4803466796875,23.796571731567383,-70.8874740600586,24.118276596069336,-113.38245391845703,-353.35009765625
5,Pressed,1.0838901996612549,1.7239949703216553,0.9133062362670898,2.7133607864379883,305.2677001953125,201.29595947265625,0,-265.79803466796875,1.0761533975601196,24.288925170898438,-69.64742279052734,23.529449462890625,-114.72789001464844,-356.9698486328125
5,Pressed,1.0904934406280518,1.7242108583450317,0.9198580980300903,2.6673779487609863,312.354248046875,201.36216735839844,0,-262.6337585449219,-0.2944052517414093,24.628957748413086,-68.3685531616211,22.836210250854492,-116.09590911865234,-360.54827880859375
5,Pressed,1.0967187881469727,1.7244763374328613,0.9257676601409912,2.588519811630249,319.5050964355469,201.38079833984375,0,-259.3139343261719,-1.6759495735168457,24.825969696044922,-67.00560760498047,21.992685317993164,-117.52326965332031,-364.2405090332031
-5,Pressed,1.1054508686065674,1.72476327419281,0.9320639967918396,2.5597660541534424,320.0946350097656,201.31788635253906,0,-257.277587890625,-1.1807315349578857,24.506107330322266,-67.39958190917969,22.25739860534668,-117.10438537597656,-363.0856628417969
-5,Pressed,1.1099263429641724,1.7247586250305176,0.9345651268959045,2.5825252532958984,316.6825256347656,201.27459716796875,0,-257.3706970214844,0.03151740878820419,24.250324249267578,-68.52867889404297,22.9429988861084,-115.92070007324219,-359.9812316894531
-5,Pressed,1.105804204940796,1.7244139909744263,0.9309693574905396,2.6428699493408203,310.11126708984375,201.26072692871094,0,-259.8365783691406,1.472021222114563,23.93004608154297,-69.90738677978516,23.69388198852539,-114.46214294433594,-356.19830322265625
-5,Pressed,1.095119595527649,1.7240099906921387,0.9221801161766052,2.710958242416382,302.11981201171875,201.2255401611328,0,-263.8102111816406,2.8093719482421875,23.585805892944336,-71.154052734375,24.271347045898438,-113.10167694091797,-352.5805969238281
-5,Pressed,1.0860687494277954,1.7237343788146973,0.9137672185897827,2.744863271713257,294.36383056640625,201.1710205078125,0,-267.3807678222656,4.206498146057129,23.230009078979492,-72.37635040283203,24.754497528076172,-111.74050903320312,-348.8447265625
-5,Pressed,1.0870814323425293,1.723672866821289,0.9139636158943176,2.7267861366271973,289.5806884765625,201.10321044921875,0,-267.7522277832031,5.603723526000977,22.683027267456055,-73.5123062133789,25.09480094909668,-110.43367004394531,-345.11151123046875
-5,Pressed,1.0931799411773682,1.7236666679382324,0.9184990525245667,2.6933047771453857,286.1584167480469,201.07371520996094,0,-266.40264892578125,7.031609535217285,21.985931396484375,-74.6396255493164,25.329837799072266,-109.10303497314453,-341.2040710449219
-5,Pressed,1.0946778059005737,1.7235674858093262,0.9190860390663147,2.674187183380127,281.356201171875,201.052978515625,0,-266.5439147949219,8.450971603393555,21.60019302368164,-75.726318359375,25.45992088317871,-107.7636489868164,-337.1269836425781
-5,Pressed,1.0919469594955444,1.723501443862915,0.9160656332969666,2.6670923233032227,275.4129638671875,201.0224609375,0,-268.2571105957031,9.832758903503418,21.649564743041992,-76.70641326904297,25.516796112060547,-106.51404571533203,-333.039794921875
-5,Pressed,1.0915780067443848,1.7234227657318115,0.9150890111923218,2.6302084922790527,270.60699462890625,201.00038146972656,0,-269.1472473144531,11.091730117797852,21.734867095947266,-77.55767822265625,25.46231460571289,-105.38623046875,-329.2417297363281
-5,Pressed,1.092321515083313,1.7233242988586426,0.9150204658508301,2.6303887367248535,265.3296813964844,201.0042724609375,0,-269.9957580566406,12.523991584777832,22.033885955810547,-78.47337341308594,25.35169219970703,-104.14453125,-324.73284912109375
-5,Pressed,1.0923988819122314,1.7233561277389526,0.9145128130912781,2.6194729804992676,260.51739501953125,200.98568725585938,0,-271.02490234375,13.750930786132812,22.50486183166504,-79.16031646728516,25.160127639770508,-103.13577270507812,-320.6681823730469
-5,Pressed,1.0925413370132446,1.723291277885437,0.9140766859054565,2.615687608718872,254.9595184326172,200.9575653076172,0,-272.4167175292969,15.140246391296387,23.30027198791504,-79.87168884277344,24.88540267944336,-102.05615997314453,-315.9142150878906
-5,Pressed,1.0930768251419067,1.7233474254608154,0.9140153527259827,2.582056999206543,250.38833618164062,200.95909118652344,0,-273.5007629394531,16.304155349731445,24.036283493041992,-80.39218139648438,24.590290069580078,-101.21417236328125,-311.8600158691406
-5,Pressed,1.0934019088745117,1.7233707904815674,0.913824200630188,2.572711706161499,245.25750732421875,200.96151733398438,0,-275.01153564453125,17.55538558959961,25.054370880126953,-80.87435913085938,24.264507293701172,-100.40345764160156,-307.371826171875
-5,Pressed,1.0936781167984009,1.7233740091323853,0.9137630462646484,2.5563418865203857,240.21701049804688,200.9445343017578,0,-276.6042175292969,18.73501968383789,26.21180534362793,-81.23482513427734,23.882238388061523,-99.71675109863281,-302.9027404785156
5,Pressed,1.0905264616012573,1.7233394384384155,0.9105454683303833,2.6768925189971924,238.9442901611328,200.95556640625,0,-278.364013671875,18.87725830078125,26.456968307495117,-81.27557373046875,24.1909236907959,-99.8586196899414,-303.0043029785156
-5,Pressed,1.0938054323196411,1.7233061790466309,0.9137051105499268,2.5658693313598633,238.85556030273438,200.95797729492188,0,-277.1462097167969,19.078426361083984,26.5457820892334,-81.34909057617188,23.834529876708984,-99.55661010742188,-301.76397705078125
-5,Pressed,1.093713641166687,1.7234041690826416,0.9134812355041504,2.550779104232788,234.66680908203125,200.91741943359375,0,-278.732421875,19.99294090270996,27.658878326416016,-81.50053405761719,23.509864807128906,-99.16041564941406,-298.12054443359375
-5,Pressed,1.0941916704177856,1.7234344482421875,0.9136878252029419,2.528825044631958,229.79342651367188,200.92897033691406,0,-280.5353698730469,21.113765716552734,28.98769187927246,-81.66670227050781,23.143661499023438,-98.7414321899414,-293.78778076171875
-5,Pressed,1.0946993827819824,1.7234444618225098,0.9140089154243469,2.493452548980713,225.00503540039062,200.9276580810547,0,-282.40570068359375,22.185102462768555,30.393245697021484,-81.7260513305664,22.758831024169922,-98.45763397216797,-289.51104736328125
-5,Pressed,1.094987392425537,1.7234470844268799,0.9141561388969421,2.467684268951416,219.9762725830078,200.93267822265625,0,-284.59515380859375,23.28620719909668,31.908666610717773,-81.6944351196289,22.41201400756836,-98.31829833984375,-285.1567687988281
-5,Pressed,1.095066785812378,1.723536491394043,0.9142555594444275,2.4624183177948,214.42677307128906,200.92176818847656,0,-287.25982666015625,24.455781936645508,33.636959075927734,-81.50887298583984,22.10164451599121,-98.3778305053711,-280.4775085449219
-5,Pressed,1.0956521034240723,1.723596215248108,0.9147849082946777,2.410282850265503,209.86416625976562,200.94696044921875,0,-289.35906982421875,25.448375701904297,35.09025192260742,-81.2809066772461,21.797218322753906,-98.5152587890625,-276.50909423828125
-5,Pressed,1.0957125425338745,1.7236270904541016,0.9149928689002991,2.4291374683380127,204.35043334960938,200.96119689941406,0,-292.25848388671875,26.61744499206543,36.776458740234375,-80.91593170166016,21.62510108947754,-98.88569641113281,-272.04510498046875
2,Pressed,1.0953173637390137,1.7436537742614746,0.9151559472084045,2.430551767349243,202.2268524169922,200.97291564941406,0,-294.2875671386719,25.44808006286621,38.259456634521484,-75.8990478515625,21.10043716430664,-102.20115661621094,-269.20697021484375
2,Pressed,1.0952575206756592,1.7643711566925049,0.915425717830658,2.417893409729004,202.2450714111328,200.91937255859375,0,-295.3361511230469,23.547218322753906,39.67412567138672,-70.52923583984375,20.5047607421875,-105.56961822509766,-267.719970703125
2,Pressed,1.0951330661773682,1.7889907360076904,0.9157329201698303,2.4099538326263428,202.2712860107422,200.89736938476562,0,-297.0156555175781,21.022342681884766,42.231300354003906,-63.667110443115234,19.670780181884766,-109.69407653808594,-265.6513977050781
2,Pressed,1.0950337648391724,1.8119513988494873,0.9165273308753967,2.331782817840576,202.337890625,200.7891387939453,0,-299.4352722167969,18.204065322875977,46.46564483642578,-56.45126724243164,18.43146324157715,-113.8617172241211,-263.1111755371094
2,Pressed,1.0950511693954468,1.83644700050354,0.9177886843681335,2.1952335834503174,202.43458557128906,200.6587677001953,0,-304.1729736328125,14.67572021484375,54.634986877441406,-47.603965759277344,16.272096633911133,-118.8154296875,-259.6191101074219
2,Pressed,1.0960150957107544,1.8622145652770996,0.9208613634109497,1.9090569019317627,202.8209686279297,200.49118041992188,0,-317.89935302734375,10.618430137634277,74.36750030517578,-36.03282165527344,12.484150886535645,-125.30088806152344,-255.23556518554688
2,Pressed,1.1000159978866577,1.8757855892181396,0.9225842952728271,2.3478946685791016,204.05726623535156,201.4987030029297,0,-322.8150939941406,7.7502241134643555,88.99959564208984,-30.83462905883789,6.231605052947998,-127.5650405883789,-251.21559143066406
-3,Pressed,1.1052242517471313,1.8801531791687012,0.9087536931037903,2.5369277000427246,205.76829528808594,202.0830841064453,0,-308.0194091796875,6.587357044219971,77.07294464111328,-31.576736450195312,4.196107387542725,-127.74209594726562,-251.832763671875
-3,Pressed,1.101186752319336,1.8803942203521729,0.8872979879379272,2.549281120300293,205.0996551513672,202.03402709960938,0,-295.1795959472656,6.802410125732422,60.325889587402344,-33.33882141113281,5.2035980224609375,-127.73870849609375,-254.478759765625
-3,Pressed,1.0958845615386963,1.8801450729370117,0.8570903539657593,2.561138153076172,203.72874450683594,202.0350341796875,0,-278.48468017578125,7.481149196624756,39.51459503173828,-35.70014572143555,5.203094959259033,-127.73606872558594,-257.5103454589844
-3,Pressed,1.0930829048156738,1.8795828819274902,0.8317378163337708,2.5331203937530518,202.90115356445312,202.12777709960938,0,-267.87353515625,8.530179977416992,25.219301223754883,-37.569068908691406,5.201869964599609,-127.73297119140625,-260.5916442871094
-3,Pressed,1.0918450355529785,1.8784699440002441,0.80455482006073,2.4841837882995605,202.72268676757812,202.2900390625,0,-259.22015380859375,9.901894569396973,12.650629997253418,-39.44345474243164,5.180710792541504,-127.73739624023438,-264.57293701171875
-3,Pressed,1.0907517671585083,1.8770968914031982,0.7807272672653198,2.447401762008667,202.49317932128906,202.4617462158203,0,-254.20584106445312,11.061434745788574,3.9661803245544434,-40.81510543823242,5.104755878448486,-127.73851013183594,-268.2423095703125
-3,Pressed,1.0897276401519775,1.875105381011963,0.7547230124473572,2.366333484649658,202.26490783691406,202.6505126953125,0,-250.4842987060547,12.20634651184082,-4.007981300354004,-42.060302734375,4.99953031539917,-127.74099731445312,-272.5162048339844
-3,Pressed,1.0889395475387573,1.8730214834213257,0.7312270998954773,2.2481515407562256,202.22996520996094,202.85122680664062,0,-247.86013793945312,13.10110092163086,-10.576136589050293,-42.939453125,4.877200603485107,-127.7421646118164,-276.6649475097656
-3,Pressed,1.0880708694458008,1.8703498840332031,0.7047415971755981,2.0666558742523193,202.07943725585938,203.06419372558594,0,-245.63720703125,13.887247085571289,-17.44476318359375,-43.63609313964844,4.706304550170898,-127.74363708496094,-281.4529113769531
-3,Pressed,1.0873422622680664,1.8678932189941406,0.682364284992218,1.898493766784668,201.97044372558594,203.24697875976562,0,-244.03140258789062,14.349905014038086,-23.19173812866211,-43.973777770996094,4.6428656578063965,-127.74384307861328,-285.6733703613281
-3,Pressed,1.086777687072754,1.8648505210876465,0.656460702419281,1.6632702350616455,201.66094970703125,203.43017578125,0,-242.27508544921875,14.684775352478027,-29.829843521118164,-44.093849182128906,4.532566070556641,-127.7443618774414,-290.5062561035156
-3,Pressed,1.0863549709320068,1.8617868423461914,0.6319825053215027,1.395243763923645,201.49154663085938,203.60696411132812,0,-240.09178161621094,14.866915702819824,-36.50278091430664,-43.931331634521484,4.384044170379639,-127.74388122558594,-295.1354675292969
-3,Pressed,1.086270809173584,1.858385682106018,0.6062932014465332,1.0918470621109009,201.20321655273438,203.7726593017578,0,-237.39060974121094,14.94477367401123,-43.88827133178711,-43.487300872802734,4.224828243255615,-127.74320220947266,-299.8877258300781
-3,Pressed,1.086014747619629,1.8553264141082764,0.584651529788971,0.7854664921760559,201.18051147460938,203.9253387451172,0,-234.2227020263672,15.008851051330566,-50.71644973754883,-42.86416244506836,4.025950908660889,-127.74185943603516,-303.9183349609375
-3,Pressed,1.0865586996078491,1.8516772985458374,0.5601634979248047,0.46487292647361755,200.80950927734375,204.0662841796875,0,-230.41610717773438,15.09929084777832,-58.67604446411133,-41.96164321899414,3.8161048889160156,-127.74068450927734,-308.15472412109375
-3,Pressed,1.0874478816986084,1.84769868850708,0.5357499122619629,0.13842672109603882,200.42965698242188,204.1973419189453,0,-225.9466552734375,15.31196117401123,-67.05036163330078,-40.829833984375,3.5700435638427734,-127.73922729492188,-312.20208740234375
1,Pressed,1.1071112155914307,1.8428716659545898,0.5232206583023071,359.9127197265625,199.75811767578125,204.3742218017578,0,-231.1045684814453,16.414241790771484,-65.64939880371094,-42.26974105834961,3.5885486602783203,-127.7392807006836,-315.2337646484375
1,Pressed,1.121813416481018,1.840498447418213,0.5247732400894165,359.5765075683594,200.16921997070312,204.47438049316406,0,-236.60015869140625,17.354461669921875,-61.21082305908203,-43.98942565917969,3.5755386352539062,-127.7386245727539,-316.57794189453125
1,Pressed,1.1439769268035889,1.8362420797348022,0.5252939462661743,359.1609191894531,200.0867156982422,204.6065673828125,0,-243.83419799804688,18.78877067565918,-56.35234451293945,-46.34524154663086,3.6014506816864014,-127.74187469482422,-318.654052734375
-1,Pressed,1.1386998891830444,1.8375420570373535,0.5250000953674316,359.2928161621094,199.8692626953125,204.5659942626953,0,-242.33670043945312,18.339191436767578,-57.50199890136719,-45.730926513671875,3.6926889419555664,-127.74490356445312,-318.06658935546875
-1,Pressed,1.1187622547149658,1.8412412405014038,0.5248944759368896,359.58856201171875,200.07936096191406,204.42385864257812,0,-235.6949462890625,17.0947265625,-61.91451644897461,-43.63104248046875,3.6015818119049072,-127.74237823486328,-316.301513671875
-1,Pressed,1.0979045629501343,1.8442974090576172,0.5237641930580139,359.93072509765625,200.0091552734375,204.29605102539062,0,-227.6537322998047,15.922450065612793,-68.12964630126953,-41.29420471191406,3.5219969749450684,-127.74018096923828,-314.6678161621094
-1,Pressed,1.076192855834961,1.8465651273727417,0.5221647024154663,0.2479742169380188,199.8588104248047,204.17491149902344,0,-218.03208923339844,15.012163162231445,-76.05339050292969,-38.768394470214844,3.343820571899414,-127.73765563964844,-313.183837890625
-1,Pressed,1.0536930561065674,1.8477898836135864,0.5196377038955688,0.5702127814292908,199.53216552734375,204.05950927734375,0,-206.7741241455078,14.513501167297363,-85.81986999511719,-36.017032623291016,3.0728073120117188,-127.73432159423828,-311.8334655761719
-1,Pressed,1.031862497329712,1.8478362560272217,0.5170983076095581,0.8173683285713196,199.13571166992188,203.87954711914062,0,-195.219482421875,14.495616912841797,-96.0626449584961,-33.274784088134766,2.6986873149871826,-127.73262786865234,-310.68511962890625
-1,Pressed,1.0093821287155151,1.846827507019043,0.5141934156417847,0.9910202026367188,198.5986785888672,203.65573120117188,0,-183.31033325195312,14.987425804138184,-106.8344497680664,-30.321630477905273,2.2761642932891846,-127.7295150756836,-309.64349365234375
-1,Pressed,0.9878284931182861,1.8450043201446533,0.5113530158996582,1.0438820123672485,197.99221801757812,203.41842651367188,0,-172.65017700195312,15.960528373718262,-116.34136962890625,-27.363391876220703,1.6845823526382446,-127.72624969482422,-308.6668701171875
-1,Pressed,0.9658440351486206,1.8424465656280518,0.5090440511703491,0.9387311935424805,197.36207580566406,203.1479034423828,0,-162.66729736328125,17.240734100341797,-125.7303695678711,-24.24558448791504,1.4622650146484375,-127.72350311279297,-307.9365234375
-3,Pressed,0.9576989412307739,1.838590383529663,0.4987844228744507,0.7052195072174072,197.07888793945312,203.01815795898438,0,-159.00982666015625,18.466001510620117,-130.59225463867188,-22.530498504638672,1.586691975593567,-127.71699523925781,-309.02850341796875
-3,Pressed,0.9600112438201904,1.831875205039978,0.4714445471763611,0.0708000510931015,196.946044921875,203.131103515625,0,-159.48208618164062,20.42892074584961,-132.75596618652344,-20.887636184692383,1.0479156970977783,-127.72589111328125,-312.52093505859375
-3,Pressed,0.965216875076294,1.825500726699829,0.4480280876159668,359.7500305175781,195.499267578125,202.79931640625,0,-159.85755920410156,21.757184982299805,-135.91456604003906,-19.753280639648438,1.2018630504608154,-127.71965026855469,-314.7447204589844
-3,Pressed,0.9699220657348633,1.8187839984893799,0.42505067586898804,359.2900390625,194.4899444580078,202.5202178955078,0,-160.06614685058594,23.281997680664062,-138.85037231445312,-18.345304489135742,1.2449283599853516,-127.71806335449219,-317.1728820800781
-3,Pressed,0.9731944799423218,1.8119179010391235,0.4032626748085022,358.6936340332031,194.12945556640625,202.3982696533203,0,-160.17617797851562,25.035123825073242,-141.0141143798828,-16.632272720336914,0.9777910113334656,-127.7221450805664,-319.74755859375
-3,Pressed,0.9774550199508667,1.8050283193588257,0.3832581639289856,358.1907043457031,193.4398651123047,202.0922393798828,0,-160.28758239746094,26.6013126373291,-143.3556365966797,-15.092544555664062,0.9000642895698547,-127.72262573242188,-321.90069580078125
-3,Pressed,0.9830585718154907,1.7973637580871582,0.3618093729019165,357.58837890625,192.5006561279297,201.61770629882812,0,-160.43084716796875,28.290800094604492,-145.92141723632812,-13.355180740356445,0.7705167531967163,-127.72508239746094,-324.0846862792969
-2,Pressed,0.9876877665519714,1.7892429828643799,0.34714946150779724,357.51031494140625,191.64112854003906,200.72201538085938,0,-160.40574645996094,29.47164535522461,-148.07211303710938,-12.593010902404785,0.6112303733825684,-127.72850036621094,-325.4599609375
-2,Pressed,0.9837712049484253,1.7749320268630981,0.3405897617340088,358.7943420410156,192.51229858398438,199.58840942382812,0,-159.6432647705078,30.85177993774414,-149.18258666992188,-13.08629322052002,0.483474463224411,-127.72836303710938,-326.5244445800781
-2,Pressed,0.9822306036949158,1.7666479349136353,0.33560359477996826,359.42987060546875,192.89373779296875,198.97047424316406,0,-159.25762939453125,31.729286193847656,-150.0417938232422,-13.175429344177246,0.48720961809158325,-127.72653198242188,-327.2605895996094
-2,Pressed,0.9791966676712036,1.7542812824249268,0.3291699290275574,0.4438979923725128,193.47933959960938,198.1019287109375,0,-158.63539123535156,33.0354118347168,-151.1044158935547,-13.312199592590332,0.40802866220474243,-127.72582244873047,-328.18939208984375
-2,Pressed,0.9762148857116699,1.7420445680618286,0.32253599166870117,1.3931812047958374,194.0032958984375,197.3126678466797,0,-158.04583740234375,34.391700744628906,-152.109619140625,-13.2904634475708,0.29864832758903503,-127.72509765625,-329.0979309082031
-2,Pressed,0.9731404781341553,1.729398250579834,0.3155835270881653,2.32999849319458,194.4760284423828,196.55026245117188,0,-157.52874755859375,35.84516906738281,-152.6413116455078,-13.151091575622559,-0.20273485779762268,-127.72457885742188,-329.9277648925781
-2,Pressed,0.972836971282959,1.7132477760314941,0.3086633086204529,3.1302576065063477,194.74867248535156,196.2965850830078,0,-159.30682373046875,35.193599700927734,-152.42044067382812,-18.62326431274414,0.35895243287086487,-124.1747817993164,-330.98297119140625
-2,Pressed,0.9702880382537842,1.6932117938995361,0.3102438449859619,3.5262858867645264,196.1888427734375,197.79151916503906,0,-163.59642028808594,32.18838882446289,-150.0365753173828,-30.07974624633789,2.3264737129211426,-116.56327056884766,-332.74212646484375
-2,Pressed,0.9574669599533081,1.6760839223861694,0.32401347160339355,3.3178577423095703,199.34506225585938,199.68002319335938,0,-166.58743286132812,29.727155685424805,-146.18894958496094,-39.52743911743164,3.4924867153167725,-109.96390533447266,-334.55499267578125
3,Pressed,0.9562668204307556,1.6661885976791382,0.341980904340744,3.256218433380127,199.74488830566406,200.0983428955078,0,-168.78598022460938,26.315946578979492,-145.24490356445312,-47.59972381591797,5.27642297744751,-105.20154571533203,-335.11175537109375
3,Pressed,0.95726478099823,1.6668400764465332,0.36430254578590393,3.228322744369507,199.55105590820312,200.33848571777344,0,-170.15475463867188,22.77060890197754,-144.8497772216797,-53.09861373901367,7.241458892822266,-102.72001647949219,-334.7954406738281
3,Pressed,0.9544122219085693,1.6686527729034424,0.3908478319644928,3.1130411624908447,200.05548095703125,200.54769897460938,0,-170.84471130371094,19.33009910583496,-144.10040283203125,-57.844757080078125,9.034165382385254,-100.76360321044922,-334.4105224609375
3,Pressed,0.9542048573493958,1.6696724891662598,0.4168022572994232,3.0594213008880615,200.0469512939453,200.70785522460938,0,-171.62496948242188,15.724839210510254,-143.7939453125,-62.47987365722656,11.102568626403809,-98.987060546875,-334.0999755859375
-2,Pressed,0.9516597390174866,1.658735990524292,0.4305533468723297,2.923612117767334,200.56988525390625,200.8228302001953,0,-172.15573120117188,13.77959156036377,-143.4899139404297,-67.00588989257812,12.197917938232422,-96.13026428222656,-334.9557800292969
3,Pressed,0.9563695192337036,1.6457165479660034,0.4372059404850006,2.9648826122283936,199.57183837890625,200.79322814941406,0,-173.3695526123047,11.859015464782715,-143.96315002441406,-71.60813903808594,13.380484580993652,-93.28302001953125,-335.860107421875
3,Pressed,0.9548801183700562,1.6467641592025757,0.4632391929626465,2.8562333583831787,199.78321838378906,200.8979949951172,0,-173.3141326904297,8.568187713623047,-143.84805297851562,-75.04676818847656,15.295950889587402,-92.28130340576172,-335.5877380371094
3,Pressed,0.9554405212402344,1.6476335525512695,0.4864512085914612,2.780289888381958,199.4639129638672,200.99591064453125,0,-173.35183715820312,5.361568927764893,-144.0106658935547,-78.13307189941406,17.20464515686035,-91.52619934082031,-335.2209167480469
3,Pressed,0.9561455249786377,1.6485623121261597,0.5095586180686951,2.7296814918518066,199.05410766601562,201.12643432617188,0,-173.38050842285156,2.1788926124572754,-144.11451721191406,-80.95022583007812,19.120582580566406,-90.99456024169922,-334.7322082519531
3,Pressed,0.952405571937561,1.649074912071228,0.5399474501609802,2.7643399238586426,199.98348999023438,201.28053283691406,0,-173.39266967773438,-0.9497110247612,-142.77516174316406,-83.5548324584961,21.066402435302734,-90.65597534179688,-334.14202880859375
3,Pressed,0.945838212966919,1.6485750675201416,0.5761992335319519,2.851513147354126,202.15579223632812,201.2259521484375,0,-172.93394470214844,-3.8780601024627686,-140.4871826171875,-85.77376556396484,22.872879028320312,-90.50331115722656,-333.4057922363281
-2,Pressed,0.9405360221862793,1.635939598083496,0.6017260551452637,2.9722185134887695,204.51324462890625,201.21922302246094,0,-170.71775817871094,-5.47355842590332,-140.02908325195312,-89.16419219970703,23.935596466064453,-88.47093963623047,-333.8921203613281
1,Pressed,0.9563915729522705,1.6230978965759277,0.5923951268196106,2.879985809326172,202.76976013183594,201.0922393798828,0,-173.46031188964844,-7.270622730255127,-141.8054656982422,-92.76091766357422,25.0784854888916,-87.53551483154297,-337.4022216796875
1,Pressed,0.9801734685897827,1.6232085227966309,0.5944916009902954,2.868680238723755,203.25802612304688,201.11903381347656,0,-174.04522705078125,-9.961044311523438,-146.34161376953125,-94.8335952758789,26.545869827270508,-90.01142120361328,-342.5299072265625
-2,Pressed,0.994571328163147,1.6118699312210083,0.591949462890625,2.6852571964263916,202.769775390625,201.18003845214844,0,-174.47393798828125,-11.3911714553833,-149.08700561523438,-98.07041931152344,27.027463912963867,-89.26715087890625,-345.966064453125
-3,Pressed,1.0014629364013672,1.6084845066070557,0.5916608572006226,2.2093214988708496,205.94996643066406,202.01243591308594,0,-166.0823974609375,-10.519308090209961,-157.00306701660156,-99.01039123535156,26.11688995361328,-88.67473602294922,-349.0277099609375
-3,Pressed,1.0012125968933105,1.606726884841919,0.5907428860664368,2.3312442302703857,212.68540954589844,200.78457641601562,0,-147.82945251464844,-7.116940498352051,-170.04315185546875,-96.80735778808594,22.103803634643555,-89.0293960571289,-350.3424987792969
-3,Pressed,1.0009958744049072,1.6044576168060303,0.5899370908737183,2.5228726863861084,215.09161376953125,199.5820770263672,0,-130.4256134033203,-5.652344226837158,-183.99295043945312,-95.61738586425781,19.3106746673584,-88.85407257080078,-349.25079345703125
-3,Pressed,0.9951143264770508,1.6049562692642212,0.5863133668899536,3.439192056655884,215.6522216796875,198.12258911132812,0,-125.31632232666016,-3.7309627532958984,-187.400390625,-93.39293670654297,17.949790954589844,-89.89388275146484,-347.77471923828125
-3,Pressed,0.9287136793136597,1.5985503196716309,0.6042291522026062,3.1188716888427734,225.99656677246094,200.13697814941406,0,-146.79588317871094,3.1313579082489014,-156.4454803466797,-88.61226654052734,19.113428115844727,-87.80171203613281,-349.3440246582031
-3,Pressed,0.9093178510665894,1.5992720127105713,0.5901159644126892,2.4901175498962402,227.3030548095703,200.92453002929688,0,-150.84129333496094,6.567154884338379,-150.67086791992188,-85.386474609375,17.806081771850586,-87.30514526367188,-349.1603698730469
